1000nits_HDR-to-SDR.cube
TITLE "Generated by Resolve"
LUT_3D_SIZE 9
0 0 0
0.110704 0 0
0.275975 0 0
0.525704 0 0
0.886915 0 0
1 0 0
1 0 0.196612
1 0 0.452735
1 0.119982 0.535393
0 0.0769818 0
0.072694 0.0683146 0
0.258 0.0454414 0
0.515023 0 0
0.87921 0 0
1 0 0
1 0 0.198001
1 0 0.453407
1 0.125811 0.535332
0 0.214267 0
0 0.209598 0
0.205203 0.196826 0
0.486198 0.155154 0
0.858808 0 0
1 0 0
1 0 0.201709
1 0 0.455192
1 0.140459 0.535164
0 0.414633 0
0 0.41181 0
0 0.404273 0
0.395041 0.381445 0
0.798871 0.31458 0
1 0.155306 0
1 0 0.212894
1 0.0590677 0.460517
1 0.178546 0.534707
0 0.677119 0
0 0.674937 0
0 0.669291 0
0.023743 0.653422 0
0.632471 0.613596 0
1 0.525811 0.034638
1 0.379095 0.244144
1 0.329763 0.475288
1 0.259236 0.53341
0 0.946319 0.0379644
0 0.945113 0.0399939
0 0.941894 0.0454261
0 0.932418 0.0616312
0.28426 0.906996 0.105272
0.868284 0.845991 0.188159
1 0.728115 0.321981
1 0.604135 0.513512
1 0.399649 0.530175
0 1 0.364263
0 1 0.364797
0 1 0.366186
0 1 0.370336
0 1 0.38172
0.52163 1 0.410559
1 1 0.476112
1 0.840421 0.510552
1 0.602243 0.523064
0 1 0.482078
0 1 0.482109
0 1 0.482185
0 1 0.482414
0 1 0.483055
0 1 0.484733
0.581033 1 0.488869
1 1 0.497551
1 0.833341 0.510994
0 1 0.482078
0 1 0.482078
0 1 0.482109
0 1 0.482185
0 1 0.482414
0 1 0.483024
0 1 0.484627
0.566049 1 0.48867
1 1 0.497551
0 0 0.0765698
0.106447 0 0.0751049
0.273838 0 0.0712139
0.524468 0 0.0599374
0.886061 0 0.0307317
1 0 0.0226596
1 0 0.215732
1 0 0.457053
1 0.120058 0.536629
0 0.0763714 0.0691386
0.0677043 0.0677043 0.0677043
0.255756 0.0448463 0.06392
0.513771 0 0.0528878
0.87837 0 0.0243229
1 0 0.024094
1 0 0.216922
1 0 0.45771
1 0.125887 0.536568
0 0.213886 0.0498817
0 0.209216 0.0485389
0.202564 0.196445 0.0449683
0.484901 0.154726 0.0345922
0.857984 0 0.00766003
1 0 0.027451
1 0 0.220111
1 0 0.459449
1 0.140536 0.536416
0 0.414343 0
0 0.411521 0
0 0.403983 0
0.393622 0.38117 0
0.798047 0.31429 0
1 0.155337 0.0373846
1 0 0.229831
1 0.059556 0.464622
1 0.178607 0.535927
0 0.676799 0
0 0.674617 0
0 0.668986 0
0.0206607 0.653162 0
0.631739 0.613397 0
1 0.525704 0.0787518
1 0.379126 0.25774
1 0.329885 0.478996
1 0.259266 0.534615
0 0.94612 0.0759289
0 0.944915 0.0778821
0 0.941695 0.0833295
0 0.932235 0.0979629
0.283528 0.906828 0.133227
0.867933 0.845853 0.205219
1 0.728054 0.330175
1 0.604166 0.516411
1 0.399664 0.531304
0 1 0.370031
0 1 0.370535
0 1 0.371908
0 1 0.375937
0 1 0.386999
0.521462 1 0.415122
1 1 0.479377
1 0.840375 0.512535
1 0.602228 0.524025
0 1 0.483635
0 1 0.483665
0 1 0.483742
0 1 0.48397
0 1 0.484581
0 1 0.486213
0.580957 1 0.490211
1 1 0.498634
1 0.833326 0.511681
0 1 0.482612
0 1 0.482628
0 1 0.482658
0 1 0.482734
0 1 0.482948
0 1 0.483558
0 1 0.485145
0.566033 1 0.489143
1 1 0.497932
0 0 0.216129
0.0945602 0 0.215076
0.26807 0 0.212268
0.521141 0 0.203922
0.883818 0 0.180896
1 0 0.156146
1 0 0.260807
1 0 0.468376
1 0.120287 0.53994
0 0.0747234 0.211536
0.0544442 0.0660868 0.210483
0.249699 0.0432746 0.207691
0.51043 0 0.199374
0.876127 0 0.176349
1 0 0.156085
1 0 0.261585
1 0 0.468971
1 0.126101 0.539879
0 0.212879 0.199237
0 0.208194 0.198184
0.195407 0.195407 0.195407
0.481468 0.153582 0.187106
0.855756 0 0.16408
1 0 0.15584
1 0 0.263722
1 0 0.470573
1 0.140719 0.539712
0 0.413565 0.161334
0 0.410758 0.160281
0 0.40322 0.157488
0.389792 0.380407 0.149096
0.795865 0.313558 0.125399
1 0.155413 0.1561
1 0 0.270436
1 0.0608682 0.475364
1 0.178744 0.539193
0 0.675944 0.0687572
0 0.673793 0.0706798
0 0.668208 0.0752728
0.0124361 0.652476 0.0868696
0.62974 0.612879 0.111849
1 0.525414 0.16939
1 0.379232 0.291173
1 0.33022 0.488762
1 0.259358 0.537804
0 0.945602 0.157275
0 0.944396 0.158389
0 0.941192 0.161364
0 0.931746 0.170016
0.281575 0.906386 0.192767
0.866972 0.845518 0.245777
1 0.727916 0.351156
1 0.604227 0.524056
1 0.39968 0.53431
0 1 0.384985
0 1 0.385458
0 1 0.386725
0 1 0.390463
0 1 0.400748
0.521019 1 0.42707
1 1 0.487968
1 0.840253 0.517769
1 0.602213 0.526604
0 1 0.487785
0 1 0.487816
0 1 0.487877
0 1 0.48809
0 1 0.488655
0 1 0.49015
0.580758 1 0.493812
1 1 0.501534
1 0.833295 0.513527
0 1 0.484047
0 1 0.484062
0 1 0.484092
0 1 0.484169
0 1 0.484382
0 1 0.484962
0 1 0.486503
0.565957 1 0.490394
1 1 0.498924
0 0 0.43035
0.0548562 0 0.429313
0.250187 0 0.426535
0.511101 0 0.418357
0.877089 0 0.396414
1 0 0.354498
1 0 0.366018
1 0 0.500694
1 0.120928 0.549737
0 0.06981 0.426673
0.0149386 0.0612345 0.42565
0.230854 0.0385901 0.422904
0.500298 0 0.414801
0.869413 0 0.393057
1 0 0.353063
1 0 0.366094
1 0 0.501167
1 0.126711 0.549676
0 0.209857 0.416999
0 0.205158 0.415991
0.172686 0.192294 0.413321
0.471092 0.150134 0.405417
0.849088 0 0.384176
1 0 0.349401
1 0 0.366384
1 0 0.502403
1 0.141283 0.549477
0 0.411246 0.388937
0 0.408438 0.387991
0 0.400916 0.385504
0.378134 0.378134 0.378134
0.789303 0.311315 0.358236
1 0.155657 0.3402
1 0 0.367727
1 0.0647898 0.506157
1 0.179187 0.548882
0 0.673472 0.324102
0 0.671382 0.323995
0 0.665934 0.323674
0 0.650462 0.322683
0.623789 0.611307 0.32108
1 0.52459 0.326635
1 0.379507 0.374777
1 0.331243 0.516854
1 0.259617 0.54728
0 0.94403 0.302068
0 0.942824 0.302464
0 0.939651 0.303532
0 0.930251 0.306783
0.275639 0.905043 0.31606
0.864088 0.844511 0.341726
1 0.727474 0.407752
1 0.604425 0.546273
1 0.399756 0.543221
0 1 0.426719
0 1 0.427085
0 1 0.428092
0 1 0.431098
0 1 0.439384
0.519692 1 0.46099
1 1 0.51284
1 0.839918 0.53315
1 0.602136 0.534264
0 1 0.500023
0 1 0.500038
0 1 0.500084
0 1 0.500237
0 1 0.500648
0 1 0.501747
0.580179 1 0.504433
1 1 0.51014
1 0.833173 0.519036
0 1 0.48835
0 1 0.48835
0 1 0.48838
0 1 0.488441
0 1 0.48864
0 1 0.489174
0 1 0.490578
0.565759 1 0.494118
1 1 0.50193
0 0 0.755047
0 0 0.753719
0.193545 0 0.75024
0.48217 0 0.739971
0.858076 0 0.712596
1 0 0.643229
1 0 0.56553
1 0 0.581643
1 0.122728 0.57644
0 0.056199 0.75111
0 0.0477913 0.749813
0.170016 0.0255894 0.746349
0.471092 0 0.736202
0.850462 0 0.709102
1 0 0.640467
1 0 0.564706
1 0 0.581811
1 0.128435 0.576333
0 0.201282 0.74081
0 0.196506 0.739544
0.0922408 0.183429 0.736187
0.441001 0.140276 0.726314
0.830274 0 0.699916
1 0 0.633417
1 0 0.5626
1 0 0.582269
1 0.14284 0.576074
0 0.404746 0.71136
0 0.401938 0.710201
0 0.394446 0.707103
0.343816 0.371756 0.697978
0.770764 0.305013 0.673548
1 0.156466 0.614694
1 0 0.556863
1 0.0758679 0.583719
1 0.180407 0.575265
0 0.666957 0.634363
0 0.664988 0.633387
0 0.659815 0.630869
0 0.644984 0.623819
0.607019 0.607019 0.607019
1 0.522301 0.575479
1 0.380346 0.545052
1 0.334096 0.588373
1 0.260319 0.573083
0 0.939666 0.533883
0 0.938476 0.533715
0 0.935347 0.533288
0 0.926116 0.532113
0.258549 0.901289 0.529427
0.856001 0.841672 0.526055
1 0.726268 0.535393
1 0.60499 0.60415
1 0.399954 0.567544
0 1 0.526329
0 1 0.526528
0 1 0.527047
0 1 0.528572
0 1 0.532937
0.515969 1 0.544869
1 1 0.576822
1 0.838956 0.574182
1 0.601953 0.555291
0 1 0.532937
0 1 0.532937
0 1 0.532937
0 1 0.532952
0 1 0.532967
0 1 0.533043
0.5785 1 0.533227
1 1 0.533623
1 0.832837 0.534234
0 1 0.500252
0 1 0.500267
0 1 0.500282
0 1 0.500328
0 1 0.500481
0 1 0.500862
0 1 0.5019
0.565179 1 0.504524
1 1 0.510307
0 0 1
0 0 1
0 0 1
0.396765 0 1
0.805997 0 1
1 0 1
1 0 0.895582
1 0 0.756115
1 0.12755 0.643503
0 0.020737 1
0 0.0127565 1
0 0 1
0.384466 0 1
0.798505 0 1
1 0 1
1 0 0.893706
1 0 0.755779
1 0.133089 0.643351
0 0.177356 1
0 0.172335 1
0 0.158526 1
0.350515 0.111788 1
0.778592 0 1
1 0 1
1 0 0.888808
1 0 0.754894
1 0.147051 0.642908
0 0.387213 1
0 0.384436 1
0 0.37702 1
0.232929 0.354513 1
0.716213 0.293767 1
1 0.159411 1
1 0 0.874861
1 0.104509 0.752422
1 0.183688 0.641611
0 0.65124 1
0 0.64947 1
0 0.6448 1
0 0.631266 1
0.561349 0.596063 1
1 0.516503 0.952682
1 0.382742 0.840879
1 0.341802 0.746517
1 0.262272 0.638071
0 0.928084 0.887968
0 0.926955 0.887297
0 0.923949 0.885512
0 0.915114 0.880278
0.207935 0.891356 0.866377
0.83415 0.834134 0.834134
1 0.723095 0.777768
1 0.606561 0.737209
1 0.400519 0.629084
0 1 0.727932
0 1 0.727855
0 1 0.727657
0 1 0.727062
0 1 0.725567
0.505882 1 0.722545
1 1 0.720745
1 0.836332 0.672694
1 0.601465 0.608988
0 1 0.61355
0 1 0.613519
0 1 0.613413
0 1 0.613123
0 1 0.612299
0 1 0.610132
0.573922 1 0.604715
1 1 0.592981
1 0.831922 0.5738
0 1 0.531563
0 1 0.531563
0 1 0.531563
0 1 0.531579
0 1 0.531594
0 1 0.531624
0 1 0.531731
0.563577 1 0.532021
1 1 0.532631
0 0 1
0 0 1
0 0 1
0 0 1
0.657771 0 1
1 0 1
1 0 1
1 0 1
1 0.139956 0.79498
0 0 1
0 0 1
0 0 1
0 0 1
0.650309 0 1
1 0 1
1 0 1
1 0 1
1 0.145037 0.79469
0 0.106096 1
0 0.099733 1
0 0.0816205 1
0 0.0250553 1
0.630991 0 1
1 0 1
1 0 1
1 0.00967422 1
1 0.157977 0.793942
0 0.348379 1
0 0.346365 1
0 0.340963 1
0 0.324895 1
0.576288 0.2813 1
1 0.172152 1
1 0 1
1 0.163775 1
1 0.19234 0.791699
0 0.617243 1
0 0.615808 1
0 0.611994 1
0 0.600839 1
0.436027 0.571435 1
0.992218 0.503853 1
1 0.390082 1
1 0.361868 1
1 0.26746 0.785519
0 0.899275 1
0 0.898268 1
0 0.895613 1
0 0.887739 1
0.00541695 0.86656 1
0.776867 0.815335 1
1 0.715297 1
1 0.605386 0.997284
1 0.401999 0.769772
0 1 1
0 1 1
0 1 1
0 1 1
0 1 1
0.479271 1 1
0.998215 0.998184 0.998199
1 0.829297 0.879866
1 0.600092 0.733989
0 1 0.788434
0 1 0.788327
0 1 0.788037
0 1 0.787213
0 1 0.784894
0 1 0.778714
0.561395 1 0.763195
1 1 0.728649
1 0.829435 0.669276
0 1 0.608682
0 1 0.608667
0 1 0.608637
0 1 0.608545
0 1 0.60827
0 1 0.607538
0 1 0.605585
0.559167 1 0.60061
1 1 0.589319
0 0 1
0 0 1
0 0 1
0 0 1
0.250294 0 1
0.919219 0 1
1 0 1
1 0.151568 1
1 0.169451 1
0 0.00486763 1
0 0.00241093 1
0 0 1
0 0 1
0.242557 0 1
0.915267 0 1
1 0 1
1 0.164797 1
1 0.173648 1
0 0.13286 1
0 0.130861 1
0 0.125505 1
0 0.109194 1
0.221469 0.0612497 1
0.904845 0 1
1 0 1
1 0.196399 1
1 0.184436 1
0 0.319783 1
0 0.318578 1
0 0.315435 1
0 0.306157 1
0.151705 0.281514 1
0.874708 0.22504 1
1 0.149813 1
1 0.271153 1
1 0.213825 1
0 0.56083 1
0 0.559899 1
0 0.557458 1
0 0.550286 1
0 0.531228 1
0.797848 0.487083 1
1 0.414435 1
1 0.411109 1
1 0.280766 1
0 0.837415 1
0 0.836683 1
0 0.834714 1
0 0.828931 1
0 0.81326 1
0.634836 0.775067 1
1 0.699794 1
1 0.595407 1
1 0.405951 1
0 1 1
0 1 1
0 1 1
0 1 1
0 1 1
0.413153 1 1
0.926741 0.963241 1
1 0.810987 1
1 0.596429 0.989914
0 1 1
0 1 1
0 1 1
0 1 1
0 1 1
0 1 1
0.526757 1 1
1 0.999969 0.999985
1 0.822599 0.875319
0 1 0.780652
0 1 0.780606
0 1 0.780514
0 1 0.78024
0 1 0.779446
0 1 0.777295
0 1 0.771557
0.546838 1 0.756786
1 1 0.722438
0 0.272725 1
0 0.272541 1
0 0.272084 1
0 0.270771 1
0 0.267781 1
0.451499 0.264439 1
1 0.281483 1
1 0.315831 1
1 0.229328 1
0 0.284779 1
0 0.284596 1
0 0.284108 1
0 0.28275 1
0 0.279576 1
0.449699 0.275593 1
1 0.290394 1
1 0.320256 1
1 0.232181 1
0 0.314504 1
0 0.314305 1
0 0.313771 1
0 0.312276 1
0 0.308675 1
0.444968 0.303197 1
1 0.312795 1
1 0.331731 1
1 0.239612 1
0 0.38851 1
0 0.388266 1
0 0.38764 1
0 0.38584 1
0 0.381292 1
0.431205 0.372595 1
1 0.370947 1
1 0.363409 1
1 0.260578 1
0 0.533089 1
0 0.532799 1
0 0.532021 1
0 0.529747 1
0 0.523751 1
0.396063 0.510338 1
1 0.491981 1
1 0.436973 1
1 0.311681 1
0 0.750561 1
0 0.750225 1
0 0.74934 1
0 0.746731 1
0 0.739666 1
0.325658 0.722393 1
0.951736 0.688838 1
1 0.573846 1
1 0.415717 1
0 0.972686 1
0 0.972305 1
0 0.971252 1
0 0.968124 1
0 0.959442 1
0.141909 0.93669 1
0.74963 0.88159 1
1 0.767163 1
1 0.586892 1
0 1 1
0 1 1
0 1 1
0 1 1
0 1 1
0 1 1
0.428626 1 1
0.92311 0.961456 1
1 0.803983 1
0 1 1
0 1 1
0 1 1
0 1 1
0 1 1
0 1 1
0 1 1
0.511116 1 1
1 0.999969 0.999985
