1000nits_HDR-to-SDR.cube
TITLE "Generated by Resolve"
LUT_3D_SIZE 5
0 0 0
0.275975 0 0
0.886915 0 0
1 0 0.196612
1 0.119982 0.535393
0 0.214267 0
0.205203 0.196826 0
0.858808 0 0
1 0 0.201709
1 0.140459 0.535164
0 0.677119 0
0 0.669291 0
0.632471 0.613596 0
1 0.379095 0.244144
1 0.259236 0.53341
0 1 0.364263
0 1 0.366186
0 1 0.38172
1 1 0.476112
1 0.602243 0.523064
0 1 0.482078
0 1 0.482109
0 1 0.482414
0 1 0.484627
1 1 0.497551
0 0 0.216129
0.26807 0 0.212268
0.883818 0 0.180896
1 0 0.260807
1 0.120287 0.53994
0 0.212879 0.199237
0.195407 0.195407 0.195407
0.855756 0 0.16408
1 0 0.263722
1 0.140719 0.539712
0 0.675944 0.0687572
0 0.668208 0.0752728
0.62974 0.612879 0.111849
1 0.379232 0.291173
1 0.259358 0.537804
0 1 0.384985
0 1 0.386725
0 1 0.400748
1 1 0.487968
1 0.602213 0.526604
0 1 0.484047
0 1 0.484092
0 1 0.484382
0 1 0.486503
1 1 0.498924
0 0 0.755047
0.193545 0 0.75024
0.858076 0 0.712596
1 0 0.56553
1 0.122728 0.57644
0 0.201282 0.74081
0.0922408 0.183429 0.736187
0.830274 0 0.699916
1 0 0.5626
1 0.14284 0.576074
0 0.666957 0.634363
0 0.659815 0.630869
0.607019 0.607019 0.607019
1 0.380346 0.545052
1 0.260319 0.573083
0 1 0.526329
0 1 0.527047
0 1 0.532937
1 1 0.576822
1 0.601953 0.555291
0 1 0.500252
0 1 0.500282
0 1 0.500481
0 1 0.5019
1 1 0.510307
0 0 1
0 0 1
0.657771 0 1
1 0 1
1 0.139956 0.79498
0 0.106096 1
0 0.0816205 1
0.630991 0 1
1 0 1
1 0.157977 0.793942
0 0.617243 1
0 0.611994 1
0.436027 0.571435 1
1 0.390082 1
1 0.26746 0.785519
0 1 1
0 1 1
0 1 1
0.998215 0.998184 0.998199
1 0.600092 0.733989
0 1 0.608682
0 1 0.608637
0 1 0.60827
0 1 0.605585
1 1 0.589319
0 0.272725 1
0 0.272084 1
0 0.267781 1
1 0.281483 1
1 0.229328 1
0 0.314504 1
0 0.313771 1
0 0.308675 1
1 0.312795 1
1 0.239612 1
0 0.533089 1
0 0.532021 1
0 0.523751 1
1 0.491981 1
1 0.311681 1
0 0.972686 1
0 0.971252 1
0 0.959442 1
0.74963 0.88159 1
1 0.586892 1
0 1 1
0 1 1
0 1 1
0 1 1
1 0.999969 0.999985
