1000nits_HDR-to-SDR.cube
TITLE "Generated by Resolve"
LUT_3D_SIZE 33
0 0 0
0.0274968 0 0
0.0522621 0 0
0.0791333 0 0
0.110704 0 0
0.145617 0 0
0.184527 0 0
0.227832 0 0
0.275975 0 0
0.329366 0 0
0.388495 0 0
0.453788 0 0
0.525704 0 0
0.604685 0 0
0.691066 0 0
0.785107 0 0
0.886915 0 0
0.996353 0 0
1 0 0
1 0 0
1 0 0
1 0 0.0113222
1 0 0.0680552
1 0 0.134173
1 0 0.196612
1 0 0.258839
1 0 0.322057
1 0 0.386664
1 0 0.452735
1 0.0536355 0.520272
1 0.119982 0.535393
1 0.119982 0.535393
1 0.119982 0.535393
0 0.0187381 0
0.017731 0.0166629 0
0.0424506 0.0148013 0
0.0692912 0.0127718 0
0.102251 0.010193 0
0.138613 0.00671397 0
0.178653 0.00204471 0
0.222843 0 0
0.271702 0 0
0.325658 0 0
0.385245 0 0
0.450904 0 0
0.523125 0 0
0.602335 0 0
0.688914 0 0
0.783108 0 0
0.885039 0 0
0.994583 0 0
1 0 0
1 0 0
1 0 0
1 0 0.0117037
1 0 0.068513
1 0 0.134569
1 0 0.196948
1 0 0.259129
1 0 0.322301
1 0 0.386862
1 0 0.452903
1 0.0584573 0.520409
1 0.122423 0.535363
1 0.121859 0.535363
1 0.121416 0.535378
0 0.035584 0
0.00895705 0.0334936 0
0.0336461 0.0316167 0
0.060441 0.0295872 0
0.0942702 0.0269932 0
0.132097 0.0234989 0
0.173236 0.0187991 0
0.21828 0.0125734 0
0.267796 0.00434882 0
0.322301 0 0
0.3823 0 0
0.44831 0 0
0.520806 0 0
0.600229 0 0
0.686976 0 0
0.781323 0 0
0.88336 0 0
0.992996 0 0
1 0 0
1 0 0
1 0 0
1 0 0.0120394
1 0 0.0689097
1 0 0.13492
1 0 0.197253
1 0 0.259388
1 0 0.322515
1 0 0.387045
1 0 0.45304
1 0.0627909 0.520531
1 0.12459 0.535348
1 0.123522 0.535348
1 0.122698 0.535363
0 0.0538186 0
0 0.0517281 0
0.0241093 0.049836 0
0.0508583 0.0477913 0
0.0851453 0.0451972 0
0.124773 0.0416724 0
0.167224 0.0369573 0
0.213245 0.0307012 0
0.263523 0.022446 0
0.318624 0.0116426 0
0.37908 0 0
0.445472 0 0
0.518273 0 0
0.59794 0 0
0.684886 0 0
0.77937 0 0
0.881529 0 0
0.991272 0 0
1 0 0
1 0 0
1 0 0
1 0 0.0124056
1 0 0.0693675
1 0 0.135317
1 0 0.197574
1 0 0.259663
1 0 0.322759
1 0 0.387243
1 0 0.453208
1 0.0675059 0.520653
1 0.126925 0.535317
1 0.125322 0.535332
1 0.124071 0.535348
0 0.0769818 0
0 0.0748913 0
0.0119783 0.0729992 0
0.0386664 0.0709392 0
0.072694 0.0683146 0
0.115023 0.0647746 0
0.159319 0.0600443 0
0.206699 0.0537423 0
0.258 0.0454414 0
0.313878 0.0345769 0
0.37496 0.0204623 0
0.44184 0.00224308 0
0.515023 0 0
0.59501 0 0
0.6822 0 0
0.776883 0 0
0.87921 0 0
0.989059 0 0
1 0 0
1 0 0
1 0 0
1 0 0.0128786
1 0 0.0699321
1 0 0.135805
1 0 0.198001
1 0 0.260014
1 0 0.323049
1 0 0.387488
1 0 0.453407
1 0.073518 0.520821
1 0.129854 0.535286
1 0.127581 0.535317
1 0.125811 0.535332
0 0.106325 0
0 0.104509 0
0 0.102861 0
0.0222629 0.101045 0
0.056199 0.0986954 0
0.100984 0.0954757 0
0.148211 0.0910506 0
0.197604 0.0849775 0
0.250385 0.0764172 0
0.307393 0.0654612 0
0.369345 0.0512398 0
0.436912 0.0328832 0
0.510628 0.00935378 0
0.591043 0 0
0.678569 0 0
0.773526 0 0
0.876051 0 0
0.986084 0 0
1 0 0
1 0 0
1 0 0
1 0 0.0135195
1 0 0.0707103
1 0 0.136477
1 0 0.198566
1 0 0.260502
1 0 0.323461
1 0 0.387823
1 0 0.453681
1 0.0818952 0.52105
1 0.13373 0.535241
1 0.130602 0.535271
1 0.128145 0.535302
0 0.138705 0
0 0.137179 0
0 0.13579 0
0.000396735 0.134264 0
0.0341955 0.132311 0
0.0798657 0.129625 0
0.132342 0.125978 0
0.184924 0.121019 0
0.239902 0.11426 0
0.298528 0.105013 0
0.361715 0.0921492 0
0.430228 0.0737469 0
0.504707 0.0499733 0
0.585702 0.0197147 0
0.673701 0 0
0.769009 0 0
0.871839 0 0
0.982101 0 0
1 0 0
1 0 0
1 0 0
1 0 0.0143893
1 0 0.0717632
1 0 0.137392
1 0 0.199329
1 0 0.261143
1 0 0.323995
1 0 0.388266
1 0 0.454047
1 0.0923934 0.52134
1 0.138827 0.535195
1 0.134585 0.535241
1 0.131228 0.535271
0 0.174609 0
0 0.173297 0
0 0.172107 0
0 0.170825 0
0.00514229 0.169162 0
0.0505989 0.166903 0
0.109117 0.163836 0
0.167025 0.159701 0
0.225422 0.154116 0
0.286458 0.146578 0
0.351415 0.136324 0
0.421271 0.12224 0
0.496773 0.102373 0
0.578576 0.0729686 0
0.667201 0.0342412 0
0.763012 0 0
0.866224 0 0
0.976791 0 0
1 0 0
1 0 0
1 0 0
1 0 0.0155795
1 0 0.0731975
1 0 0.138598
1 0 0.200351
1 0 0.262013
1 0 0.324727
1 0 0.388876
1 0 0.454536
1 0.105333 0.521752
1 0.145403 0.535119
1 0.139757 0.53518
1 0.135256 0.535225
0 0.214267 0
0 0.213138 0
0 0.212116 0
0 0.211017 0
0 0.209598 0
0.012314 0.20766 0
0.0728161 0.205051 0
0.141115 0.201541 0
0.205203 0.196826 0
0.269917 0.190524 0
0.337469 0.182071 0
0.409232 0.170687 0
0.486198 0.155154 0
0.569116 0.133516 0
0.658595 0.102068 0
0.755077 0.0539406 0
0.858808 0 0
0.969802 0 0
1 0 0
1 0 0
1 0 0
1 0 0.0171817
1 0 0.0751202
1 0 0.140215
1 0 0.201709
1 0 0.263157
1 0 0.325689
1 0 0.38967
1 0 0.455192
1 0.121019 0.522271
1 0.15375 0.535012
1 0.14638 0.535103
1 0.140459 0.535164
0 0.257923 0
0 0.256947 0
0 0.256062 0
0 0.2551 0
0 0.25388 0
0 0.252201 0
0.0227359 0.249943 0
0.10135 0.246921 0
0.176272 0.242893 0
0.247044 0.237522 0
0.318563 0.230381 0
0.393118 0.220874 0
0.472129 0.208148 0
0.556588 0.190951 0
0.647257 0.167239 0
0.744656 0.133303 0
0.849104 0.0798199 0
0.960647 0.00308232 0
1 0 0
1 0 0
1 0 0
1 0 0.0193484
1 0 0.0777142
1 0 0.142336
1 0 0.203494
1 0 0.264668
1 0 0.32694
1 0 0.390707
1 0 0.456046
1 0.139712 0.522972
1 0.164233 0.53489
1 0.154757 0.534997
1 0.147097 0.535088
0 0.305806 0
0 0.304936 0
0 0.304173 0
0 0.303319 0
0 0.302251 0
0 0.300786 0
0 0.298817 0
0.0373999 0.296178 0
0.132586 0.292668 0
0.214694 0.288014 0
0.292653 0.281865 0
0.371435 0.273747 0
0.453422 0.262989 0
0.540078 0.248722 0
0.632395 0.229572 0
0.731029 0.203449 0
0.836439 0.166598 0
0.94873 0.110262 0
1 0.0172732 0
1 0 0
1 0 0
1 0 0.0222782
1 0 0.0814374
1 0 0.145129
1 0 0.205844
1 0 0.266636
1 0 0.328603
1 0 0.392081
1 0 0.457176
1 0.161654 0.523888
1 0.177157 0.534722
1 0.165209 0.534874
1 0.155444 0.534997
0 0.358022 0
0 0.357259 0
0 0.356573 0
0 0.355825 0
0 0.354879 0
0 0.353582 0
0 0.351843 0
0 0.349508 0
0.0573892 0.346426 0
0.166567 0.342336 0
0.256397 0.336965 0
0.342016 0.329885 0
0.428519 0.320607 0
0.518334 0.3084 0
0.612955 0.292287 0
0.713314 0.270878 0
0.820035 0.241962 0
0.933333 0.201694 0
1 0.141543 0
1 0.0907301 0
1 0.0083772 0
1 0 0.0262913
1 0 0.0860609
1 0 0.148806
1 0 0.208911
1 0 0.269215
1 0 0.330755
1 0 0.393866
1 0 0.458625
1 0.187076 0.525078
1 0.192874 0.534493
1 0.178073 0.534707
1 0.16582 0.534859
0 0.414633 0
0 0.413947 0
0 0.413336 0
0 0.412665 0
0 0.41181 0
0 0.410666 0
0 0.40911 0
0 0.407034 0
0 0.404273 0
0.0841993 0.400641 0
0.20325 0.395865 0
0.30132 0.389624 0
0.395041 0.381445 0
0.489616 0.370794 0
0.587579 0.356863 0
0.690364 0.338628 0
0.798871 0.31458 0
0.913527 0.282414 0
1 0.24831 0
1 0.20885 0
1 0.155306 0
1 0.0786603 0.0317845
1 0 0.0921035
1 0 0.153582
1 0 0.212894
1 0 0.272572
1 0 0.333547
1 0 0.39617
1 0.0590677 0.460517
1 0.216175 0.526604
1 0.211719 0.534218
1 0.193668 0.534493
1 0.178546 0.534707
0 0.475563 0
0 0.474952 0
0 0.474388 0
0 0.473793 0
0 0.473014 0
0 0.471977 0
0 0.470573 0
0 0.468696 0
0 0.466209 0
0 0.462943 0
0.114824 0.458656 0
0.242527 0.453056 0
0.349264 0.445777 0
0.451453 0.436301 0
0.554406 0.424018 0
0.66067 0.408072 0
0.771679 0.387335 0
0.884901 0.362234 0
0.995712 0.336065 0
1 0.302647 0
1 0.26186 0
1 0.212299 0.0393835
1 0.15169 0.0999313
1 0.0742046 0.159808
1 0 0.218051
1 0 0.27689
1 0 0.337148
1 0.0174105 0.399145
1 0.134722 0.462974
1 0.24918 0.528603
1 0.233967 0.533867
1 0.212299 0.534203
1 0.193942 0.534478
0 0.540566 0
0 0.540002 0
0 0.539498 0
0 0.538949 0
0 0.538247 0
0 0.537285 0
0 0.536019 0
0 0.53431 0
0 0.532052 0
0 0.529091 0
0 0.5252 0
0.147143 0.520134 0
0.284092 0.513542 0
0.399863 0.505013 0
0.510781 0.493996 0
0.622248 0.479789 0
0.733227 0.462577 0
0.845685 0.442374 0
0.961913 0.41799 0
1 0.388785 0
1 0.354208 0.00184634
1 0.313878 0.049958
1 0.267887 0.110018
1 0.217334 0.167849
1 0.165759 0.22472
1 0.122469 0.28246
1 0.106889 0.341787
1 0.136019 0.402975
1 0.20145 0.466117
1 0.286244 0.531167
1 0.259892 0.53341
1 0.234287 0.533852
1 0.212329 0.534203
0 0.609171 0
0 0.608667 0
0 0.608194 0
0 0.607691 0
0 0.60705 0
0 0.60618 0
0 0.605005 0
0 0.603449 0
0 0.601373 0
0 0.598657 0
0 0.595102 0
0 0.590478 0
0.18088 0.584482 0
0.328511 0.57644 0
0.454337 0.565606 0
0.570993 0.553155 0
0.686305 0.538125 0
0.802991 0.519936 0
0.922072 0.498039 0
1 0.471916 0
1 0.441215 0.0153506
1 0.405798 0.0646983
1 0.366064 0.122896
1 0.323369 0.178164
1 0.280781 0.233265
1 0.244266 0.289586
1 0.223484 0.347723
1 0.22916 0.407889
1 0.265522 0.470146
1 0.323583 0.532097
1 0.289708 0.53283
1 0.259892 0.53341
1 0.233997 0.533852
0 0.677119 0
0 0.676585 0
0 0.676112 0
0 0.675593 0
0 0.674937 0
0 0.674052 0
0 0.672877 0
0 0.671321 0
0 0.669291 0
0 0.666651 0
0 0.663249 0
0 0.658915 0
0.023743 0.653422 0
0.243183 0.646479 0
0.385595 0.637781 0
0.511437 0.626963 0
0.632471 0.613596 0
0.753048 0.597253 0
0.874952 0.577432 0
0.998779 0.553735 0
1 0.525811 0.034638
1 0.493568 0.085481
1 0.45742 0.139116
1 0.418463 0.191287
1 0.379095 0.244144
1 0.343572 0.29868
1 0.318471 0.355291
1 0.311788 0.414145
1 0.329763 0.475288
1 0.361975 0.531182
1 0.323552 0.532097
1 0.289342 0.53283
1 0.259236 0.53341
0 0.74461 0
0 0.744183 0
0 0.743801 0
0 0.743374 0
0 0.74284 0
0 0.742123 0
0 0.741146 0
0 0.739864 0
0 0.738155 0
0 0.735943 0
0 0.733059 0
0 0.729335 0
0 0.724559 0
0.0963912 0.718471 0
0.295781 0.710796 0
0.438926 0.701152 0
0.568612 0.689143 0
0.694286 0.674357 0
0.819562 0.656306 0
0.9458 0.634607 0.0216678
1 0.608911 0.0621195
1 0.57908 0.111192
1 0.545388 0.159289
1 0.508675 0.207797
1 0.470832 0.257908
1 0.43505 0.31017
1 0.406302 0.364874
1 0.390997 0.422095
1 0.395407 0.481819
1 0.404486 0.530037
1 0.361532 0.531182
1 0.322789 0.532113
1 0.288273 0.532845
0 0.813489 0
0 0.813107 0
0 0.812772 0
0 0.812406 0
0 0.811933 0
0 0.811292 0
0 0.810437 0
0 0.809308 0
0 0.807813 0
0 0.805859 0
0 0.803311 0
0 0.800015 0
0 0.795789 0
0 0.790372 0
0.163012 0.783505 0
0.347753 0.774838 0
0.492241 0.764004 0
0.625406 0.750591 0.00177005
0.755047 0.734142 0.0270695
0.884108 0.714214 0.0594644
1 0.690471 0.0999619
1 0.662684 0.141421
1 0.630991 0.183902
1 0.596002 0.228275
1 0.559136 0.27509
1 0.522896 0.32459
1 0.491173 0.376928
1 0.469261 0.43212
1 0.463035 0.490089
1 0.450965 0.528664
1 0.403632 0.530068
1 0.360342 0.531212
1 0.321279 0.532143
0 0.8813 0
0 0.880964 0
0 0.880659 0
0 0.880339 0
0 0.879927 0
0 0.879362 0
0 0.878599 0
0 0.877607 0
0 0.87628 0
0 0.87454 0
0 0.872282 0
0 0.869352 0
0 0.865583 0
0 0.860746 0
0 0.854612 0.00578317
0.224399 0.84683 0.0180514
0.399893 0.837079 0.0337987
0.545144 0.824933 0.0539864
0.680888 0.809964 0.0798199
0.813443 0.79173 0.110185
0.945159 0.769833 0.142168
1 0.743999 0.176455
1 0.714214 0.213382
1 0.680858 0.253269
1 0.644953 0.296269
1 0.608469 0.342504
1 0.574517 0.391989
1 0.547478 0.444678
1 0.532708 0.500511
1 0.501137 0.526986
1 0.449729 0.528695
1 0.402029 0.530114
1 0.358389 0.531258
0 0.946319 0.0379644
0 0.946029 0.0384527
0 0.945754 0.0388952
0 0.94548 0.0393835
0 0.945113 0.0399939
0 0.94461 0.0408331
0 0.943954 0.0419471
0 0.943069 0.0434424
0 0.941894 0.0454261
0 0.940368 0.0480201
0 0.938354 0.0514229
0 0.935775 0.0558633
0 0.932418 0.0616312
0 0.92813 0.0690929
0 0.922667 0.078706
0.000167849 0.915724 0.0910201
0.28426 0.906996 0.105272
0.452049 0.896086 0.121889
0.596994 0.882582 0.141115
0.734081 0.866011 0.163134
0.868284 0.845991 0.188159
1 0.822141 0.216403
1 0.794354 0.24802
1 0.762768 0.283177
1 0.728115 0.321981
1 0.691859 0.364446
1 0.656504 0.410574
1 0.625696 0.460304
1 0.604135 0.513512
1 0.554498 0.525017
1 0.49955 0.527047
1 0.44773 0.528756
1 0.399649 0.530175
0 1 0.130632
0 1 0.130999
0 1 0.131319
0 1 0.13167
0 1 0.132128
0 1 0.132738
0 1 0.133547
0 1 0.13463
0 1 0.136049
0 1 0.137896
0 1 0.140307
0 0.997742 0.143389
0 0.994797 0.147311
0 0.991028 0.1523
0 0.986221 0.158541
0 0.980102 0.166293
0.116091 0.972366 0.175845
0.343664 0.962676 0.187503
0.503822 0.950622 0.201556
0.647105 0.93576 0.218326
0.7841 0.917662 0.238132
0.918563 0.895933 0.261234
1 0.870314 0.287892
1 0.840818 0.318303
1 0.807843 0.352636
1 0.772473 0.390951
1 0.736645 0.433249
1 0.703334 0.479515
1 0.669444 0.519997
1 0.610391 0.522713
1 0.552636 0.525078
1 0.497215 0.527123
1 0.444968 0.528847
0 1 0.212406
0 1 0.21265
0 1 0.212863
0 1 0.213092
0 1 0.213397
0 1 0.213794
0 1 0.214343
0 1 0.215061
0 1 0.216022
0 1 0.217273
0 1 0.218906
0 1 0.221012
0 1 0.223713
0 1 0.227176
0 1 0.231571
0 1 0.237125
0 1 0.244068
0.213443 1 0.252705
0.402975 1 0.26334
0.554955 0.999603 0.276326
0.695018 0.983505 0.291997
0.830396 0.964019 0.31075
0.963516 0.940826 0.332891
1 0.913741 0.358724
1 0.882963 0.38851
1 0.849195 0.4224
1 0.81387 0.460517
1 0.77937 0.502876
1 0.727565 0.517067
1 0.667903 0.520073
1 0.608316 0.522789
1 0.550042 0.525185
1 0.494133 0.52723
0 1 0.289143
0 1 0.289311
0 1 0.289464
0 1 0.289631
0 1 0.289845
0 1 0.29015
0 1 0.290532
0 1 0.291051
0 1 0.291737
0 1 0.292653
0 1 0.293828
0 1 0.295354
0 1 0.297322
0 1 0.299855
0 1 0.303105
0 1 0.307225
0 1 0.312413
0.0298009 1 0.318959
0.298131 1 0.327108
0.462257 1 0.337194
0.605173 1 0.349584
0.740429 1 0.36466
0.872465 1 0.382773
1 0.98027 0.404349
1 0.952163 0.429694
1 0.920699 0.459098
1 0.88687 0.49279
1 0.841382 0.510491
1 0.784955 0.513893
1 0.726009 0.517159
1 0.665782 0.52018
1 0.605615 0.522911
1 0.546761 0.525307
0 1 0.364263
0 1 0.364385
0 1 0.364508
0 1 0.36463
0 1 0.364797
0 1 0.365011
0 1 0.365301
0 1 0.365682
0 1 0.366186
0 1 0.366857
0 1 0.367727
0 1 0.368872
0 1 0.370336
0 1 0.372244
0 1 0.37467
0 1 0.377768
0 1 0.38172
0 1 0.386709
0.199771 1 0.392981
0.377935 1 0.400824
0.52163 1 0.410559
0.654505 1 0.422553
0.783246 1 0.437201
0.910307 1 0.454917
1 1 0.476112
1 0.985306 0.500496
1 0.942061 0.503716
1 0.893568 0.507088
1 0.840421 0.510552
1 0.783505 0.51397
1 0.723934 0.517266
1 0.663066 0.520302
1 0.602243 0.523064
0 1 0.439033
0 1 0.439139
0 1 0.439216
0 1 0.439307
0 1 0.439429
0 1 0.439597
0 1 0.439811
0 1 0.440101
0 1 0.440482
0 1 0.440986
0 1 0.441642
0 1 0.442496
0 1 0.44361
0 1 0.445029
0 1 0.446876
0 1 0.449226
0 1 0.452232
0 1 0.456046
0.139132 1 0.460868
0.318196 1 0.466957
0.455543 1 0.474571
0.581277 1 0.484047
0.699611 1 0.490593
0.81413 1 0.492576
0.929274 1 0.494896
1 1 0.497551
1 0.985168 0.500511
1 0.941649 0.503746
1 0.892775 0.507149
1 0.839139 0.510628
1 0.781613 0.514092
1 0.721355 0.517403
1 0.659739 0.52047
0 1 0.482078
0 1 0.482094
0 1 0.482094
0 1 0.482109
0 1 0.482124
0 1 0.482139
0 1 0.48217
0 1 0.4822
0 1 0.482246
0 1 0.482307
0 1 0.482399
0 1 0.482506
0 1 0.482643
0 1 0.482811
0 1 0.48304
0 1 0.48333
0 1 0.483696
0 1 0.484154
0 1 0.484749
0.202502 1 0.485481
0.346029 1 0.486397
0.468544 1 0.487526
0.584497 1 0.488914
0.698833 1 0.490578
0.813443 1 0.492561
0.928862 1 0.494881
1 1 0.497551
1 0.984955 0.500526
1 0.9411 0.503777
1 0.891783 0.50721
1 0.837537 0.510735
1 0.779293 0.514214
1 0.718242 0.517555
0 1 0.482078
0 1 0.482078
0 1 0.482094
0 1 0.482094
0 1 0.482109
0 1 0.482124
0 1 0.482155
0 1 0.48217
0 1 0.482216
