1200nits_HDR-to-SDR.cube
TITLE "Generated by Resolve"
LUT_3D_SIZE 33
0 0 0
0.0275273 0 0
0.0523079 0 0
0.0792096 0 0
0.11078 0 0
0.145708 0 0
0.184634 0 0
0.227939 0 0
0.276066 0 0
0.329442 0 0
0.38851 0 0
0.453742 0 0
0.525536 0 0
0.604334 0 0
0.69044 0 0
0.784085 0 0
0.885344 0 0
0.994018 0 0
1 0 0
1 0 0
1 0 0
1 0 0.0111849
1 0 0.0670481
1 0 0.132311
1 0 0.193866
1 0 0.255024
1 0 0.317006
1 0 0.380194
1 0 0.444724
1 0.0517891 0.510597
1 0.241276 0.566827
1 0.241276 0.566827
1 0.241276 0.566827
0 0.0187533 0
0.0177462 0.0166781 0
0.0424964 0.0148165 0
0.0693523 0.0127871 0
0.102327 0.0102083 0
0.138689 0.00671397 0
0.178729 0.00204471 0
0.222934 0 0
0.271778 0 0
0.325719 0 0
0.385245 0 0
0.450843 0 0
0.522942 0 0
0.601968 0 0
0.688273 0 0
0.782071 0 0
0.883436 0 0
0.992218 0 0
1 0 0
1 0 0
1 0 0
1 0 0.0115511
1 0 0.0674907
1 0 0.132708
1 0 0.194186
1 0 0.255314
1 0 0.317235
1 0 0.380392
1 0 0.444877
1 0.0564431 0.510719
1 0.242634 0.566796
1 0.242313 0.566812
1 0.242069 0.566812
0 0.0356146 0
0.0089723 0.0335241 0
0.0336767 0.0316472 0
0.0604868 0.0296178 0
0.0943313 0.0270237 0
0.132174 0.0235142 0
0.173312 0.0188144 0
0.218357 0.0125734 0
0.267857 0.00436408 0
0.322332 0 0
0.382284 0 0
0.448218 0 0
0.520592 0 0
0.599832 0 0
0.68632 0 0
0.780255 0 0
0.881727 0 0
0.9906 0 0
1 0 0
1 0 0
1 0 0
1 0 0.0118868
1 0 0.0678874
1 0 0.133059
1 0 0.194491
1 0 0.255558
1 0 0.317449
1 0 0.38056
1 0 0.445014
1 0.0606394 0.510842
1 0.243854 0.566781
1 0.243244 0.566796
1 0.242786 0.566796
0 0.0538491 0
0 0.0517586 0
0.0241245 0.0498817 0
0.0508888 0.047837 0
0.0851911 0.0452277 0
0.124834 0.0417029 0
0.167285 0.0369879 0
0.213306 0.0307164 0
0.263569 0.022446 0
0.318639 0.0116426 0
0.379065 0 0
0.445365 0 0
0.518029 0 0
0.597513 0 0
0.684184 0 0
0.778271 0 0
0.879881 0 0
0.988846 0 0
1 0 0
1 0 0
1 0 0
1 0 0.012253
1 0 0.0683299
1 0 0.13344
1 0 0.194812
1 0 0.255833
1 0 0.317678
1 0 0.380758
1 0 0.445182
1 0.0651865 0.510964
1 0.245167 0.566766
1 0.244266 0.566766
1 0.243549 0.566781
0 0.0770428 0
0 0.0749371 0
0.0119783 0.0730449 0
0.0386969 0.070985 0
0.0727245 0.0683604 0
0.115084 0.0648203 0
0.15938 0.0600595 0
0.206744 0.0537575 0
0.25803 0.0454566 0
0.313878 0.0345769 0
0.374914 0.0204623 0
0.441703 0.00224308 0
0.514763 0 0
0.594568 0 0
0.681468 0 0
0.775753 0 0
0.877516 0 0
0.986603 0 0
1 0 0
1 0 0
1 0 0
1 0 0.0127108
1 0 0.0688792
1 0 0.133928
1 0 0.195224
1 0 0.256184
1 0 0.317968
1 0 0.381003
1 0 0.44538
1 0.0710002 0.511131
1 0.246845 0.566735
1 0.245548 0.566751
1 0.244541 0.566766
0 0.106386 0
0 0.104555 0
0 0.102892 0
0.0222782 0.101076 0
0.0562142 0.0987259 0
0.101015 0.0955062 0
0.148241 0.0910811 0
0.197635 0.0849928 0
0.250385 0.0764172 0
0.307362 0.0654612 0
0.369268 0.0512245 0
0.436744 0.0328527 0
0.510338 0.00933852 0
0.590555 0 0
0.677806 0 0
0.772351 0 0
0.874311 0 0
0.983566 0 0
1 0 0
1 0 0
1 0 0
1 0 0.0133516
1 0 0.0696422
1 0 0.134585
1 0 0.195789
1 0 0.256657
1 0 0.318364
1 0 0.381323
1 0 0.44564
1 0.0788434 0.511345
1 0.249104 0.56669
1 0.247288 0.56672
1 0.245869 0.566751
0 0.13875 0
0 0.137209 0
0 0.135821 0
0.000396735 0.134295 0
0.0341955 0.132326 0
0.079881 0.129641 0
0.132357 0.125994 0
0.184924 0.121019 0
0.239872 0.114244 0
0.298466 0.104967 0
0.361593 0.0921035 0
0.43003 0.0736706 0
0.504356 0.0499123 0
0.585153 0.0196841 0
0.672862 0 0
0.767773 0 0
0.870024 0 0
0.979507 0 0
1 0 0
1 0 0
1 0 0
1 0 0.0142061
1 0 0.0706798
1 0 0.135485
1 0 0.196536
1 0 0.257282
1 0 0.318898
1 0 0.381765
1 0 0.446006
1 0.0893873 0.511635
1 0.252079 0.566644
1 0.249592 0.56669
1 0.247639 0.56672
0 0.174609 0
0 0.173297 0
0 0.172107 0
0 0.170825 0
0.00514229 0.169162 0
0.0505837 0.166888 0
0.109087 0.163821 0
0.166979 0.15967 0
0.22536 0.15407 0
0.286336 0.146502 0
0.351232 0.136233 0
0.420996 0.122118 0
0.496361 0.102235 0
0.577966 0.0728161 0
0.6663 0.0341497 0
0.7617 0 0
0.864332 0 0
0.974121 0 0
1 0 0
1 0 0
1 0 0
1 0 0.0153811
1 0 0.0720836
1 0 0.136675
1 0 0.197528
1 0 0.258137
1 0 0.3196
1 0 0.382345
1 0 0.446479
1 0.102129 0.512032
1 0.256016 0.566583
1 0.252628 0.566629
1 0.249989 0.566674
0 0.214221 0
0 0.213092 0
0 0.21207 0
0 0.210956 0
0 0.209537 0
0.012314 0.207599 0
0.0727703 0.204974 0
0.141039 0.20145 0
0.205097 0.196719 0
0.269749 0.190402 0
0.33724 0.181918 0
0.408896 0.170504 0
0.485695 0.15494 0
0.568399 0.133272 0
0.657588 0.101793 0
0.753658 0.0537423 0
0.856809 0 0
0.96701 0 0
1 0 0
1 0 0
1 0 0
1 0 0.0169528
1 0 0.0739605
1 0 0.138247
1 0 0.198856
1 0 0.259251
1 0 0.320546
1 0 0.383124
1 0 0.447105
1 0.117571 0.512535
1 0.261112 0.566491
1 0.256611 0.566567
1 0.253056 0.566629
0 0.257816 0
0 0.256825 0
0 0.25594 0
0 0.254978 0
0 0.253742 0
0 0.252064 0
0.0227207 0.24979 0
0.101244 0.246754 0
0.17612 0.242695 0
0.24683 0.237308 0
0.318242 0.230137 0
0.392691 0.2206 0
0.471534 0.207828 0
0.555779 0.190585 0
0.646128 0.166842 0
0.743099 0.132876 0
0.846952 0.0794232 0
0.957717 0.00306706 0
1 0 0
1 0 0
1 0 0
1 0 0.019089
1 0 0.0764935
1 0 0.140337
1 0 0.20061
1 0 0.260731
1 0 0.321767
1 0 0.384146
1 0 0.447944
1 0.135958 0.513222
1 0.267674 0.566369
1 0.261738 0.566476
1 0.257038 0.566552
0 0.305562 0
0 0.304692 0
0 0.303914 0
0 0.303059 0
0 0.301976 0
0 0.300511 0
0 0.298528 0
0.0373236 0.295872 0
0.132403 0.292348 0
0.214405 0.287678 0
0.292256 0.281498 0
0.370901 0.273335 0
0.45272 0.262531 0
0.539132 0.248203 0
0.631113 0.228992 0
0.72932 0.202823 0
0.834119 0.165927 0
0.945617 0.109636 0
1 0.0171511 0
1 0 0
1 0 0
1 0 0.0219883
1 0 0.0798962
1 0 0.143099
1 0 0.202914
1 0 0.262654
1 0 0.323384
1 0 0.385473
1 0 0.449042
1 0.157565 0.514107
1 0.27602 0.566217
1 0.268315 0.566354
1 0.262165 0.566476
0 0.357595 0
0 0.356832 0
0 0.35613 0
0 0.355383 0
0 0.354421 0
0 0.353124 0
0 0.35137 0
0 0.34902 0
0.0572519 0.345907 0
0.166232 0.341802 0
0.255924 0.336385 0
0.34139 0.329274 0
0.427665 0.319936 0
0.51722 0.307668 0
0.61149 0.291493 0
0.711391 0.270008 0
0.817487 0.241016 0
0.929992 0.200717 0
1 0.140612 0
1 0.0898756 0
1 0.00828565 0
1 0 0.0259251
1 0 0.0847028
1 0 0.1467
1 0 0.205905
1 0 0.265171
1 0 0.325475
1 0 0.387213
1 0 0.450462
1 0.182574 0.515267
1 0.286503 0.566018
1 0.276631 0.566217
1 0.268696 0.566354
0 0.413947 0
0 0.413245 0
0 0.412634 0
0 0.411963 0
0 0.411093 0
0 0.409934 0
0 0.408362 0
0 0.406271 0
0 0.403494 0
0.0838941 0.399832 0
0.202731 0.39501 0
0.300587 0.388724 0
0.394064 0.380499 0
0.488334 0.369772 0
0.585916 0.355764 0
0.688212 0.337438 0
0.796078 0.313298 0
0.909911 0.281056 0
1 0.246876 0
1 0.20737 0
1 0.153887 0
1 0.0775158 0.0313268
1 0 0.0906539
1 0 0.1514
1 0 0.209812
1 0 0.268437
1 0 0.328206
1 0 0.389456
1 0.0571603 0.452293
1 0.211215 0.516762
1 0.299519 0.565774
1 0.287037 0.566018
1 0.276936 0.566201
0 0.474479 0
0 0.473869 0
0 0.473304 0
0 0.472694 0
0 0.471916 0
0 0.470863 0
0 0.469444 0
0 0.467552 0
0 0.465049 0
0 0.461753 0
0.114351 0.45742 0
0.241718 0.451774 0
0.34815 0.444419 0
0.449989 0.434882 0
0.552514 0.422507 0
0.658244 0.40647 0
0.768597 0.385611 0
0.880995 0.360388 0
0.990768 0.334096 0
1 0.300572 0
1 0.259724 0
1 0.210193 0.0388037
1 0.149737 0.0983902
1 0.072755 0.157519
1 0 0.214878
1 0 0.272663
1 0 0.331716
1 0.0168917 0.392355
1 0.131273 0.454673
1 0.243687 0.5187
1 0.31545 0.565454
1 0.299931 0.565759
1 0.287236 0.566018
0 0.538964 0
0 0.538384 0
0 0.537881 0
0 0.537316 0
0 0.536614 0
0 0.535653 0
0 0.534356 0
0 0.532631 0
0 0.530358 0
0 0.527352 0
0 0.52343 0
0.146426 0.518318 0
0.282918 0.511666 0
0.398245 0.503059 0
0.508675 0.491951 0
0.619562 0.477638 0
0.729839 0.460288 0
0.841459 0.439948 0
0.956619 0.415412 0
1 0.386053 0
1 0.351354 0.00181582
1 0.310918 0.0491646
1 0.264927 0.108339
1 0.21445 0.165408
1 0.163043 0.221408
1 0.119951 0.278111
1 0.104295 0.336248
1 0.132799 0.396094
1 0.196994 0.45774
1 0.28014 0.521187
1 0.334707 0.565042
1 0.315694 0.565438
1 0.299947 0.565759
0 0.606867 0
0 0.606348 0
0 0.605875 0
0 0.605356 0
0 0.6047 0
0 0.60383 0
0 0.60264 0
0 0.601068 0
0 0.598978 0
0 0.596231 0
0 0.59263 0
0 0.587961 0
0.179812 0.581888 0
0.326833 0.57377 0
0.452049 0.562844 0
0.568048 0.550301 0
0.682612 0.535134 0
0.798398 0.516793 0
0.916396 0.494713 0
1 0.468421 0
1 0.437552 0.0151217
1 0.401968 0.0636149
1 0.362142 0.121019
1 0.319387 0.175555
1 0.276799 0.22977
1 0.240284 0.285084
1 0.219379 0.342031
1 0.224613 0.40087
1 0.26009 0.461662
1 0.320729 0.524376
1 0.357641 0.564523
1 0.334707 0.565042
1 0.31548 0.565454
0 0.673899 0
0 0.67335 0
0 0.672877 0
0 0.672343 0
0 0.671687 0
0 0.670787 0
0 0.669596 0
0 0.668025 0
0 0.66598 0
0 0.66331 0
0 0.659876 0
0 0.655497 0
0.0234989 0.649927 0
0.24155 0.642924 0
0.3832 0.634134 0
0.508278 0.623209 0
0.628489 0.609705 0
0.748089 0.59321 0
0.868879 0.57322 0
0.991363 0.549325 0
1 0.521202 0.0340734
1 0.488777 0.0839857
1 0.452476 0.137011
1 0.413382 0.188434
1 0.373922 0.240436
1 0.338323 0.293965
1 0.313069 0.349416
1 0.30605 0.406973
1 0.323323 0.466667
1 0.36556 0.528466
1 0.384573 0.563867
1 0.357351 0.564523
1 0.334203 0.565057
0 0.740246 0
0 0.739803 0
0 0.739422 0
0 0.738994 0
0 0.738445 0
0 0.737713 0
0 0.736736 0
0 0.735424 0
0 0.733715 0
0 0.731472 0
0 0.728542 0
0 0.724773 0
0 0.719951 0
0.0952773 0.713802 0
0.293462 0.706035 0
0.43566 0.696284 0
0.564385 0.684153 0
0.689021 0.669215 0
0.813092 0.651011 0
0.937972 0.629114 0.0213169
1 0.603204 0.0610056
1 0.573175 0.109361
1 0.5393 0.156847
1 0.502434 0.204654
1 0.464454 0.25391
1 0.428565 0.305196
1 0.399649 0.35877
1 0.384054 0.41471
1 0.38793 0.47303
1 0.414618 0.533669
1 0.415717 0.563058
1 0.383948 0.563882
1 0.356527 0.564553
0 0.807706 0
0 0.807324 0
0 0.806989 0
0 0.806607 0
0 0.806134 0
0 0.805493 0
0 0.804639 0
0 0.803494 0
0 0.801984 0
0 0.8 0
0 0.797421 0
0 0.794095 0
0 0.789807 0
0 0.784329 0
0.161196 0.777386 0
0.344579 0.768627 0
0.487907 0.757687 0
0.619913 0.744137 0.00173953
0.748272 0.727535 0.0265965
0.875914 0.707439 0.0583658
1 0.683497 0.0982071
1 0.655528 0.139162
1 0.623652 0.181048
1 0.588495 0.22475
1 0.551476 0.270726
1 0.515099 0.319295
1 0.483238 0.370535
1 0.461097 0.424475
1 0.454429 0.481086
1 0.467842 0.540276
1 0.451194 0.562051
1 0.414725 0.563073
1 0.382727 0.563912
0 0.873869 0
0 0.873533 0
0 0.873228 0
0 0.872892 0
0 0.87248 0
0 0.871916 0
0 0.871153 0
0 0.87013 0
0 0.868803 0
0 0.867048 0
0 0.864759 0
0 0.861799 0
0 0.857984 0
0 0.853117 0
0 0.846906 0.00569162
0.221744 0.839048 0.0177157
0.395697 0.829206 0.0331731
0.53959 0.816953 0.0529488
0.67393 0.801862 0.078233
0.804974 0.783475 0.108248
0.935042 0.761425 0.139834
1 0.735424 0.173648
1 0.70547 0.210025
1 0.671946 0.249241
1 0.635904 0.291463
1 0.599298 0.336782
1 0.565225 0.385214
1 0.538018 0.436713
1 0.522911 0.491218
1 0.524941 0.548608
1 0.490959 0.560815
1 0.449821 0.562081
1 0.413108 0.563119
0 0.937011 0.0372168
0 0.936721 0.037705
0 0.936446 0.0381323
0 0.936156 0.0386053
0 0.93579 0.0392157
0 0.935286 0.0400244
0 0.934615 0.0411231
0 0.93373 0.0425879
0 0.932555 0.0445106
0 0.930999 0.0470588
0 0.928985 0.0504005
0 0.926375 0.0547494
0 0.923003 0.0603799
0 0.918669 0.067689
0 0.913146 0.0770886
0.000167849 0.906157 0.0892348
0.280598 0.897368 0.103319
0.446662 0.886366 0.119738
0.590021 0.872755 0.138705
0.725505 0.856077 0.160433
0.858 0.835935 0.185107
0.989181 0.811963 0.212909
1 0.784039 0.244007
1 0.752331 0.278553
1 0.717571 0.316609
1 0.681239 0.358221
1 0.645792 0.403342
1 0.614847 0.451942
1 0.593072 0.503883
1 0.584024 0.557519
1 0.534798 0.559335
1 0.489204 0.560876
1 0.447791 0.562142
0 0.995636 0.128283
0 0.995377 0.128634
0 0.995132 0.128954
0 0.994888 0.129305
0 0.994568 0.129747
0 0.994125 0.130358
0 0.993545 0.131151
0 0.992767 0.132219
0 0.99173 0.133623
0 0.990387 0.135454
0 0.988617 0.137819
0 0.986328 0.140871
0 0.983368 0.144747
0 0.979583 0.149645
0 0.974731 0.15581
0 0.968566 0.163455
0.113756 0.9608 0.172885
0.338811 0.951049 0.18436
0.497124 0.938933 0.198215
0.638621 0.923995 0.214725
0.773816 0.905821 0.234195
0.906371 0.884001 0.256916
1 0.858305 0.283101
1 0.828733 0.312947
1 0.795697 0.346593
1 0.760296 0.3841
1 0.724422 0.425467
1 0.691051 0.470665
1 0.66424 0.5196
1 0.634791 0.555459
1 0.58233 0.55758
1 0.532738 0.559411
1 0.486809 0.560952
0 1 0.208789
0 1 0.209018
0 1 0.209232
0 1 0.209461
0 1 0.209766
0 1 0.210163
0 1 0.210697
0 1 0.211414
0 1 0.212345
0 1 0.213581
0 1 0.215183
0 1 0.217258
0 1 0.219913
0 1 0.223331
0 1 0.227649
0 1 0.233112
0 1 0.239948
0.209644 1 0.248432
0.396811 0.999069 0.258885
0.546807 0.985901 0.271641
0.684947 0.969772 0.287037
0.818357 0.95024 0.30544
0.949401 0.927016 0.327153
1 0.899901 0.352468
1 0.869123 0.381643
1 0.835355 0.414801
1 0.800061 0.452049
1 0.765591 0.493431
1 0.735378 0.538872
1 0.687648 0.553109
1 0.632898 0.555535
1 0.580011 0.557671
1 0.530007 0.559503
0 1 0.284123
0 1 0.284291
0 1 0.284443
0 1 0.284611
0 1 0.284825
0 1 0.285115
0 1 0.285496
0 1 0.286
0 1 0.286687
0 1 0.287572
0 1 0.288716
0 1 0.290227
0 1 0.292165
0 1 0.294652
0 1 0.297826
0 1 0.301869
0 1 0.306981
0.0289158 1 0.31339
0.292805 1 0.321386
0.454643 1 0.331289
0.595499 1 0.343435
0.72874 1 0.35819
0.858686 0.988952 0.375952
0.98674 0.964645 0.397055
1 0.936584 0.421851
1 0.905196 0.450614
1 0.871443 0.483528
1 0.837156 0.520729
1 0.796613 0.547585
1 0.741527 0.550484
1 0.685679 0.553201
1 0.630426 0.555642
1 0.57705 0.557794
0 1 0.357702
0 1 0.357839
0 1 0.357946
0 1 0.358068
0 1 0.358221
0 1 0.358434
0 1 0.358724
0 1 0.359091
0 1 0.359594
0 1 0.36025
0 1 0.361105
0 1 0.362219
0 1 0.363668
0 1 0.36553
0 1 0.36791
0 1 0.370947
0 1 0.374807
0 1 0.37969
0.195438 1 0.38584
0.370962 1 0.393515
0.512474 1 0.403052
0.643275 1 0.414786
0.769955 1 0.429114
0.894865 1 0.446448
1 0.996811 0.467155
1 0.968383 0.491615
1 0.937087 0.52015
1 0.898939 0.541527
1 0.848737 0.54461
1 0.795239 0.547662
1 0.739605 0.550591
1 0.683177 0.553307
1 0.627344 0.555764
0 1 0.430823
0 1 0.430915
0 1 0.431006
0 1 0.431098
0 1 0.431205
0 1 0.431373
0 1 0.431586
0 1 0.431861
0 1 0.432242
0 1 0.432731
0 1 0.433371
0 1 0.434211
0 1 0.435294
0 1 0.436698
0 1 0.438483
0 1 0.440787
0 1 0.443732
0 1 0.447456
0.135439 1 0.452186
0.311696 1 0.458122
0.446845 1 0.465568
0.570535 1 0.47483
0.690288 1 0.48629
0.808911 1 0.500313
0.927092 1 0.517327
1 1 0.533043
1 0.98587 0.535668
1 0.944503 0.538537
1 0.898192 0.541573
1 0.847532 0.544671
1 0.793469 0.547753
1 0.737194 0.550713
1 0.68011 0.55346
0 1 0.504112
0 1 0.504189
0 1 0.50425
0 1 0.504311
0 1 0.504402
0 1 0.504524
0 1 0.504677
0 1 0.504891
0 1 0.50518
0 1 0.505547
0 1 0.506035
0 1 0.506661
0 1 0.507485
0 1 0.508537
0 1 0.509911
0 1 0.511666
0 1 0.513893
0 1 0.516747
0.16054 1 0.520378
0.293111 1 0.522347
0.402899 1 0.523156
0.507424 1 0.524147
0.6112 1 0.525383
0.716274 1 0.526848
0.823362 1 0.528618
0.932372 1 0.530678
1 1 0.533043
1 0.985672 0.535683
1 0.943984 0.538567
1 0.897246 0.541634
1 0.846021 0.544762
1 0.791302 0.547875
1 0.734295 0.550851
0 1 0.519341
0 1 0.519341
0 1 0.519356
0 1 0.519356
0 1 0.519371
0 1 0.519387
0 1 0.519402
0 1 0.519432
0 1 0.519463
