1200nits_HDR-to-SDR.cube
TITLE "Generated by Resolve"
LUT_3D_SIZE 9
0 0 0
0.11078 0 0
0.276066 0 0
0.525536 0 0
0.885344 0 0
1 0 0
1 0 0.193866
1 0 0.444724
1 0.241276 0.566827
0 0.0770428 0
0.0727245 0.0683604 0
0.25803 0.0454566 0
0.514763 0 0
0.877516 0 0
1 0 0
1 0 0.195224
1 0 0.44538
1 0.244541 0.566766
0 0.214221 0
0 0.209537 0
0.205097 0.196719 0
0.485695 0.15494 0
0.856809 0 0
1 0 0
1 0 0.198856
1 0 0.447105
1 0.253056 0.566629
0 0.413947 0
0 0.411093 0
0 0.403494 0
0.394064 0.380499 0
0.796078 0.313298 0
1 0.153887 0
1 0 0.209812
1 0.0571603 0.452293
1 0.276936 0.566201
0 0.673899 0
0 0.671687 0
0 0.66598 0
0.0234989 0.649927 0
0.628489 0.609705 0
1 0.521202 0.0340734
1 0.373922 0.240436
1 0.323323 0.466667
1 0.334203 0.565057
0 0.937011 0.0372168
0 0.93579 0.0392157
0 0.932555 0.0445106
0 0.923003 0.0603799
0.280598 0.897368 0.103319
0.858 0.835935 0.185107
1 0.717571 0.316609
1 0.593072 0.503883
1 0.447791 0.562142
0 1 0.357702
0 1 0.358221
0 1 0.359594
0 1 0.363668
0 1 0.374807
0.512474 1 0.403052
1 0.996811 0.467155
1 0.848737 0.54461
1 0.627344 0.555764
0 1 0.519341
0 1 0.519371
0 1 0.519432
0 1 0.519631
0 1 0.520195
0.162478 1 0.521691
0.608057 1 0.525338
1 1 0.533043
1 0.842084 0.544991
0 1 0.519341
0 1 0.519341
0 1 0.519371
0 1 0.519448
0 1 0.519646
0 1 0.52018
0.13637 1 0.521599
0.594476 1 0.52517
1 1 0.533043
0 0 0.0766461
0.106523 0 0.0751659
0.273915 0 0.0712596
0.524285 0 0.0599069
0.884489 0 0.0306249
1 0 0.0224308
1 0 0.212818
1 0 0.448981
1 0.241306 0.567941
0 0.0764172 0.0691844
0.0677501 0.0677501 0.0677501
0.255772 0.0448615 0.06392
0.513512 0 0.052842
0.876661 0 0.0242313
1 0 0.0238499
1 0 0.213977
1 0 0.449607
1 0.244587 0.56788
0 0.21384 0.0498665
0 0.209155 0.0485084
0.202457 0.196338 0.0449378
0.484413 0.154513 0.0345312
0.85597 0 0.00762951
1 0 0.0271611
1 0 0.21709
1 0 0.451301
1 0.253101 0.567742
0 0.413642 0
0 0.410803 0
0 0.403189 0
0.39263 0.380209 0
0.795254 0.313008 0
1 0.153903 0.0369116
1 0 0.226581
1 0.0576333 0.456336
1 0.276982 0.567315
0 0.673564 0
0 0.671366 0
0 0.665675 0
0.0204471 0.649668 0
0.627741 0.609506 0
1 0.521096 0.0774701
1 0.373968 0.25388
1 0.323445 0.470314
1 0.334234 0.566125
0 0.936812 0.0744488
0 0.935592 0.0763561
0 0.932357 0.0816815
0 0.922805 0.0961624
0.279866 0.897185 0.131014
0.857633 0.835798 0.201984
1 0.71751 0.324712
1 0.593103 0.506737
1 0.447791 0.563165
0 1 0.363394
0 1 0.363897
0 1 0.365225
0 1 0.369177
0 1 0.380011
0.512306 1 0.407553
1 0.99675 0.470375
1 0.848692 0.546365
1 0.627344 0.556634
0 1 0.520714
0 1 0.520745
0 1 0.520806
0 1 0.521004
0 1 0.521553
0.162325 1 0.523003
0.60798 1 0.526543
1 1 0.534005
1 0.842069 0.545617
0 1 0.519814
0 1 0.519829
0 1 0.519844
0 1 0.519921
0 1 0.520119
0 1 0.520638
0.136309 1 0.522042
0.594446 1 0.525582
1 1 0.533379
0 0 0.216266
0.0946365 0 0.215198
0.268147 0 0.212329
0.520943 0 0.20383
0.882216 0 0.180438
1 0 0.154986
1 0 0.25745
1 0 0.460121
1 0.241428 0.570916
0 0.0747692 0.211627
0.0544747 0.0661021 0.210559
0.249714 0.0432746 0.207706
0.51014 0 0.199222
0.874403 0 0.17586
1 0 0.15491
1 0 0.258213
1 0 0.4607
1 0.244709 0.570855
0 0.212818 0.199176
0 0.208118 0.198123
0.195285 0.195285 0.195285
0.480964 0.153353 0.186862
0.853727 0 0.163516
1 0 0.154604
1 0 0.260273
1 0 0.462272
1 0.253208 0.570703
0 0.412848 0.160967
0 0.41001 0.159899
0 0.402411 0.157076
0.388785 0.379431 0.148592
0.793042 0.312245 0.124681
1 0.153979 0.154665
1 0 0.266789
1 0.0588998 0.466926
1 0.277073 0.570245
0 0.672694 0.0681163
0 0.670527 0.0700236
0 0.664881 0.0745403
0.0122988 0.648981 0.0860151
0.625742 0.608972 0.110689
1 0.520806 0.167407
1 0.37406 0.286946
1 0.323781 0.479927
1 0.334295 0.568994
0 0.936278 0.154986
0 0.935058 0.156085
0 0.931823 0.159014
0 0.922301 0.167559
0.277913 0.896727 0.189975
0.856672 0.835462 0.2421
1 0.717372 0.345418
1 0.593164 0.514244
1 0.447822 0.56585
0 1 0.378134
0 1 0.378607
0 1 0.379843
0 1 0.383505
0 1 0.393561
0.511879 1 0.419318
1 0.996582 0.478843
1 0.848585 0.551049
1 0.627329 0.558953
0 1 0.524392
0 1 0.524407
0 1 0.524468
0 1 0.524651
0 1 0.525154
0.161959 1 0.526482
0.607813 1 0.529717
1 1 0.536583
1 0.842023 0.547265
0 1 0.52108
0 1 0.521096
0 1 0.521111
0 1 0.521187
0 1 0.52137
0 1 0.521889
0.136172 1 0.523247
0.594385 1 0.52668
1 1 0.534264
0 0 0.430518
0.0548867 0 0.429435
0.250217 0 0.426566
0.510842 0 0.418143
0.875395 0 0.39556
1 0 0.352422
1 0 0.361669
1 0 0.491981
1 0.241794 0.579736
0 0.0698253 0.426764
0.0149386 0.0612345 0.425681
0.230823 0.0385748 0.422858
0.499947 0 0.414496
0.867597 0 0.392142
1 0 0.350942
1 0 0.36173
1 0 0.492424
1 0.24506 0.579675
0 0.209766 0.416861
0 0.205035 0.415808
0.172534 0.192142 0.413046
0.470527 0.149889 0.404913
0.846983 0 0.383093
1 0 0.347173
1 0 0.361944
1 0 0.493629
1 0.253544 0.579492
0 0.410483 0.38819
0 0.407645 0.387228
0 0.400061 0.384665
0.377127 0.377127 0.377127
0.786435 0.309987 0.356771
1 0.154208 0.337697
1 0 0.363104
1 0.0626993 0.497261
1 0.277348 0.578958
0 0.670176 0.322286
0 0.668055 0.322164
0 0.662562 0.321813
0 0.646922 0.320684
0.619776 0.60737 0.318761
1 0.519951 0.323461
1 0.374319 0.36965
1 0.324788 0.507591
1 0.334493 0.577508
0 0.934691 0.298466
0 0.933486 0.298863
0 0.930266 0.299901
0 0.92079 0.303059
0.272038 0.895369 0.312062
0.853803 0.834424 0.337026
1 0.71693 0.401282
1 0.593362 0.53611
1 0.447883 0.573861
0 1 0.419272
0 1 0.419638
0 1 0.420615
0 1 0.423545
0 1 0.431647
0.510567 1 0.45272
1 0.996078 0.503319
1 0.848264 0.564813
1 0.627268 0.56582
0 1 0.535225
0 1 0.535241
0 1 0.535286
0 1 0.535424
0 1 0.53579
0.160845 1 0.536767
0.607279 1 0.539162
1 1 0.544228
1 0.841917 0.552163
0 1 0.52488
0 1 0.52488
0 1 0.52491
0 1 0.524971
0 1 0.525139
0 1 0.525612
0.135744 1 0.526864
0.594202 1 0.529992
1 1 0.536934
0 0 0.755032
0 0 0.753658
0.193469 0 0.750027
0.481743 0 0.739345
0.856168 0 0.710964
1 0 0.639673
1 0 0.559258
1 0 0.571725
1 0.242802 0.603876
0 0.0561837 0.750957
0 0.0477607 0.749599
0.169909 0.0255741 0.746014
0.470573 0 0.735454
0.848432 0 0.707378
1 0 0.636851
1 0 0.558419
1 0 0.571878
1 0.246036 0.603784
0 0.201099 0.740307
0 0.196307 0.738994
0.0920729 0.1832 0.7355
0.440299 0.139971 0.725246
0.82797 0 0.697932
1 0 0.629648
1 0 0.556237
1 0 0.572305
1 0.254475 0.60354
0 0.403845 0.709926
0 0.401022 0.708705
0 0.393469 0.705501
0.342748 0.370626 0.696086
0.767758 0.303609 0.670878
1 0.154971 0.610513
1 0 0.550317
1 0.0734112 0.573663
1 0.278157 0.602823
0 0.663539 0.631083
0 0.66154 0.630091
0 0.656321 0.627497
0 0.641321 0.620264
0.602975 0.602975 0.602975
1 0.517601 0.570367
1 0.375113 0.538033
1 0.327581 0.578027
1 0.335027 0.600824
0 0.930251 0.528145
0 0.929061 0.527962
0 0.925902 0.52752
0 0.916579 0.526253
0.25507 0.891569 0.523323
0.845731 0.83154 0.519341
1 0.715694 0.52726
1 0.593896 0.593072
1 0.448051 0.595819
0 1 0.517449
0 1 0.517632
0 1 0.518135
0 1 0.519615
0 1 0.523812
0.506889 1 0.535348
1 0.994659 0.566293
1 0.847364 0.601831
1 0.6271 0.584741
0 1 0.564614
0 1 0.564614
0 1 0.564614
0 1 0.56463
0 1 0.56466
0.157656 1 0.564721
0.605753 1 0.564889
1 1 0.565225
1 0.841596 0.565789
0 1 0.535439
0 1 0.535439
0 1 0.535454
0 1 0.5355
0 1 0.535637
0 1 0.535988
0.134524 1 0.536904
0.593668 1 0.539223
1 1 0.544381
0 0 1
0 0 1
0 0 1
0.396002 0 1
0.80354 0 1
1 0 1
1 0 0.885924
1 0 0.743587
1 0.245533 0.665171
0 0.0206912 1
0 0.012726 1
0 0 1
0.383642 0 1
0.795956 0 1
1 0 1
1 0 0.884031
1 0 0.743236
1 0.248722 0.665019
0 0.176959 1
0 0.171939 1
0 0.158099 1
0.349584 0.11136 1
0.775814 0 1
1 0 1
1 0 0.879057
1 0 0.742336
1 0.257023 0.664607
0 0.385992 1
0 0.3832 1
0 0.375738 1
0.231907 0.353124 1
0.712902 0.29218 1
1 0.157778 1
1 0 0.864897
1 0.101503 0.739803
1 0.280339 0.663432
0 0.647471 1
0 0.645685 1
0 0.640986 1
0 0.627298 1
0.557275 0.591775 1
1 0.511635 0.94435
1 0.377371 0.830427
1 0.335134 0.73373
1 0.336507 0.660166
0 0.918486 0.878752
0 0.917342 0.878065
0 0.914321 0.876249
0 0.905409 0.870909
0.204883 0.881468 0.856748
0.823911 0.823896 0.823911
1 0.712444 0.7664
1 0.595407 0.72398
1 0.448524 0.651911
0 1 0.716106
0 1 0.71603
0 1 0.715816
0 1 0.71519
0 1 0.713603
0.496895 1 0.710338
1 0.990845 0.707912
1 0.844892 0.692073
1 0.626642 0.633509
0 1 0.63769
0 1 0.637659
0 1 0.637568
0 1 0.637293
0 1 0.636545
0.148684 1 0.634562
0.601602 1 0.629618
1 1 0.618921
1 0.840742 0.60148
0 1 0.563394
0 1 0.563394
0 1 0.563394
0 1 0.563394
0 1 0.563409
0 1 0.563455
0.131121 1 0.563546
0.592218 1 0.56379
1 1 0.564355
0 0 1
0 0 1
0 0 1
0 0 1
0.654429 0 1
1 0 1
1 0 1
1 0 1
1 0.25275 0.806012
0 0 1
0 0 1
0 0 1
0 0 1
0.646922 0 1
1 0 1
1 0 1
1 0 1
1 0.255802 0.805753
0 0.105394 1
0 0.0990616 1
0 0.0807355 1
0 0.0248417 1
0.627497 0 1
1 0 1
1 0 1
1 0.00935378 1
1 0.263737 0.805035
0 0.346487 1
0 0.344457 1
0 0.339025 1
0 0.322911 1
0.572549 0.279194 1
1 0.170138 1
1 0 1
1 0.159838 1
1 0.286137 0.80293
0 0.612711 1
0 0.611261 1
0 0.607416 1
0 0.59617 1
0.432105 0.566522 1
0.982589 0.498527 1
1 0.38439 1
1 0.354818 1
1 0.340444 0.797147
0 0.889235 1
0 0.888228 1
0 0.885542 1
0 0.877623 1
0.00527962 0.856321 1
0.766796 0.804822 1
1 0.704463 1
1 0.599619 0.982651
1 0.44979 0.782376
0 1 1
0 1 1
0 1 1
0 1 1
0 1 1
0.470558 1 1
0.98088 0.98085 0.980865
1 0.83827 0.885969
1 0.625391 0.748974
0 1 0.799863
0 1 0.799771
0 1 0.799512
0 1 0.798718
0 1 0.796551
0.122377 1 0.790753
0.590249 1 0.776226
1 1 0.743984
1 0.838392 0.688914
0 1 0.633234
0 1 0.633219
0 1 0.633188
0 1 0.633112
0 1 0.632853
0 1 0.632181
0.121508 1 0.630411
0.588251 1 0.625864
1 1 0.615579
0 0 1
0 0 1
0 0 1
0 0 1
0.247547 0 1
0.909804 0 1
1 0 1
1 0.147707 1
1 0.271015 1
0 0.00479133 1
0 0.00238041 1
0 0 1
0 0 1
0.239857 0 1
0.905837 0 1
1 0 1
1 0.160739 1
1 0.273732 1
0 0.131182 1
0 0.129183 1
0 0.123857 1
0 0.107637 1
0.218875 0.0601511 1
0.895369 0 1
1 0 1
1 0.191836 1
1 0.280827 1
0 0.316533 1
0 0.315328 1
0 0.312169 1
0 0.302892 1
0.149554 0.278248 1
0.865141 0.221866 1
1 0.146777 1
1 0.2654 1
1 0.300999 1
0 0.554833 1
0 0.553903 1
0 0.551446 1
0 0.544228 1
0 0.525078 1
0.788174 0.480766 1
1 0.407858 1
1 0.403067 1
1 0.350683 1
0 0.826505 1
0 0.825757 1
0 0.823789 1
0 0.817975 1
0 0.802243 1
0.625498 0.763943 1
1 0.688518 1
1 0.611978 1
1 0.453162 1
0 1 1
0 1 1
0 1 1
0 1 1
0 1 1
0.405188 1 1
0.921248 0.956527 1
1 0.821042 1
1 0.622049 0.990402
0 1 1
0 1 1
0 1 1
0 1 1
0 1 1
0.0324865 1 1
0.559091 1 1
1 0.999969 0.999985
1 0.831952 0.881666
0 1 0.792569
0 1 0.792538
0 1 0.792447
0 1 0.792187
0 1 0.79144
0 1 0.789425
0.0919661 1 0.784054
0.577127 1 0.770245
1 1 0.738216
0 0.26807 1
0 0.267903 1
0 0.26743 1
0 0.266102 1
0 0.263081 1
0.444129 0.259586 1
1 0.275929 1
1 0.378347 1
1 0.312078 1
0 0.279973 1
0 0.279789 1
0 0.279301 1
0 0.277913 1
0 0.274708 1
0.442344 0.270573 1
1 0.284703 1
1 0.381918 1
1 0.314153 1
0 0.3093 1
0 0.309087 1
0 0.308553 1
0 0.307042 1
0 0.30341 1
0.437644 0.297795 1
1 0.306767 1
1 0.391196 1
1 0.31957 1
0 0.382269 1
0 0.382025 1
0 0.381399 1
0 0.379583 1
0 0.37499 1
0.423987 0.366171 1
1 0.364019 1
1 0.417273 1
1 0.335225 1
0 0.524666 1
0 0.524376 1
0 0.523598 1
0 0.521309 1
0 0.515297 1
0.38912 0.501778 1
1 0.483085 1
1 0.479866 1
1 0.375021 1
0 0.738277 1
0 0.737942 1
0 0.737057 1
0 0.734447 1
0 0.727367 1
0.319295 0.710079 1
0.93518 0.676417 1
1 0.601526 1
1 0.461524 1
0 0.970886 1
0 0.970596 1
0 0.969848 1
0 0.96759 1
0 0.961364 1
0.253941 0.939803 1
0.763561 0.887602 1
1 0.77995 1
1 0.613367 1
0 1 1
0 1 1
0 1 1
0 1 1
0 1 1
0 1 1
0.472648 1 1
0.926925 0.963333 1
1 0.814466 1
0 1 1
0 1 1
0 1 1
0 1 1
0 1 1
0 1 1
0 1 1
0.545113 1 1
1 0.999969 0.999985
