1200nits_HDR-to-SDR.cube
TITLE "Generated by Resolve"
LUT_3D_SIZE 5
0 0 0
0.276066 0 0
0.885344 0 0
1 0 0.193866
1 0.241276 0.566827
0 0.214221 0
0.205097 0.196719 0
0.856809 0 0
1 0 0.198856
1 0.253056 0.566629
0 0.673899 0
0 0.66598 0
0.628489 0.609705 0
1 0.373922 0.240436
1 0.334203 0.565057
0 1 0.357702
0 1 0.359594
0 1 0.374807
1 0.996811 0.467155
1 0.627344 0.555764
0 1 0.519341
0 1 0.519371
0 1 0.519646
0.13637 1 0.521599
1 1 0.533043
0 0 0.216266
0.268147 0 0.212329
0.882216 0 0.180438
1 0 0.25745
1 0.241428 0.570916
0 0.212818 0.199176
0.195285 0.195285 0.195285
0.853727 0 0.163516
1 0 0.260273
1 0.253208 0.570703
0 0.672694 0.0681163
0 0.664881 0.0745403
0.625742 0.608972 0.110689
1 0.37406 0.286946
1 0.334295 0.568994
0 1 0.378134
0 1 0.379843
0 1 0.393561
1 0.996582 0.478843
1 0.627329 0.558953
0 1 0.52108
0 1 0.521111
0 1 0.52137
0.136172 1 0.523247
1 1 0.534264
0 0 0.755032
0.193469 0 0.750027
0.856168 0 0.710964
1 0 0.559258
1 0.242802 0.603876
0 0.201099 0.740307
0.0920729 0.1832 0.7355
0.82797 0 0.697932
1 0 0.556237
1 0.254475 0.60354
0 0.663539 0.631083
0 0.656321 0.627497
0.602975 0.602975 0.602975
1 0.375113 0.538033
1 0.335027 0.600824
0 1 0.517449
0 1 0.518135
0 1 0.523812
1 0.994659 0.566293
1 0.6271 0.584741
0 1 0.535439
0 1 0.535454
0 1 0.535637
0.134524 1 0.536904
1 1 0.544381
0 0 1
0 0 1
0.654429 0 1
1 0 1
1 0.25275 0.806012
0 0.105394 1
0 0.0807355 1
0.627497 0 1
1 0 1
1 0.263737 0.805035
0 0.612711 1
0 0.607416 1
0.432105 0.566522 1
1 0.38439 1
1 0.340444 0.797147
0 1 1
0 1 1
0 1 1
0.98088 0.98085 0.980865
1 0.625391 0.748974
0 1 0.633234
0 1 0.633188
0 1 0.632853
0.121508 1 0.630411
1 1 0.615579
0 0.26807 1
0 0.26743 1
0 0.263081 1
1 0.275929 1
1 0.312078 1
0 0.3093 1
0 0.308553 1
0 0.30341 1
1 0.306767 1
1 0.31957 1
0 0.524666 1
0 0.523598 1
0 0.515297 1
1 0.483085 1
1 0.375021 1
0 0.970886 1
0 0.969848 1
0 0.961364 1
0.763561 0.887602 1
1 0.613367 1
0 1 1
0 1 1
0 1 1
0 1 1
1 0.999969 0.999985
