1500nits_HDR-to-SDR.cube
TITLE "Generated by Resolve"
LUT_3D_SIZE 33
0 0 0
0.0275578 0 0
0.052369 0 0
0.0793011 0 0
0.110872 0 0
0.145815 0 0
0.184726 0 0
0.228046 0 0
0.276158 0 0
0.329519 0 0
0.38854 0 0
0.453696 0 0
0.525368 0 0
0.603983 0 0
0.689815 0 0
0.783062 0 0
0.883757 0 0
0.991653 0 0
1 0 0
1 0 0
1 0 0
1 0 0.0110475
1 0 0.0660563
1 0 0.130465
1 0 0.191135
1 0 0.25127
1 0 0.312032
1 0 0.373877
1 0 0.436896
1 0.0500343 0.501198
1 0.262348 0.566903
1 0.348028 0.606165
1 0.348028 0.606165
0 0.0187839 0
0.0177768 0.0167086 0
0.0425269 0.0148318 0
0.0694133 0.0128023 0
0.102403 0.0102083 0
0.138781 0.00671397 0
0.17882 0.00204471 0
0.223026 0 0
0.271855 0 0
0.325765 0 0
0.38526 0 0
0.450767 0 0
0.522744 0 0
0.601587 0 0
0.687617 0 0
0.781018 0 0
0.881819 0 0
0.989822 0 0
1 0 0
1 0 0
1 0 0
1 0 0.0114137
1 0 0.0664836
1 0 0.130846
1 0 0.19147
1 0 0.25153
1 0 0.312261
1 0 0.37406
1 0 0.437049
1 0.0545205 0.50132
1 0.263844 0.56701
1 0.34873 0.606149
1 0.348562 0.606149
0 0.0356451 0
0.0089723 0.0335546 0
0.0337072 0.0316777 0
0.0605325 0.029633 0
0.0944076 0.027039 0
0.13225 0.0235294 0
0.173388 0.0188296 0
0.218433 0.0125887 0
0.267918 0.00436408 0
0.322377 0 0
0.382284 0 0
0.448127 0 0
0.520378 0 0
0.599435 0 0
0.685634 0 0
0.779171 0 0
0.880079 0 0
0.988174 0 0
1 0 0
1 0 0
1 0 0
1 0 0.0117342
1 0 0.0668803
1 0 0.131197
1 0 0.19176
1 0 0.251789
1 0 0.312474
1 0 0.374228
1 0 0.437201
1 0.0585794 0.501427
1 0.265202 0.567102
1 0.349355 0.606134
1 0.349035 0.606134
0 0.0538949 0
0 0.0518044 0
0.0241398 0.0499123 0
0.0509194 0.0478676 0
0.0852522 0.0452583 0
0.12491 0.0417182 0
0.167346 0.0370031 0
0.213367 0.0307317 0
0.263615 0.0224613 0
0.318654 0.0116426 0
0.379034 0 0
0.445258 0 0
0.5178 0 0
0.597086 0 0
0.683482 0 0
0.777157 0 0
0.878202 0 0
0.986374 0 0
1 0 0
1 0 0
1 0 0
1 0 0.0121004
1 0 0.0672923
1 0 0.131579
1 0 0.192065
1 0 0.252049
1 0 0.312688
1 0 0.374411
1 0 0.437339
1 0.062974 0.501549
1 0.266651 0.567208
1 0.350042 0.606119
1 0.349569 0.606134
0 0.0771038 0
0 0.0749828 0
0.0119936 0.0730907 0
0.0387121 0.0710307 0
0.0727703 0.0683909 0
0.115129 0.0648508 0
0.159426 0.06009 0
0.20679 0.0537728 0
0.258045 0.0454566 0
0.313878 0.0345769 0
0.374868 0.0204623 0
0.441566 0.00224308 0
0.514504 0 0
0.594095 0 0
0.680735 0 0
0.774609 0 0
0.875792 0 0
0.9841 0 0
1 0 0
1 0 0
1 0 0
1 0 0.0125582
1 0 0.0678416
1 0 0.132052
1 0 0.192477
1 0 0.252384
1 0 0.312978
1 0 0.374655
1 0 0.437537
1 0.068574 0.501701
1 0.268498 0.56733
1 0.350896 0.606104
1 0.350225 0.606119
0 0.106432 0
0 0.104601 0
0 0.102937 0
0.0222934 0.101122 0
0.0562448 0.0987716 0
0.101045 0.0955367 0
0.148272 0.0910964 0
0.19765 0.085008 0
0.250385 0.0764172 0
0.307332 0.0654459 0
0.369177 0.051194 0
0.436561 0.0328374 0
0.510033 0.00932326 0
0.590051 0 0
0.677012 0 0
0.771145 0 0
0.872541 0 0
0.981018 0 0
1 0 0
1 0 0
1 0 0
1 0 0.0131838
1 0 0.0685893
1 0 0.132708
1 0 0.193027
1 0 0.252857
1 0 0.313359
1 0 0.37496
1 0 0.437797
1 0.0761578 0.501915
1 0.270985 0.567498
1 0.352071 0.606073
1 0.351125 0.606104
0 0.138781 0
0 0.13724 0
0 0.135851 0
0.000396735 0.13431 0
0.0342107 0.132357 0
0.079881 0.129656 0
0.132357 0.125994 0
0.184909 0.121019 0
0.239841 0.114229 0
0.298405 0.104936 0
0.361471 0.0920424 0
0.429801 0.0736095 0
0.504005 0.049836 0
0.584604 0.0196384 0
0.672023 0 0
0.766522 0 0
0.868193 0 0
0.976898 0 0
1 0 0
1 0 0
1 0 0
1 0 0.014023
1 0 0.0696117
1 0 0.133577
1 0 0.193759
1 0 0.253468
1 0 0.313878
1 0 0.375387
1 0 0.438148
1 0.0864881 0.502205
1 0.274266 0.567727
1 0.353628 0.606043
1 0.352316 0.606073
0 0.174624 0
0 0.173312 0
0 0.172122 0
0 0.170809 0
0.00514229 0.169146 0
0.0505837 0.166873 0
0.109071 0.16379 0
0.166949 0.159625 0
0.225299 0.154009 0
0.286229 0.146441 0
0.351064 0.136141 0
0.420722 0.121996 0
0.495949 0.102098 0
0.57734 0.0726635 0
0.66537 0.0340581 0
0.760342 0 0
0.862409 0 0
0.971405 0 0
1 0 0
1 0 0
1 0 0
1 0 0.0151827
1 0 0.0709697
1 0 0.134752
1 0 0.194736
1 0 0.254292
1 0 0.314565
1 0 0.375967
1 0 0.438621
1 0.0990158 0.502586
1 0.278599 0.568032
1 0.355703 0.605997
1 0.353902 0.606043
0 0.214176 0
0 0.213046 0
0 0.212024 0
0 0.21091 0
0 0.209476 0
0.0122988 0.207523 0
0.0727398 0.204898 0
0.140963 0.201358 0
0.204974 0.196612 0
0.269596 0.19028 0
0.336996 0.181765 0
0.408545 0.170321 0
0.485206 0.154726 0
0.567681 0.133028 0
0.656565 0.101518 0
0.752209 0.0535439 0
0.85478 0 0
0.964187 0 0
1 0 0
1 0 0
1 0 0
1 0 0.0167391
1 0 0.0728161
1 0 0.136309
1 0 0.196033
1 0 0.25539
1 0 0.31548
1 0 0.376715
1 0 0.439231
1 0.114214 0.50309
1 0.28423 0.568444
1 0.358419 0.605936
1 0.355993 0.605997
0 0.257694 0
0 0.256703 0
0 0.255802 0
0 0.254841 0
0 0.25359 0
0 0.251911 0
0.0226902 0.249638 0
0.101152 0.246586 0
0.175952 0.242512 0
0.246601 0.237095 0
0.317937 0.229892 0
0.392248 0.22031 0
0.470924 0.207507 0
0.55494 0.190219 0
0.644984 0.16643 0
0.741512 0.132448 0
0.844785 0.0790265 0
0.954742 0.0030518 0
1 0 0
1 0 0
1 0 0
1 0 0.0188296
1 0 0.075288
1 0 0.138354
1 0 0.197757
1 0 0.256825
1 0 0.316686
1 0 0.377707
1 0 0.44004
1 0.132326 0.503746
1 0.291447 0.568978
1 0.361959 0.605859
1 0.358724 0.605936
0 0.305318 0
0 0.304448 0
0 0.303655 0
0 0.3028 0
0 0.301717 0
0 0.300237 0
0 0.298238 0
0.0372625 0.295567 0
0.132204 0.292027 0
0.21413 0.287327 0
0.291859 0.281102 0
0.370367 0.272908 0
0.452003 0.262058 0
0.53817 0.247669 0
0.629816 0.228412 0
0.727565 0.202197 0
0.831769 0.16527 0
0.942458 0.10901 0
1 0.0169985 0
1 0 0
1 0 0
1 0 0.0216831
1 0 0.0786297
1 0 0.141054
1 0 0.2
1 0 0.258717
1 0 0.318257
1 0 0.379004
1 0 0.441108
1 0.153582 0.504601
1 0.300633 0.569665
1 0.366522 0.605768
1 0.362249 0.605859
0 0.357153 0
0 0.35639 0
0 0.355688 0
0 0.354925 0
0 0.353964 0
0 0.352651 0
0 0.350881 0
0 0.348516 0
0.0570993 0.345388 0
0.165911 0.341253 0
0.255451 0.335805 0
0.340749 0.328649 0
0.42681 0.319249 0
0.516091 0.30692 0
0.61001 0.290684 0
0.709453 0.269123 0
0.814923 0.24007 0
0.926604 0.199725 0
1 0.139681 0
1 0.0890059 0
1 0.00817884 0
1 0 0.0255589
1 0 0.0833448
1 0 0.14461
1 0 0.202945
1 0 0.261189
1 0 0.320302
1 0 0.380697
1 0 0.442481
1 0.17821 0.50573
1 0.312169 0.570581
1 0.372381 0.605631
1 0.366796 0.605753
0 0.41323 0
0 0.412543 0
0 0.411917 0
0 0.411231 0
0 0.410361 0
0 0.409186 0
0 0.407599 0
0 0.405493 0
0 0.402686 0
0.0835889 0.398993 0
0.202197 0.394156 0
0.29984 0.387808 0
0.393057 0.379522 0
0.487037 0.368734 0
0.584222 0.35465 0
0.68603 0.336233 0
0.793256 0.311986 0
0.906264 0.279667 0
1 0.245426 0
1 0.205875 0
1 0.152453 0
1 0.0764019 0.0308843
1 0 0.0892195
1 0 0.149233
1 0 0.206775
1 0 0.264378
1 0 0.322957
1 0 0.382895
1 0.0553292 0.444282
1 0.206394 0.507179
1 0.326467 0.571756
1 0.379797 0.605463
1 0.372595 0.605631
0 0.473396 0
0 0.472755 0
0 0.47219 0
0 0.47158 0
0 0.470787 0
0 0.469718 0
0 0.468299 0
0 0.466392 0
0 0.463859 0
0 0.460533 0
0.113863 0.456168 0
0.240909 0.450462 0
0.347036 0.443061 0
0.448508 0.433433 0
0.550607 0.420981 0
0.655802 0.404837 0
0.765484 0.383871 0
0.877043 0.358541 0
0.985779 0.332128 0
1 0.298482 0
1 0.257572 0
1 0.208072 0.0382086
1 0.147799 0.096849
1 0.0713207 0.15523
1 0 0.211734
1 0 0.268513
1 0 0.32639
1 0.0163882 0.385718
1 0.127916 0.446601
1 0.238346 0.509071
1 0.343969 0.573281
1 0.38912 0.605249
1 0.379934 0.605463
0 0.537331 0
0 0.536751 0
0 0.536233 0
0 0.535668 0
0 0.534951 0
0 0.533989 0
0 0.532677 0
0 0.530938 0
0 0.528634 0
0 0.525612 0
0 0.521645 0
0.145693 0.516472 0
0.281727 0.509758 0
0.396612 0.501076 0
0.506539 0.489876 0
0.616846 0.475456 0
0.726421 0.457984 0
0.837186 0.437507 0
0.951293 0.412818 0
1 0.383322 0
1 0.348486 0.00178531
1 0.307973 0.0483864
1 0.261967 0.106645
1 0.211597 0.162997
1 0.160372 0.218128
1 0.117464 0.273823
1 0.101762 0.3308
1 0.129641 0.389349
1 0.192645 0.449577
1 0.27422 0.511498
1 0.365103 0.57525
1 0.400717 0.604959
1 0.389136 0.605249
0 0.604517 0
0 0.603998 0
0 0.60351 0
0 0.603006 0
0 0.602335 0
0 0.60145 0
0 0.600244 0
0 0.598657 0
0 0.596536 0
0 0.593759 0
0 0.590127 0
0 0.585397 0
0.178744 0.579278 0
0.325124 0.571084 0
0.449744 0.560067 0
0.565087 0.547402 0
0.678889 0.532113 0
0.793774 0.513619 0
0.910689 0.491386 0
1 0.464927 0
1 0.433875 0.0148928
1 0.398154 0.0625315
1 0.358236 0.119158
1 0.315435 0.172961
1 0.272862 0.226337
1 0.236362 0.280644
1 0.215351 0.336461
1 0.220172 0.394018
1 0.254795 0.453391
1 0.314153 0.514611
1 0.39028 0.577768
1 0.415 0.604608
1 0.400565 0.604974
0 0.670634 0
0 0.6701 0
0 0.669612 0
0 0.669078 0
0 0.668406 0
0 0.667506 0
0 0.6663 0
0 0.664714 0
0 0.662638 0
0 0.659953 0
0 0.656474 0
0 0.652049 0
0.0232548 0.646433 0
0.239902 0.639338 0
0.380789 0.630472 0
0.505104 0.619425 0
0.624475 0.605798 0
0.74313 0.589151 0
0.862791 0.568994 0
0.983948 0.544915 0
1 0.516609 0.0335088
1 0.484016 0.0825055
1 0.447547 0.134905
1 0.408362 0.185611
1 0.368826 0.236789
1 0.333165 0.289326
1 0.30779 0.343664
1 0.300435 0.399954
1 0.317052 0.458274
1 0.358236 0.518578
1 0.419806 0.581003
1 0.43238 0.604166
1 0.414633 0.604623
0 0.735851 0
0 0.735409 0
0 0.735012 0
0 0.734585 0
0 0.734035 0
0 0.733288 0
0 0.732296 0
0 0.730983 0
0 0.729244 0
0 0.72697 0
0 0.724025 0
0 0.720211 0
0 0.715328 0
0.0941482 0.709117 0
0.291142 0.701259 0
0.43238 0.691402 0
0.560143 0.679149 0
0.683742 0.664073 0
0.806653 0.645701 0
0.930159 0.623636 0.0209506
1 0.597543 0.0599222
1 0.56733 0.107546
1 0.533272 0.154437
1 0.496269 0.201526
1 0.458167 0.249973
1 0.422171 0.300313
1 0.393149 0.352789
1 0.377279 0.407507
1 0.380636 0.464469
1 0.406485 0.523644
1 0.453956 0.585122
1 0.453223 0.603601
1 0.431724 0.604181
0 0.801923 0
0 0.801541 0
0 0.80119 0
0 0.800824 0
0 0.800336 0
0 0.799695 0
0 0.798825 0
0 0.797665 0
0 0.796139 0
0 0.794125 0
0 0.791531 0
0 0.788159 0
0 0.783825 0
0 0.778286 0
0.15938 0.771267 0
0.341405 0.762432 0
0.483589 0.751385 0
0.61442 0.737713 0.00172427
0.741527 0.720958 0.0261234
0.867765 0.700694 0.0572976
0.994003 0.676585 0.0964523
1 0.648432 0.136934
1 0.616388 0.178241
1 0.581079 0.221256
1 0.543938 0.266453
1 0.507454 0.314076
1 0.475471 0.364263
1 0.453117 0.417029
1 0.446067 0.472313
1 0.458793 0.530068
1 0.492851 0.590356
1 0.477882 0.602914
1 0.452262 0.603632
0 0.866468 0
0 0.866117 0
0 0.865812 0
0 0.865476 0
0 0.865064 0
0 0.864485 0
0 0.863722 0
0 0.862699 0
0 0.861341 0
0 0.859571 0
0 0.857267 0
0 0.854276 0
0 0.850431 0
0 0.845502 0
0 0.839231 0.0055848
0.219089 0.831312 0.0173953
0.391531 0.821378 0.0325475
0.534051 0.809018 0.0519417
0.667018 0.793805 0.0766918
0.796597 0.77528 0.106325
0.925017 0.753079 0.137514
1 0.726925 0.170871
1 0.696834 0.206699
1 0.663172 0.245274
1 0.627024 0.286748
1 0.590326 0.331182
1 0.556146 0.378592
1 0.528786 0.428962
1 0.513405 0.482185
1 0.514916 0.538201
1 0.536431 0.596994
1 0.50663 0.602045
1 0.47657 0.602945
0 0.927779 0.0364843
0 0.927474 0.0369573
0 0.927214 0.0373846
0 0.926925 0.0378424
0 0.926543 0.0384375
0 0.92604 0.0392309
0 0.925368 0.0403143
0 0.924468 0.0417334
0 0.923278 0.0436255
0 0.921721 0.046128
0 0.919676 0.0493935
0 0.917037 0.0536355
0 0.913649 0.0591592
0 0.909285 0.0663005
0 0.903716 0.0755016
0.000167849 0.896681 0.0874495
0.276951 0.887816 0.101381
0.441337 0.876738 0.117601
0.583139 0.863035 0.136324
0.717021 0.846265 0.157763
0.847837 0.826001 0.182086
0.977188 0.801923 0.209476
1 0.773877 0.24007
1 0.742077 0.274006
1 0.70724 0.311345
1 0.670832 0.352117
1 0.635325 0.396292
1 0.604303 0.443793
1 0.58233 0.49453
1 0.57438 0.548394
1 0.578439 0.599664
1 0.539574 0.600992
1 0.504952 0.60209
0 0.984405 0.125948
0 0.984146 0.126299
0 0.983917 0.126619
0 0.983658 0.12697
0 0.983337 0.127398
0 0.982895 0.127993
0 0.982315 0.128786
0 0.981521 0.129839
0 0.980484 0.131228
0 0.979126 0.133028
0 0.977356 0.135363
0 0.975052 0.138369
0 0.972076 0.142199
0 0.968261 0.147051
0 0.963394 0.153124
0 0.957198 0.160662
0.111467 0.949386 0.169955
0.334035 0.93959 0.181262
0.490501 0.927398 0.194903
0.630259 0.912398 0.21117
0.763699 0.894163 0.230335
0.894377 0.872267 0.252674
1 0.84651 0.278386
1 0.816876 0.307683
1 0.78381 0.340673
1 0.748379 0.377401
1 0.712505 0.417868
1 0.679103 0.462043
1 0.652201 0.509834
1 0.6365 0.561135
1 0.619699 0.598138
1 0.576669 0.599725
1 0.537545 0.601053
0 1 0.205219
0 1 0.205463
0 1 0.205676
0 1 0.20589
0 1 0.206195
0 1 0.206577
0 1 0.207111
0 1 0.207813
0 1 0.208728
0 1 0.209949
0 1 0.211521
0 1 0.213565
0 1 0.21619
0 1 0.219547
0 1 0.223789
0 1 0.22916
0 1 0.235889
0.205921 0.996307 0.244236
0.390753 0.985641 0.254505
0.538796 0.972457 0.267048
0.675059 0.956298 0.28217
0.806546 0.936751 0.300237
0.935592 0.913497 0.321538
1 0.886381 0.346365
1 0.855604 0.374929
1 0.821881 0.407385
1 0.786618 0.443824
1 0.752178 0.484245
1 0.721965 0.528634
1 0.700282 0.576898
1 0.66424 0.596353
1 0.617655 0.598215
1 0.574319 0.599802
0 1 0.27921
0 1 0.279377
0 1 0.27953
0 1 0.279683
0 1 0.279896
0 1 0.280171
0 1 0.280552
0 1 0.281056
0 1 0.281712
0 1 0.282582
0 1 0.283726
0 1 0.285206
0 1 0.287098
0 1 0.28954
0 1 0.292668
0 1 0.296635
0 1 0.30164
0.0280766 1 0.307942
0.287587 1 0.315785
0.447196 1 0.32549
0.586053 1 0.337407
0.717311 0.994232 0.351873
0.845228 0.973678 0.369268
0.971191 0.949401 0.389944
1 0.921401 0.414221
1 0.890089 0.442344
1 0.856443 0.474525
1 0.822263 0.510872
1 0.790341 0.551446
1 0.761715 0.591989
1 0.71133 0.594339
1 0.662043 0.596445
1 0.615061 0.598306
0 1 0.351308
0 1 0.351431
0 1 0.351537
0 1 0.351659
0 1 0.351812
0 1 0.352026
0 1 0.3523
0 1 0.352667
0 1 0.353155
0 1 0.353796
0 1 0.354635
0 1 0.355734
0 1 0.357153
0 1 0.358968
0 1 0.361303
0 1 0.364279
0 1 0.368063
0 1 0.372854
0.191196 1 0.378866
0.364172 1 0.386389
0.503563 1 0.395727
0.632349 1 0.407218
0.757 1 0.421256
0.87985 1 0.438209
1 0.979965 0.458457
1 0.951675 0.482368
1 0.920516 0.510246
1 0.887816 0.542336
1 0.855741 0.57879
1 0.810636 0.589532
1 0.759976 0.592081
1 0.709087 0.59443
1 0.659312 0.596567
0 1 0.422827
0 1 0.422919
0 1 0.423011
0 1 0.423087
0 1 0.423209
0 1 0.423362
0 1 0.423575
0 1 0.42385
0 1 0.424216
0 1 0.424689
0 1 0.42533
0 1 0.426139
0 1 0.427207
0 1 0.42858
0 1 0.430335
0 1 0.432593
0 1 0.435462
0 1 0.439109
0.131853 1 0.443732
0.305364 1 0.449546
0.438407 1 0.456825
0.560098 1 0.465888
0.677882 1 0.477089
0.794507 1 0.490806
0.910613 1 0.507439
1 1 0.527413
1 0.977462 0.551125
1 0.94728 0.578912
1 0.905348 0.584283
1 0.85861 0.586954
1 0.809018 0.589624
1 0.757794 0.592172
1 0.70634 0.594553
0 1 0.494438
0 1 0.494514
0 1 0.494575
0 1 0.494636
0 1 0.494728
0 1 0.494835
0 1 0.495003
0 1 0.495201
0 1 0.495476
0 1 0.495842
0 1 0.496315
0 1 0.496941
0 1 0.497734
0 1 0.498772
0 1 0.500114
0 1 0.501823
0 1 0.504005
0 1 0.506798
0.156344 1 0.510353
0.291569 1 0.514839
0.404822 1 0.520485
0.511681 1 0.527596
0.61709 1 0.536446
0.723095 1 0.547402
0.830213 1 0.560891
0.937041 1 0.574899
1 1 0.576928
1 0.986618 0.579217
1 0.947814 0.581704
1 0.904479 0.584329
1 0.857206 0.587045
1 0.807034 0.589731
1 0.755169 0.592309
0 1 0.565179
0 1 0.565194
0 1 0.565194
0 1 0.565209
0 1 0.565209
0 1 0.565225
0 1 0.56524
0 1 0.565255
0 1 0.565286
