1500nits_HDR-to-SDR.cube
TITLE "Generated by Resolve"
LUT_3D_SIZE 9
0 0 0
0.110872 0 0
0.276158 0 0
0.525368 0 0
0.883757 0 0
1 0 0
1 0 0.191135
1 0 0.436896
1 0.348028 0.606165
0 0.0771038 0
0.0727703 0.0683909 0
0.258045 0.0454566 0
0.514504 0 0
0.875792 0 0
1 0 0
1 0 0.192477
1 0 0.437537
1 0.350225 0.606119
0 0.214176 0
0 0.209476 0
0.204974 0.196612 0
0.485206 0.154726 0
0.85478 0 0
1 0 0
1 0 0.196033
1 0 0.439231
1 0.355993 0.605997
0 0.41323 0
0 0.410361 0
0 0.402686 0
0.393057 0.379522 0
0.793256 0.311986 0
1 0.152453 0
1 0 0.206775
1 0.0553292 0.444282
1 0.372595 0.605631
0 0.670634 0
0 0.668406 0
0 0.662638 0
0.0232548 0.646433 0
0.624475 0.605798 0
1 0.516609 0.0335088
1 0.368826 0.236789
1 0.317052 0.458274
1 0.414633 0.604623
0 0.927779 0.0364843
0 0.926543 0.0384375
0 0.923278 0.0436255
0 0.913649 0.0591592
0.276951 0.887816 0.101381
0.847837 0.826001 0.182086
1 0.70724 0.311345
1 0.58233 0.49453
1 0.504952 0.60209
0 1 0.351308
0 1 0.351812
0 1 0.353155
0 1 0.357153
0 1 0.368063
0.503563 1 0.395727
1 0.979965 0.458457
1 0.855741 0.57879
1 0.659312 0.596567
0 1 0.565179
0 1 0.565209
0 1 0.56527
0 1 0.565438
0 1 0.565927
0.299474 1 0.567193
0.642283 1 0.570321
1 1 0.576928
1 0.85359 0.587243
0 1 0.565179
0 1 0.565194
0 1 0.565209
0 1 0.56527
0 1 0.565438
0 1 0.565896
0.285496 1 0.567117
0.630335 1 0.570169
1 1 0.576928
0 0 0.0767376
0.106615 0 0.0752422
0.274006 0 0.0712902
0.524117 0 0.0598611
0.882887 0 0.0305028
1 0 0.0222019
1 0 0.209918
1 0 0.441093
1 0.348058 0.607141
0 0.0764782 0.0692454
0.0677806 0.0677806 0.0677806
0.255802 0.0448615 0.0639353
0.513237 0 0.052781
0.874937 0 0.0241398
1 0 0.0236057
1 0 0.211048
1 0 0.441718
1 0.350256 0.607095
0 0.213794 0.0498512
0 0.209079 0.0484932
0.202335 0.196216 0.044892
0.483909 0.154284 0.0344701
0.853925 0 0.00759899
1 0 0.0268559
1 0 0.214084
1 0 0.443351
1 0.356023 0.606958
0 0.412924 0
0 0.410056 0
0 0.402396 0
0.391623 0.379232 0
0.792416 0.311711 0
1 0.152483 0.0364538
1 0 0.223377
1 0.055787 0.448264
1 0.372625 0.606592
0 0.670298 0
0 0.668086 0
0 0.662333 0
0.0202335 0.646159 0
0.623728 0.6056 0
1 0.516487 0.0762036
1 0.368856 0.25008
1 0.317174 0.461875
1 0.414649 0.605554
0 0.927581 0.0729686
0 0.926345 0.0748455
0 0.923079 0.0798199
0 0.913451 0.094377
0.276234 0.887633 0.128801
0.847471 0.825864 0.198779
1 0.707179 0.319341
1 0.582361 0.497337
1 0.504952 0.602975
0 1 0.356909
0 1 0.357397
0 1 0.358709
0 1 0.362585
0 1 0.373205
0.503395 1 0.400168
1 0.979904 0.461631
1 0.855726 0.580392
1 0.659312 0.597314
0 1 0.566369
0 1 0.566384
0 1 0.566445
0 1 0.566613
0 1 0.567086
0.299397 1 0.568322
0.642222 1 0.571344
1 1 0.577768
1 0.853574 0.587777
0 1 0.565591
0 1 0.565606
0 1 0.565621
0 1 0.565682
0 1 0.56585
0 1 0.566293
0.285466 1 0.567498
0.63032 1 0.570535
1 1 0.577218
0 0 0.216403
0.0947127 0 0.215305
0.268208 0 0.21239
0.520745 0 0.203738
0.880583 0 0.179965
1 0 0.153826
1 0 0.254139
1 0 0.452079
1 0.348135 0.60972
0 0.074815 0.211704
0.0545052 0.0661326 0.21062
0.249714 0.0432898 0.207706
0.509834 0 0.199084
0.872633 0 0.175357
1 0 0.153719
1 0 0.254871
1 0 0.452644
1 0.350332 0.609674
0 0.212772 0.19913
0 0.208042 0.198047
0.195163 0.195163 0.195163
0.48043 0.153124 0.186603
0.851652 0 0.162936
1 0 0.153353
1 0 0.25687
1 0 0.45417
1 0.3561 0.609537
0 0.412116 0.160601
0 0.409247 0.159518
0 0.401587 0.156649
0.387778 0.378439 0.148074
0.790204 0.310933 0.12398
1 0.152544 0.153231
1 0 0.263172
1 0.0570077 0.458686
1 0.372686 0.60914
0 0.669429 0.0674754
0 0.667216 0.0693523
0 0.661524 0.0738231
0.0121767 0.645457 0.0851453
0.621729 0.605051 0.109529
1 0.516197 0.165423
1 0.368948 0.28278
1 0.31751 0.471336
1 0.414694 0.608057
0 0.927031 0.152712
0 0.925811 0.153811
0 0.922545 0.156695
0 0.912932 0.165118
0.274296 0.887175 0.187198
0.84651 0.825528 0.238483
1 0.707027 0.339788
1 0.582422 0.504738
1 0.504967 0.605325
0 1 0.37145
0 1 0.371908
0 1 0.373114
0 1 0.376699
0 1 0.386557
0.502968 1 0.411749
1 0.979736 0.469963
1 0.85568 0.584619
1 0.659297 0.599313
0 1 0.569512
0 1 0.569528
0 1 0.569574
0 1 0.569726
0 1 0.570169
0.299199 1 0.571298
0.642054 1 0.57409
1 1 0.57998
1 0.853544 0.589197
0 1 0.566674
0 1 0.56669
0 1 0.566705
0 1 0.566766
0 1 0.566918
0 1 0.567361
0.285405 1 0.568536
0.630259 1 0.571481
1 1 0.577981
0 0 0.430686
0.0549172 0 0.429572
0.250233 0 0.426612
0.510582 0 0.417914
0.873671 0 0.39469
1 0 0.350317
1 0 0.357366
1 0 0.483467
1 0.348379 0.617426
0 0.0698558 0.426841
0.0149386 0.0612497 0.425727
0.230793 0.0385748 0.422797
0.499596 0 0.414191
0.865751 0 0.391196
1 0 0.348806
1 0 0.357397
1 0 0.483909
1 0.350576 0.617365
0 0.209674 0.416709
0 0.204929 0.415625
0.172396 0.191989 0.412787
0.469947 0.149645 0.40441
0.844831 0 0.38201
1 0 0.344945
1 0 0.357549
1 0 0.485069
1 0.356329 0.617212
0 0.409705 0.387457
0 0.406836 0.386465
0 0.399191 0.383825
0.376089 0.376089 0.376089
0.783536 0.308644 0.355276
1 0.152758 0.335195
1 0 0.358526
1 0.0606851 0.488579
1 0.372885 0.616754
0 0.66685 0.32047
0 0.664714 0.320333
0 0.659159 0.319921
0 0.643351 0.318685
0.615747 0.603418 0.316411
1 0.515312 0.320302
1 0.369207 0.364569
1 0.318486 0.498589
1 0.414847 0.615488
0 0.925414 0.294911
0 0.924193 0.295277
0 0.920958 0.2963
0 0.911406 0.299351
0.268467 0.885786 0.308095
0.843641 0.824475 0.332372
1 0.706569 0.394934
1 0.582605 0.526253
1 0.505028 0.612299
0 1 0.411994
0 1 0.41236
0 1 0.413321
0 1 0.416175
0 1 0.424079
0.501671 1 0.444678
0.999435 0.979232 0.494057
1 0.855543 0.597131
1 0.659236 0.60528
0 1 0.57882
0 1 0.578836
0 1 0.578866
0 1 0.578988
0 1 0.579309
0.298573 1 0.580133
0.641581 1 0.582208
1 1 0.586587
1 0.853437 0.593439
0 1 0.569924
0 1 0.56994
0 1 0.569955
0 1 0.570001
0 1 0.570153
0 1 0.57055
0.285176 1 0.571618
0.630091 1 0.574319
1 1 0.580285
0 0 0.755016
0 0 0.753582
0.193408 0 0.749813
0.4813 0 0.73872
0.854215 0 0.709316
1 0 0.636103
1 0 0.553048
1 0 0.562051
1 0.34905 0.638605
0 0.0561532 0.750805
0 0.0477302 0.749386
0.169802 0.0255436 0.745663
0.470069 0 0.734691
0.846372 0 0.705623
1 0 0.633219
1 0 0.552178
1 0 0.562188
1 0.351232 0.638514
0 0.200916 0.739788
0 0.196109 0.738415
0.0919203 0.182956 0.734798
0.439597 0.139651 0.724163
0.82562 0 0.695918
1 0 0.625864
1 0 0.54992
1 0 0.562585
1 0.35697 0.6383
0 0.40293 0.708446
0 0.400092 0.707195
0 0.392493 0.703883
0.34168 0.369497 0.694148
0.764721 0.302205 0.668177
1 0.15346 0.606317
1 0 0.543832
1 0.071046 0.563851
1 0.373465 0.637659
0 0.660075 0.627787
0 0.658076 0.626764
0 0.652796 0.624109
0 0.637644 0.616693
0.598917 0.598917 0.598917
1 0.512901 0.56527
1 0.36994 0.53109
1 0.321233 0.567956
1 0.415244 0.63592
0 0.920913 0.522454
0 0.919707 0.522271
0 0.916518 0.521782
0 0.907134 0.520439
0.251621 0.881926 0.517266
0.835584 0.821561 0.512703
1 0.705318 0.51928
1 0.583124 0.582315
1 0.505165 0.63151
0 1 0.508782
0 1 0.508965
0 1 0.509438
0 1 0.510872
0 1 0.514931
0.498024 1 0.52607
0.996201 0.977829 0.556054
1 0.855161 0.6309
1 0.659083 0.62179
0 1 0.604242
0 1 0.604242
0 1 0.604242
0 1 0.604257
0 1 0.604273
0.296803 1 0.604334
0.640253 1 0.604471
1 1 0.604776
1 0.853147 0.605264
0 1 0.579004
0 1 0.579004
0 1 0.579019
0 1 0.579049
0 1 0.579171
0 1 0.579461
0.28455 1 0.580255
0.629633 1 0.582269
1 1 0.586709
0 0 1
0 0 1
0 0 1
0.395224 0 1
0.801053 0 1
1 0 1
1 0 0.876371
1 0 0.731365
1 0.350881 0.692958
0 0.0206455 1
0 0.0126955 1
0 0 1
0.382818 0 1
0.793378 0 1
1 0 1
1 0 0.874449
1 0 0.731014
1 0.353048 0.692836
0 0.176562 1
0 0.171527 1
0 0.157671 1
0.348653 0.110918 1
0.773007 0 1
1 0 1
1 0 0.869398
1 0 0.730098
1 0.358709 0.69247
0 0.384756 1
0 0.381949 1
0 0.374441 1
0.230869 0.35172 1
0.709545 0.290562 1
1 0.156146 1
1 0 0.855055
1 0.098558 0.727504
1 0.375006 0.691402
0 0.643687 1
0 0.641886 1
0 0.637125 1
0 0.623316 1
0.55317 0.587457 1
1 0.506767 0.936034
1 0.372091 0.820111
1 0.328649 0.721294
1 0.416373 0.688502
0 0.90898 0.869612
0 0.90782 0.86891
0 0.904784 0.867063
0 0.895796 0.861616
0.201846 0.871687 0.847211
0.813825 0.813809 0.813809
1 0.702007 0.755276
1 0.584573 0.711147
1 0.505562 0.681147
0 1 0.704585
0 1 0.704494
0 1 0.704265
0 1 0.703624
0 1 0.701946
0.488151 1 0.698451
0.987396 0.973999 0.69546
1 0.854124 0.714107
1 0.658686 0.66479
0 1 0.668498
0 1 0.668467
0 1 0.668376
0 1 0.668147
0 1 0.667475
0.291951 1 0.665705
0.636591 1 0.661326
1 1 0.651865
1 0.852354 0.636484
0 1 0.603174
0 1 0.603174
0 1 0.603174
0 1 0.603189
0 1 0.603204
0 1 0.603235
0.282841 1 0.603311
0.628367 1 0.603525
1 1 0.604013
0 0 1
0 0 1
0 0 1
0 0 1
0.651057 0 1
1 0 1
1 0 1
1 0 1
1 0.355779 0.820493
0 0 1
0 0 1
0 0 1
0 0 1
0.643519 0 1
1 0 1
1 0 1
1 0 1
1 0.35787 0.820249
0 0.104707 1
0 0.0983749 1
0 0.0800946 1
0 0.0246281 1
0.623987 0 1
1 0 1
1 0 1
1 0.0090486 1
1 0.363348 0.819593
0 0.344564 1
0 0.342519 1
0 0.337087 1
0 0.320897 1
0.568795 0.277073 1
1 0.168139 1
1 0 1
1 0.155993 1
1 0.379156 0.81767
0 0.608179 1
0 0.606699 1
0 0.602823 1
0 0.591485 1
0.428199 0.561624 1
0.973022 0.493248 1
1 0.37879 1
1 0.347951 1
1 0.419364 0.812375
0 0.879316 1
0 0.878294 1
0 0.875593 1
0 0.867628 1
0.00515755 0.846189 1
0.756878 0.794476 1
1 0.693874 1
1 0.588632 0.965637
1 0.506615 0.798886
0 1 1
0 1 1
0 1 1
0 1 1
0 1 1
0.462089 1 1
0.964034 0.964019 0.964034
1 0.85008 0.894057
1 0.657588 0.768475
0 1 0.814862
0 1 0.814771
0 1 0.814542
0 1 0.813825
0 1 0.811826
0.278508 1 0.806531
0.626627 1 0.793286
1 1 0.763958
1 0.850187 0.714244
0 1 0.66453
0 1 0.66453
0 1 0.6645
0 1 0.664424
0 1 0.664195
0 1 0.6636
0.278096 1 0.662028
0.624872 1 0.658
1 1 0.64892
0 0 1
0 0 1
0 0 1
0 0 1
0.2448 0 1
0.900465 0 1
1 0 1
1 0.143954 1
1 0.368429 1
0 0.00471504 1
0 0.00233463 1
0 0 1
0 0 1
0.237156 0 1
0.896468 0 1
1 0 1
1 0.156786 1
1 0.370336 1
0 0.129519 1
0 0.127535 1
0 0.12221 1
0 0.106065 1
0.216281 0.0590677 1
0.885985 0 1
1 0 1
1 0.187396 1
1 0.375357 1
0 0.313283 1
0 0.312093 1
0 0.308934 1
0 0.299641 1
0.147417 0.275013 1
0.85568 0.218708 1
1 0.143786 1
1 0.259815 1
1 0.389899 1
0 0.548882 1
0 0.547951 1
0 0.54548 1
0 0.538231 1
0 0.519005 1
0.778637 0.474525 1
1 0.401389 1
1 0.395254 1
1 0.427222 1
0 0.815763 1
0 0.815015 1
0 0.813031 1
0 0.807202 1
0 0.791424 1
0.616327 0.753033 1
1 0.677501 1
1 0.600549 1
1 0.509407 1
0 1 1
0 1 1
0 1 1
0 1 1
0 1 1
0.397452 0.998886 1
0.904967 0.939681 1
1 0.834257 1
1 0.654627 0.991043
0 1 1
0 1 1
0 1 1
0 1 1
0 1 1
0.240009 1 1
0.599451 1 1
1 0.999969 0.999985
1 0.844282 0.890089
0 1 0.808194
0 1 0.808164
0 1 0.808087
0 1 0.807843
0 1 0.807172
0 1 0.805325
0.264652 1 0.800427
0.615152 1 0.787823
1 1 0.758724
0 0.263523 1
0 0.26334 1
0 0.262867 1
0 0.261524 1
0 0.258457 1
0.436912 0.25481 1
1 0.270527 1
1 0.378882 1
1 0.398047 1
0 0.275257 1
0 0.275074 1
0 0.274571 1
0 0.273182 1
0 0.269932 1
0.435142 0.26566 1
1 0.279164 1
1 0.383124 1
1 0.399573 1
0 0.304189 1
0 0.303975 1
0 0.303441 1
0 0.301915 1
0 0.298238 1
0.430472 0.292485 1
1 0.300893 1
1 0.394141 1
1 0.403616 1
0 0.37615 1
0 0.375906 1
0 0.37528 1
0 0.373449 1
0 0.368826 1
0.416922 0.359884 1
1 0.357259 1
1 0.424918 1
1 0.415396 1
0 0.516426 1
0 0.516136 1
0 0.515358 1
0 0.513054 1
0 0.507012 1
0.382315 0.493416 1
1 0.474434 1
1 0.497841 1
1 0.446174 1
0 0.726284 1
0 0.725948 1
0 0.725063 1
0 0.722454 1
0 0.715373 1
0.313085 0.698085 1
0.919097 0.664363 1
1 0.63653 1
1 0.51635 1
0 0.953643 1
0 0.953353 1
0 0.952605 1
0 0.950362 1
0 0.944167 1
0.276997 0.928328 1
0.777768 0.892668 1
1 0.796658 1
1 0.646952 1
0 1 1
0 1 1
0 1 1
0 1 1
0 1 1
0.109224 1 1
0.525658 1 1
0.931991 0.965805 1
1 0.828229 1
0 1 1
0 1 1
0 1 1
0 1 1
0 1 1
0 1 1
0.224048 1 1
0.58735 1 1
1 0.999969 0.999985
