1500nits_HDR-to-SDR.cube
TITLE "Generated by Resolve"
LUT_3D_SIZE 5
0 0 0
0.276158 0 0
0.883757 0 0
1 0 0.191135
1 0.348028 0.606165
0 0.214176 0
0.204974 0.196612 0
0.85478 0 0
1 0 0.196033
1 0.355993 0.605997
0 0.670634 0
0 0.662638 0
0.624475 0.605798 0
1 0.368826 0.236789
1 0.414633 0.604623
0 1 0.351308
0 1 0.353155
0 1 0.368063
1 0.979965 0.458457
1 0.659312 0.596567
0 1 0.565179
0 1 0.565209
0 1 0.565438
0.285496 1 0.567117
1 1 0.576928
0 0 0.216403
0.268208 0 0.21239
0.880583 0 0.179965
1 0 0.254139
1 0.348135 0.60972
0 0.212772 0.19913
0.195163 0.195163 0.195163
0.851652 0 0.162936
1 0 0.25687
1 0.3561 0.609537
0 0.669429 0.0674754
0 0.661524 0.0738231
0.621729 0.605051 0.109529
1 0.368948 0.28278
1 0.414694 0.608057
0 1 0.37145
0 1 0.373114
0 1 0.386557
1 0.979736 0.469963
1 0.659297 0.599313
0 1 0.566674
0 1 0.566705
0 1 0.566918
0.285405 1 0.568536
1 1 0.577981
0 0 0.755016
0.193408 0 0.749813
0.854215 0 0.709316
1 0 0.553048
1 0.34905 0.638605
0 0.200916 0.739788
0.0919203 0.182956 0.734798
0.82562 0 0.695918
1 0 0.54992
1 0.35697 0.6383
0 0.660075 0.627787
0 0.652796 0.624109
0.598917 0.598917 0.598917
1 0.36994 0.53109
1 0.415244 0.63592
0 1 0.508782
0 1 0.509438
0 1 0.514931
0.996201 0.977829 0.556054
1 0.659083 0.62179
0 1 0.579004
0 1 0.579019
0 1 0.579171
0.28455 1 0.580255
1 1 0.586709
0 0 1
0 0 1
0.651057 0 1
1 0 1
1 0.355779 0.820493
0 0.104707 1
0 0.0800946 1
0.623987 0 1
1 0 1
1 0.363348 0.819593
0 0.608179 1
0 0.602823 1
0.428199 0.561624 1
1 0.37879 1
1 0.419364 0.812375
0 1 1
0 1 1
0 1 1
0.964034 0.964019 0.964034
1 0.657588 0.768475
0 1 0.66453
0 1 0.6645
0 1 0.664195
0.278096 1 0.662028
1 1 0.64892
0 0.263523 1
0 0.262867 1
0 0.258457 1
1 0.270527 1
1 0.398047 1
0 0.304189 1
0 0.303441 1
0 0.298238 1
1 0.300893 1
1 0.403616 1
0 0.516426 1
0 0.515358 1
0 0.507012 1
1 0.474434 1
1 0.446174 1
0 0.953643 1
0 0.952605 1
0 0.944167 1
0.777768 0.892668 1
1 0.646952 1
0 1 1
0 1 1
0 1 1
0.224048 1 1
1 0.999969 0.999985
