2000nits_HDR-to-SDR.cube
TITLE "Generated by Resolve"
LUT_3D_SIZE 5
0 0 0
0.276265 0 0
0.882124 0 0
1 0 0.188434
1 0.46183 0.658549
0 0.214145 0
0.204868 0.196506 0
0.852705 0 0
1 0 0.193225
1 0.467277 0.658412
0 0.667338 0
0 0.659251 0
0.620432 0.601862 0
1 0.363775 0.233158
1 0.508873 0.657282
0 1 0.345022
0 1 0.346838
0 1 0.361456
0.984344 0.963516 0.449958
1 0.702678 0.650675
0.0799573 1 0.625162
0.090959 1 0.625177
0.161013 1 0.62536
0.421134 1 0.626719
1 1 0.634668
0 0 0.216556
0.268284 0 0.212451
0.87892 0 0.179492
1 0 0.250828
1 0.461906 0.661479
0 0.212711 0.199069
0.195041 0.195041 0.195041
0.849546 0 0.162356
1 0 0.253468
1 0.467353 0.661326
0 0.666102 0.0668345
0 0.658122 0.0730907
0.61767 0.601083 0.108354
1 0.363882 0.27866
1 0.508919 0.660105
0 1 0.364889
0 1 0.366506
0 1 0.379675
0.983825 0.963287 0.46128
1 0.702663 0.652934
0.0798352 1 0.626368
0.090837 1 0.626383
0.160922 1 0.626566
0.421073 1 0.627863
1 1 0.635523
0 0 0.755001
0.193332 0 0.749584
0.852232 0 0.707637
1 0 0.546853
1 0.462531 0.685374
0 0.200717 0.739254
0.0917525 0.182712 0.734081
0.82324 0 0.693874
1 0 0.543648
1 0.467948 0.68513
0 0.65658 0.62443
0 0.649226 0.620676
0.594827 0.594827 0.594827
1 0.364813 0.524208
1 0.509331 0.683146
0 1 0.500267
0 1 0.500908
0 1 0.506203
0.979461 0.961364 0.546044
1 0.702495 0.671443
0.0787823 1 0.636347
0.0898299 1 0.636362
0.160174 1 0.636484
0.420554 1 0.637369
1 1 0.642618
0 0 1
0 0 1
0.647639 0 1
1 0 1
1 0.46714 0.840879
0 0.10399 1
0 0.0794537 1
0.620432 0 1
1 0 1
1 0.472358 0.840101
0 0.603601 1
0 0.598215 1
0.424277 0.55671 1
1 0.373251 1
1 0.512337 0.833799
0 1 1
0 1 1
0 1 1
0.947585 0.94757 0.947585
1 0.701228 0.795682
0.0708476 1 0.707073
0.0820478 1 0.707042
0.154421 1 0.706783
0.416571 1 0.704967
1 1 0.69398
0 0.259022 1
0 0.25835 1
0 0.25391 1
1 0.265217 1
1 0.496849 1
0 0.299138 1
0 0.298405 1
0 0.293156 1
1 0.29514 1
1 0.500877 1
0 0.508324 1
0 0.50724 1
0 0.498863 1
0.987335 0.46595 1
1 0.532219 1
0 0.936828 1
0 0.93579 1
0 0.927413 1
0.763226 0.876219 1
1 0.692332 1
0.0110933 1 1
0.0213016 1 1
0.104555 1 1
0.385183 1 1
1 0.999969 0.999985
