2000nits_HDR-to-SDR.cube
TITLE "Generated by Resolve"
LUT_3D_SIZE 33
0 0 0
0.0275883 0 0
0.05243 0 0
0.0793774 0 0
0.110979 0 0
0.145907 0 0
0.184833 0 0
0.228153 0 0
0.276265 0 0
0.329595 0 0
0.388571 0 0
0.453635 0 0
0.5252 0 0
0.603616 0 0
0.689174 0 0
0.78201 0 0
0.882124 0 0
0.989227 0 0
1 0 0
1 0 0
1 0 0
1 0 0.0109102
1 0 0.0650492
1 0 0.128618
1 0 0.188434
1 0 0.247532
1 0 0.307118
1 0 0.367636
1 0 0.429236
1 0.0483406 0.491997
1 0.256489 0.556115
1 0.394583 0.621836
1 0.46183 0.658549
0 0.0187991 0
0.017792 0.0167239 0
0.0425727 0.014847 0
0.0694743 0.0128176 0
0.10248 0.0102235 0
0.138872 0.00672923 0
0.178927 0.00204471 0
0.223117 0 0
0.271931 0 0
0.325826 0 0
0.38526 0 0
0.45069 0 0
0.522545 0 0
0.60119 0 0
0.686946 0 0
0.779934 0 0
0.880156 0 0
0.987366 0 0
1 0 0
1 0 0
1 0 0
1 0 0.0112612
1 0 0.0654765
1 0 0.129
1 0 0.188739
1 0 0.247791
1 0 0.307347
1 0 0.367819
1 0 0.429389
1 0.0526894 0.492119
1 0.257969 0.556222
1 0.395331 0.621912
1 0.462196 0.658534
0 0.0356756 0
0.00898756 0.0335851 0
0.0337377 0.0317082 0
0.0605936 0.0296635 0
0.0944686 0.0270542 0
0.132326 0.0235447 0
0.173465 0.0188449 0
0.218509 0.0125887 0
0.267994 0.00436408 0
0.322408 0 0
0.382269 0 0
0.448035 0 0
0.52015 0 0
0.599023 0 0
0.684932 0 0
0.778058 0 0
0.878401 0 0
0.985687 0 0
1 0 0
1 0 0
1 0 0
1 0 0.0115969
1 0 0.0658579
1 0 0.129335
1 0 0.189029
1 0 0.248035
1 0 0.307546
1 0 0.367987
1 0 0.429526
1 0.0565957 0.492226
1 0.259297 0.556313
1 0.396017 0.621988
1 0.462531 0.658534
0 0.0539559 0
0 0.0518502 0
0.024155 0.049958 0
0.0509651 0.0478981 0
0.0853132 0.0452888 0
0.124971 0.0417487 0
0.167422 0.0370184 0
0.213443 0.0307469 0
0.263661 0.0224613 0
0.318685 0.0116579 0
0.379004 0 0
0.445136 0 0
0.517555 0 0
0.596658 0 0
0.68275 0 0
0.776028 0 0
0.876478 0 0
0.983871 0 0
1 0 0
1 0 0
1 0 0
1 0 0.0119478
1 0 0.0662699
1 0 0.129702
1 0 0.189334
1 0 0.248295
1 0 0.307759
1 0 0.36817
1 0 0.429664
1 0.060853 0.492348
1 0.260731 0.556405
1 0.39675 0.622065
1 0.462882 0.658518
0 0.0771496 0
0 0.0750439 0
0.0119936 0.0731365 0
0.0387427 0.0710765 0
0.0728161 0.0684367 0
0.115175 0.0648814 0
0.159472 0.0601205 0
0.206836 0.0538033 0
0.258076 0.0454719 0
0.313878 0.0345769 0
0.374807 0.0204471 0
0.441428 0.00224308 0
0.514229 0 0
0.593622 0 0
0.679973 0 0
0.773434 0 0
0.874037 0 0
0.981552 0 0
1 0 0
1 0 0
1 0 0
1 0 0.0123903
1 0 0.066804
1 0 0.130175
1 0 0.189731
1 0 0.248631
1 0 0.308049
1 0 0.368399
1 0 0.429862
1 0.0662699 0.4925
1 0.262547 0.556527
1 0.397696 0.622171
1 0.463325 0.658503
0 0.106493 0
0 0.104662 0
0 0.102983 0
0.0222934 0.101167 0
0.05626 0.0988022 0
0.101076 0.0955673 0
0.148302 0.0911269 0
0.197681 0.0850233 0
0.250401 0.0764172 0
0.307301 0.0654307 0
0.3691 0.0511788 0
0.436393 0.0328069 0
0.509712 0.00932326 0
0.589532 0 0
0.676204 0 0
0.769924 0 0
0.870741 0 0
0.978408 0 0
1 0 0
1 0 0
1 0 0
1 0 0.0130159
1 0 0.0675364
1 0 0.130816
1 0 0.190265
1 0 0.249073
1 0 0.308415
1 0 0.368704
1 0 0.430106
1 0.0735943 0.492714
1 0.264973 0.556695
1 0.398962 0.622293
1 0.463935 0.658488
0 0.138827 0
0 0.137285 0
0 0.135882 0
0.000396735 0.13434 0
0.0342107 0.132372 0
0.0798962 0.129671 0
0.132372 0.126009 0
0.184909 0.121004 0
0.239826 0.114214 0
0.298329 0.104906 0
0.361349 0.0919966 0
0.429587 0.0735332 0
0.503639 0.0497749 0
0.584039 0.0196078 0
0.671153 0 0
0.765225 0 0
0.866316 0 0
0.974212 0 0
1 0 0
1 0 0
1 0 0
1 0 0.0138399
1 0 0.0685283
1 0 0.13167
1 0 0.190982
1 0 0.249683
1 0 0.308919
1 0 0.369131
1 0 0.430457
1 0.0836347 0.492988
1 0.268223 0.556909
1 0.400656 0.622477
1 0.464759 0.658473
0 0.174624 0
0 0.173312 0
0 0.172122 0
0 0.170809 0
0.00514229 0.169131 0
0.0505684 0.166857 0
0.109056 0.16376 0
0.166903 0.159594 0
0.225223 0.153964 0
0.286122 0.146365 0
0.350881 0.136049 0
0.420432 0.121889 0
0.495506 0.101946 0
0.576684 0.0725109 0
0.664424 0.0339666 0
0.758968 0 0
0.860441 0 0
0.968643 0 0
1 0 0
1 0 0
1 0 0
1 0 0.0149844
1 0 0.0698711
1 0 0.13283
1 0 0.191943
1 0 0.250492
1 0 0.30959
1 0 0.36968
1 0 0.4309
1 0.0959793 0.493355
1 0.27248 0.557214
1 0.402899 0.622721
1 0.465843 0.658442
0 0.214145 0
0 0.213001 0
0 0.211978 0
0 0.210849 0
0 0.209415 0
0.0122988 0.207462 0
0.072694 0.204822 0
0.140902 0.201266 0
0.204868 0.196506 0
0.269429 0.190143 0
0.336751 0.181613 0
0.408194 0.170123 0
0.484688 0.154498 0
0.566949 0.132769 0
0.655512 0.101244 0
0.750729 0.0533303 0
0.852705 0 0
0.961303 0 0
1 0 0
1 0 0
1 0 0
1 0 0.0165103
1 0 0.0716716
1 0 0.134356
1 0 0.193225
1 0 0.25156
1 0 0.310491
1 0 0.370413
1 0 0.43151
1 0.110948 0.493843
1 0.278004 0.55761
1 0.405844 0.623041
1 0.467277 0.658412
0 0.257557 0
0 0.256565 0
0 0.25568 0
0 0.254704 0
0 0.253452 0
0 0.251759 0
0.0226749 0.24947 0
0.101045 0.246403 0
0.175799 0.242313 0
0.246372 0.236866 0
0.317617 0.229633 0
0.391806 0.22002 0
0.470314 0.207172 0
0.554086 0.189837 0
0.643809 0.166018 0
0.739895 0.131991 0
0.842557 0.0786145 0
0.951705 0.00302129 0
1 0 0
1 0 0
1 0 0
1 0 0.0185855
1 0 0.0740978
1 0 0.13637
1 0 0.194903
1 0 0.252964
1 0 0.311666
1 0 0.371389
1 0 0.432303
1 0.128771 0.494484
1 0.285115 0.558129
1 0.409674 0.623453
1 0.469154 0.658366
0 0.305058 0
0 0.304189 0
0 0.303395 0
0 0.302541 0
0 0.301442 0
0 0.299947 0
0 0.297948 0
0.0372015 0.295262 0
0.132006 0.291691 0
0.213825 0.286961 0
0.291463 0.28072 0
0.369818 0.272465 0
0.451255 0.261585 0
0.537179 0.247135 0
0.628489 0.227817 0
0.72578 0.201541 0
0.829374 0.164584 0
0.939239 0.10837 0
1 0.0168612 0
1 0 0
1 0 0
1 0 0.0213779
1 0 0.077348
1 0 0.139025
1 0 0.197116
1 0 0.25481
1 0 0.313191
1 0 0.372641
1 0 0.433326
1 0.149691 0.495323
1 0.294148 0.558801
1 0.414633 0.624002
1 0.471595 0.658289
0 0.35671 0
0 0.355932 0
0 0.35523 0
0 0.354467 0
0 0.353491 0
0 0.352163 0
0 0.350393 0
0 0.348013 0
0.0569467 0.344854 0
0.165576 0.340688 0
0.254963 0.33521 0
0.340078 0.327993 0
0.42594 0.318563 0
0.514946 0.306157 0
0.608499 0.289845 0
0.707469 0.268208 0
0.812314 0.239094 0
0.923156 0.198718 0
1 0.13875 0
1 0.0881361 0
1 0.00808728 0
1 0 0.0251926
1 0 0.0819867
1 0 0.142519
1 0 0.2
1 0 0.257221
1 0 0.31519
1 0 0.374289
1 0 0.434684
1 0.173938 0.496422
1 0.305486 0.559686
1 0.420966 0.62472
1 0.474754 0.658213
0 0.412512 0
0 0.41181 0
0 0.41117 0
0 0.410483 0
0 0.409613 0
0 0.408423 0
0 0.406821 0
0 0.4047 0
0 0.401877 0
0.0832837 0.398154 0
0.201663 0.393271 0
0.299077 0.386877 0
0.39205 0.378531 0
0.48571 0.367666 0
0.582498 0.353506 0
0.683803 0.334997 0
0.790387 0.310674 0
0.902556 0.278279 0
1 0.243961 0
1 0.204379 0
1 0.151019 0
1 0.0752728 0.0304265
1 0 0.0877852
1 0 0.147066
1 0 0.203754
1 0 0.260349
1 0 0.317784
1 0 0.376425
1 0.0535592 0.436423
1 0.201678 0.497841
1 0.319539 0.560845
1 0.429007 0.62565
1 0.478798 0.658106
0 0.472267 0
0 0.471641 0
0 0.471061 0
0 0.470436 0
0 0.469642 0
0 0.468574 0
0 0.467124 0
0 0.465202 0
0 0.462638 0
0 0.459281 0
0.113375 0.454887 0
0.240085 0.449134 0
0.345876 0.441657 0
0.446998 0.431968 0
0.548653 0.419425 0
0.653315 0.403174 0
0.762325 0.382116 0
0.87303 0.356664 0
0.980743 0.330114 0
1 0.296376 0
1 0.255421 0
1 0.205951 0.0376287
1 0.145846 0.0952926
1 0.0699168 0.152956
1 0 0.208606
1 0 0.264393
1 0 0.321141
1 0.0158999 0.379187
1 0.12462 0.438682
1 0.233127 0.499672
1 0.336751 0.562325
1 0.439124 0.626841
1 0.483955 0.657969
0 0.535668 0
0 0.535088 0
0 0.534569 0
0 0.534005 0
0 0.533272 0
0 0.532296 0
0 0.530968 0
0 0.529213 0
0 0.526879 0
0 0.523827 0
0 0.519814 0
0.144945 0.514595 0
0.280507 0.50782 0
0.394949 0.499062 0
0.504372 0.48777 0
0.614084 0.473243 0
0.722957 0.45565 0
0.832868 0.435035 0
0.945907 0.410193 0
1 0.38056 0
1 0.345602 0.00177005
1 0.305028 0.0476081
1 0.259022 0.104967
1 0.208743 0.160586
1 0.157702 0.214878
1 0.115007 0.269581
1 0.0992599 0.325444
1 0.126543 0.382742
1 0.188403 0.441581
1 0.268437 0.502037
1 0.357534 0.564233
1 0.451713 0.628382
1 0.490471 0.657786
0 0.602136 0
0 0.601602 0
0 0.601129 0
0 0.600595 0
0 0.599939 0
0 0.599039 0
0 0.597818 0
0 0.596201 0
0 0.594064 0
0 0.591257 0
0 0.587594 0
0 0.582818 0
0.177661 0.576623 0
0.3234 0.568353 0
0.447395 0.55726 0
0.562081 0.544488 0
0.675135 0.529061 0
0.78912 0.510414 0
0.904936 0.488014 0
1 0.461387 0
1 0.430182 0.0146639
1 0.394339 0.0614786
1 0.35433 0.117296
1 0.311498 0.170367
1 0.268956 0.222919
1 0.232486 0.276249
1 0.211383 0.330953
1 0.215808 0.387274
1 0.249607 0.445304
1 0.307729 0.505058
1 0.382269 0.56669
1 0.467216 0.630365
1 0.498665 0.657572
0 0.667338 0
0 0.666789 0
0 0.6663 0
0 0.665766 0
0 0.66508 0
0 0.664179 0
0 0.662959 0
0 0.661357 0
0 0.659251 0
0 0.656535 0
0 0.65304 0
0 0.648569 0
0.0230106 0.642878 0
0.238239 0.635721 0
0.378347 0.626764 0
0.5019 0.61561 0
0.620432 0.601862 0
0.738125 0.585061 0
0.856672 0.564736 0
0.976501 0.540475 0
1 0.512001 0.0329595
1 0.47924 0.080766
1 0.442634 0.132799
1 0.403357 0.182818
1 0.363775 0.233158
1 0.328069 0.284733
1 0.302571 0.337987
1 0.294926 0.393072
1 0.310918 0.45005
1 0.351095 0.508934
1 0.411292 0.569833
1 0.486061 0.632914
1 0.508873 0.657282
0 0.731411 0
0 0.730968 0
0 0.730571 0
0 0.730129 0
0 0.72958 0
0 0.728832 0
0 0.727825 0
0 0.726482 0
0 0.724727 0
0 0.722438 0
0 0.719448 0
0 0.715602 0
0 0.710658 0
0.093019 0.704387 0
0.288792 0.696437 0
0.429068 0.686488 0
0.555886 0.674128 0
0.678447 0.6589 0
0.800168 0.640375 0
0.922332 0.618128 0.0205997
1 0.591867 0.0588388
1 0.561471 0.10573
1 0.52726 0.152026
1 0.490135 0.198444
1 0.451942 0.246082
1 0.415869 0.295476
1 0.386725 0.346899
1 0.370626 0.400427
1 0.37351 0.456092
1 0.39855 0.513863
1 0.444862 0.573846
1 0.50869 0.636179
1 0.521447 0.656916
0 0.796109 0
0 0.795727 0
0 0.795377 0
0 0.794995 0
0 0.794507 0
0 0.793851 0
0 0.792966 0
0 0.791791 0
0 0.790249 0
0 0.788235 0
0 0.785595 0
0 0.782193 0
0 0.777813 0
0 0.772229 0
0.157549 0.765133 0
0.338231 0.756207 0
0.479255 0.745052 0
0.608927 0.731258 0.00169375
0.734768 0.714366 0.0256657
0.859617 0.69395 0.0562295
0.984283 0.669688 0.0947127
1 0.641367 0.134691
1 0.609171 0.175433
1 0.573724 0.217792
1 0.536477 0.262211
1 0.499916 0.308949
1 0.467826 0.358099
1 0.445289 0.409705
1 0.437873 0.463737
1 0.449973 0.520134
1 0.48307 0.578958
1 0.535439 0.64033
1 0.536797 0.656474
0 0.859037 0
0 0.858701 0
0 0.858381 0
0 0.858045 0
0 0.857618 0
0 0.857038 0
0 0.85626 0
0 0.855238 0
0 0.853864 0
0 0.852079 0
0 0.849744 0
0 0.846738 0
0 0.842847 0
0 0.837873 0
0 0.831556 0.00547799
0.216449 0.82356 0.0170748
0.38735 0.81355 0.0319371
0.528527 0.801083 0.0509346
0.660121 0.785763 0.0751659
0.78822 0.767117 0.104402
0.915038 0.744778 0.13521
1 0.718486 0.168109
1 0.688258 0.203418
1 0.65449 0.241352
1 0.61825 0.282078
1 0.581476 0.325658
1 0.547219 0.372091
1 0.519738 0.421347
1 0.504097 0.47335
1 0.505135 0.528038
1 0.525872 0.585428
1 0.566598 0.645594
1 0.555291 0.655909
0 0.918563 0.0357671
0 0.918257 0.0362249
0 0.917983 0.0366369
0 0.917693 0.0370947
0 0.917311 0.0376745
0 0.916808 0.0384527
0 0.916121 0.0395056
0 0.915221 0.0409094
0 0.914015 0.0427558
0 0.912444 0.0451972
0 0.910399 0.0484016
0 0.907744 0.0525521
0 0.904311 0.0579538
0 0.899916 0.0649424
0 0.894316 0.0739452
0.000167849 0.887221 0.0856794
0.273335 0.878294 0.099443
0.436027 0.867155 0.11548
0.576288 0.853376 0.133974
0.708598 0.836515 0.155108
0.837751 0.816144 0.179095
0.965286 0.791959 0.206058
1 0.763836 0.236164
1 0.731945 0.269505
1 0.697047 0.306157
1 0.660594 0.34612
1 0.625055 0.389364
1 0.593973 0.435813
1 0.571847 0.48539
1 0.563546 0.537987
1 0.573053 0.593606
1 0.602258 0.652277
1 0.577264 0.655207
0 0.973266 0.123629
0 0.973007 0.12398
0 0.972763 0.1243
0 0.972519 0.124636
0 0.972183 0.125078
0 0.97174 0.125658
0 0.971145 0.126436
0 0.970367 0.127474
0 0.969314 0.128847
0 0.967956 0.130632
0 0.966171 0.132937
0 0.963851 0.135897
0 0.960861 0.139681
0 0.957031 0.144457
0 0.952132 0.150439
0 0.945907 0.157885
0.109194 0.938048 0.167041
0.32929 0.928206 0.178195
0.48394 0.915984 0.191638
0.621988 0.900923 0.207645
0.753674 0.882628 0.226505
0.882521 0.860685 0.248478
1 0.834867 0.273747
1 0.805203 0.302495
1 0.772107 0.334844
1 0.73669 0.370825
1 0.700816 0.410437
1 0.667414 0.45362
1 0.640452 0.500313
1 0.624537 0.550393
1 0.624125 0.603861
1 0.63444 0.653254
1 0.602991 0.654353
0 1 0.201709
0 1 0.201938
0 1 0.202136
0 1 0.202365
0 1 0.202655
0 1 0.203037
0 1 0.203555
0 1 0.204242
0 1 0.205158
0 1 0.206348
0 1 0.207904
0 1 0.209918
0 1 0.212497
0 1 0.215793
0 1 0.219989
0 0.998428 0.225269
0 0.991623 0.231876
0.202243 0.983078 0.240085
0.384771 0.972396 0.250187
0.530892 0.959182 0.262516
0.665309 0.943008 0.277378
0.794919 0.923445 0.295109
0.921981 0.900175 0.315999
1 0.873075 0.340352
1 0.842344 0.368338
1 0.808667 0.400122
1 0.773465 0.435752
1 0.739086 0.475273
1 0.708888 0.518639
1 0.687114 0.565759
1 0.678294 0.616648
1 0.668009 0.652018
1 0.632532 0.65333
0 1 0.274357
0 1 0.274525
0 1 0.274678
0 1 0.27483
0 1 0.275044
0 1 0.275319
0 1 0.275685
0 1 0.276173
0 1 0.276829
0 1 0.277684
0 1 0.278798
0 1 0.280247
0 1 0.282124
0 1 0.28452
0 1 0.287587
0 1 0.291478
0 1 0.296407
0.0272679 1 0.302571
0.282445 1 0.310277
0.439872 1 0.319799
0.576761 0.996292 0.331487
0.706081 0.979202 0.345678
0.832029 0.958679 0.362722
0.955932 0.934447 0.382986
1 0.906538 0.406744
1 0.875319 0.434256
1 0.841779 0.465721
1 0.807721 0.501244
1 0.775891 0.540887
1 0.750042 0.584634
1 0.734554 0.632502
1 0.704967 0.650584
1 0.665873 0.65211
0 1 0.345022
0 1 0.345144
0 1 0.345251
0 1 0.345373
0 1 0.345525
0 1 0.345724
0 1 0.345998
0 1 0.346365
0 1 0.346838
0 1 0.347463
0 1 0.348287
0 1 0.349371
0 1 0.350744
0 1 0.352529
0 1 0.354818
0 1 0.357748
0 1 0.361456
0 1 0.36614
0.18706 1 0.372045
0.357504 1 0.379416
0.494835 1 0.388556
0.621653 1 0.399817
0.744335 1 0.41355
0.865156 0.988235 0.430137
0.984344 0.963516 0.449958
1 0.935347 0.47335
1 0.904356 0.500587
1 0.871824 0.531945
1 0.839918 0.567559
1 0.81181 0.607523
1 0.788342 0.646998
1 0.744732 0.648936
1 0.702678 0.650675
0 1 0.415015
0 1 0.415091
0 1 0.415183
0 1 0.415274
0 1 0.415381
0 1 0.415534
0 1 0.415732
0 1 0.416007
0 1 0.416358
0 1 0.416831
0 1 0.417456
0 1 0.41825
0 1 0.419287
0 1 0.42063
0 1 0.422354
0 1 0.424567
0 1 0.427375
0 1 0.430945
0.128328 1 0.435477
0.299184 1 0.441169
0.430137 1 0.448295
0.549905 1 0.45716
0.665766 1 0.468101
0.780438 1 0.481514
0.894545 1 0.497795
1 0.98761 0.517311
1 0.959854 0.540475
1 0.929885 0.567636
1 0.899306 0.599054
1 0.87068 0.634974
1 0.830854 0.644999
1 0.786465 0.647089
1 0.742397 0.649027
0 1 0.485008
0 1 0.485069
0 1 0.48513
0 1 0.485206
0 1 0.485283
0 1 0.485405
0 1 0.485557
0 1 0.485756
0 1 0.48603
0 1 0.486381
0 1 0.486839
0 1 0.487449
0 1 0.488228
0 1 0.48925
0 1 0.490547
0 1 0.492226
0 1 0.494362
0 1 0.497093
0.152239 1 0.500557
0.285283 1 0.504952
0.396689 1 0.510491
0.501778 1 0.517418
0.605417 1 0.52607
0.709606 1 0.536797
0.814847 1 0.549981
0.920638 1 0.566033
1 1 0.585397
1 0.980499 0.608499
1 0.952422 0.635721
1 0.914794 0.640681
1 0.87306 0.642893
1 0.829129 0.645075
1 0.784192 0.647196
0 1 0.55552
0 1 0.555566
0 1 0.555611
0 1 0.555673
0 1 0.555734
0 1 0.55581
0 1 0.555932
0 1 0.556085
0 1 0.556283
