2000nits_HDR-to-SDR.cube
TITLE "Generated by Resolve"
LUT_3D_SIZE 9
0 0 0
0.110979 0 0
0.276265 0 0
0.5252 0 0
0.882124 0 0
1 0 0
1 0 0.188434
1 0 0.429236
1 0.46183 0.658549
0 0.0771496 0
0.0728161 0.0684367 0
0.258076 0.0454719 0
0.514229 0 0
0.874037 0 0
1 0 0
1 0 0.189731
1 0 0.429862
1 0.463325 0.658503
0 0.214145 0
0 0.209415 0
0.204868 0.196506 0
0.484688 0.154498 0
0.852705 0 0
1 0 0
1 0 0.193225
1 0 0.43151
1 0.467277 0.658412
0 0.412512 0
0 0.409613 0
0 0.401877 0
0.39205 0.378531 0
0.790387 0.310674 0
1 0.151019 0
1 0 0.203754
1 0.0535592 0.436423
1 0.478798 0.658106
0 0.667338 0
0 0.66508 0
0 0.659251 0
0.0230106 0.642878 0
0.620432 0.601862 0
1 0.512001 0.0329595
1 0.363775 0.233158
1 0.310918 0.45005
1 0.508873 0.657282
0 0.918563 0.0357671
0 0.917311 0.0376745
0 0.914015 0.0427558
0 0.904311 0.0579538
0.273335 0.878294 0.099443
0.837751 0.816144 0.179095
1 0.697047 0.306157
1 0.571847 0.48539
1 0.577264 0.655207
0 1 0.345022
0 1 0.345525
0 1 0.346838
0 1 0.350744
0 1 0.361456
0.494835 1 0.388556
0.984344 0.963516 0.449958
1 0.839918 0.567559
1 0.702678 0.650675
0.0799573 1 0.625162
0.0887617 1 0.625177
0.109529 1 0.625223
0.160128 1 0.62536
0.260212 1 0.625757
0.429908 1 0.62678
0.688457 1 0.629313
1 1 0.634668
1 0.869871 0.643046
0.0799573 1 0.625162
0.0832074 1 0.625162
0.090959 1 0.625177
0.112123 1 0.625223
0.161013 1 0.62536
0.256641 1 0.625727
0.421134 1 0.626719
0.678523 1 0.629191
1 1 0.634668
0 0 0.0768139
0.106706 0 0.0753033
0.274098 0 0.0713359
0.523934 0 0.0598306
0.881254 0 0.030396
1 0 0.021973
1 0 0.207019
1 0 0.433371
1 0.46186 0.659342
0 0.076524 0.0692912
0.0678111 0.0678111 0.0678111
0.255818 0.0448768 0.0639506
0.512947 0 0.0527352
0.873167 0 0.024033
1 0 0.0233616
1 0 0.208133
1 0 0.433967
1 0.463355 0.659312
0 0.213748 0.049836
0 0.209018 0.0484779
0.202228 0.196109 0.0448615
0.483375 0.154055 0.0343938
0.851835 0 0.00755322
1 0 0.026566
1 0 0.211109
1 0 0.435569
1 0.467292 0.659205
0 0.412192 0
0 0.409308 0
0 0.401572 0
0.3906 0.378241 0
0.789548 0.310384 0
1 0.151034 0.035996
1 0 0.220188
1 0.0540017 0.440345
1 0.478813 0.6589
0 0.667002 0
0 0.664759 0
0 0.658946 0
0.0200198 0.642618 0
0.619669 0.601648 0
1 0.511879 0.0749371
1 0.363806 0.246296
1 0.31104 0.453605
1 0.508888 0.658061
0 0.918349 0.071519
0 0.917113 0.0733501
0 0.913817 0.0782177
0 0.904112 0.0925917
0.272618 0.878126 0.126604
0.837385 0.816022 0.195605
1 0.696986 0.314061
1 0.571862 0.488151
1 0.577279 0.65594
0 1 0.350545
0 1 0.351034
0 1 0.352316
0 1 0.356115
0 1 0.366506
0.494667 1 0.39292
0.984207 0.963455 0.453071
1 0.839902 0.569131
1 0.702678 0.651286
0.0798657 1 0.626108
0.0886702 1 0.626123
0.109438 1 0.626169
0.160067 1 0.626307
0.260151 1 0.626688
0.429862 1 0.62768
0.688396 1 0.630137
1 1 0.63534
1 0.869856 0.643488
0.0799268 1 0.625483
0.0831769 1 0.625498
0.0909133 1 0.625513
0.112093 1 0.625559
0.160983 1 0.625696
0.256626 1 0.626062
0.421118 1 0.627024
0.678492 1 0.62948
1 1 0.634897
0 0 0.216556
0.094789 0 0.215427
0.268284 0 0.212451
0.520546 0 0.203632
0.87892 0 0.179492
1 0 0.152651
1 0 0.250828
1 0 0.44419
1 0.461906 0.661479
0 0.0748608 0.211795
0.0545205 0.0661631 0.210681
0.249729 0.0432898 0.207721
0.509529 0 0.198932
0.870848 0 0.174853
1 0 0.152514
1 0 0.25153
1 0 0.444755
1 0.463401 0.661433
0 0.212711 0.199069
0 0.207965 0.197971
0.195041 0.195041 0.195041
0.479896 0.152895 0.186328
0.849546 0 0.162356
1 0 0.152087
1 0 0.253468
1 0 0.44622
1 0.467353 0.661326
0 0.411368 0.16022
0 0.408484 0.159121
0 0.400748 0.156222
0.386755 0.377432 0.147555
0.787305 0.309606 0.123247
1 0.151095 0.151766
1 0 0.259586
1 0.0551919 0.450614
1 0.478859 0.661006
0 0.666102 0.0668345
0 0.663874 0.0686809
0 0.658122 0.0730907
0.0120394 0.641886 0.0842603
0.61767 0.601083 0.108354
1 0.511574 0.163439
1 0.363882 0.27866
1 0.31136 0.462928
1 0.508919 0.660105
0 0.9178 0.150454
0 0.916564 0.151522
0 0.913283 0.154376
0 0.903593 0.162676
0.270695 0.877653 0.184436
0.836423 0.815656 0.234882
1 0.696834 0.334234
1 0.571923 0.49543
1 0.577295 0.657862
0 1 0.364889
0 1 0.365332
0 1 0.366506
0 1 0.370031
0 1 0.379675
0.49424 1 0.404349
0.983825 0.963287 0.46128
1 0.839857 0.573297
1 0.702663 0.652934
0.0795911 1 0.628656
0.0884108 1 0.628672
0.109209 1 0.628702
0.159869 1 0.628824
0.259998 1 0.629175
0.429725 1 0.630091
0.688273 1 0.632349
1 1 0.63714
1 0.869841 0.644648
0.0798352 1 0.626368
0.0830854 1 0.626368
0.090837 1 0.626383
0.112016 1 0.626429
0.160922 1 0.626566
0.256565 1 0.626917
0.421073 1 0.627863
0.678462 1 0.630243
1 1 0.635523
0 0 0.430869
0.0549477 0 0.429709
0.250263 0 0.426657
0.510307 0 0.417685
0.871916 0 0.393805
1 0 0.348196
1 0 0.353079
1 0 0.475135
1 0.462074 0.667826
0 0.0698711 0.426917
0.0149386 0.061265 0.425772
0.230762 0.0385595 0.422751
0.499229 0 0.413886
0.863874 0 0.390249
1 0 0.346639
1 0 0.353094
1 0 0.475547
1 0.463569 0.667781
0 0.209583 0.416541
0 0.204822 0.415442
0.172244 0.191821 0.412497
0.469352 0.149386 0.403891
0.842649 0 0.380896
1 0 0.342687
1 0 0.353185
1 0 0.476677
1 0.467506 0.667643
0 0.408911 0.386694
0 0.406012 0.385672
0 0.398306 0.382971
0.375036 0.375036 0.375036
0.780591 0.307286 0.35375
1 0.151293 0.332677
1 0 0.353979
1 0.0587472 0.480064
1 0.478996 0.667262
0 0.663493 0.318624
0 0.661326 0.318471
0 0.655711 0.318029
0 0.63975 0.316655
0.611673 0.59942 0.314046
1 0.510674 0.317143
1 0.364126 0.359548
1 0.312322 0.489769
1 0.509026 0.666224
0 0.916167 0.291341
0 0.914931 0.291707
0 0.911665 0.292699
0 0.902037 0.295659
0.264897 0.876249 0.304158
0.83357 0.814603 0.327764
1 0.696376 0.388678
1 0.572091 0.516609
1 0.577325 0.6636
0 1 0.404852
0 1 0.405203
0 1 0.406149
0 1 0.408942
0 1 0.416663
0.492958 1 0.43679
0.982681 0.962783 0.485008
1 0.839719 0.58558
1 0.702617 0.657832
0.0787976 1 0.636194
0.0876478 1 0.63621
0.108522 1 0.63624
0.159304 1 0.636332
0.259541 1 0.636591
0.429328 1 0.637278
0.687877 1 0.638956
1 1 0.642512
1 0.869749 0.648112
0.0795605 1 0.628992
0.0828107 1 0.628992
0.0905776 1 0.629007
0.111772 1 0.629053
0.160723 1 0.629175
0.256413 1 0.629496
0.420935 1 0.630365
0.678325 1 0.632547
1 1 0.637385
0 0 0.755001
0 0 0.753521
0.193332 0 0.749584
0.480858 0 0.738079
0.852232 0 0.707637
1 0 0.632486
1 0 0.546853
1 0 0.552575
1 0.462531 0.685374
0 0.0561379 0.750637
0 0.047715 0.749172
0.16968 0.0255131 0.745296
0.469535 0 0.733928
0.844266 0 0.703838
1 0 0.629541
1 0 0.545953
1 0 0.552697
1 0.464027 0.685313
0 0.200717 0.739254
0 0.195895 0.737835
0.0917525 0.182712 0.734081
0.438865 0.13933 0.723064
0.82324 0 0.693874
1 0 0.622034
1 0 0.543648
1 0 0.553063
1 0.467948 0.68513
0 0.401999 0.70695
0 0.39913 0.705669
0 0.39147 0.702235
0.340581 0.368338 0.69218
0.761639 0.300771 0.665431
1 0.151949 0.60209
1 0 0.537377
1 0.0687724 0.554238
1 0.479393 0.684596
0 0.65658 0.62443
0 0.654551 0.623392
0 0.649226 0.620676
0 0.633921 0.613077
0.594827 0.594827 0.594827
1 0.508202 0.560174
1 0.364813 0.524208
1 0.315022 0.558099
1 0.509331 0.683146
0 0.911604 0.516777
0 0.910384 0.516579
0 0.907179 0.516075
0 0.897719 0.514641
0.248188 0.872343 0.511238
0.825528 0.811643 0.506111
1 0.695094 0.511421
1 0.572595 0.571801
1 0.577447 0.679484
0 1 0.500267
0 1 0.50045
0 1 0.500908
0 1 0.502297
0 1 0.506203
0.489357 1 0.516991
0.979461 0.961364 0.546044
1 0.839323 0.618784
1 0.702495 0.671443
0.0765698 1 0.656977
0.0854658 1 0.656977
0.106554 1 0.656977
0.157687 1 0.656977
0.258259 1 0.656992
0.428214 1 0.657053
0.686763 1 0.65716
1 1 0.657404
1 0.86949 0.657801
0.0787823 1 0.636347
0.0820478 1 0.636347
0.0898299 1 0.636362
0.111116 1 0.636393
0.160174 1 0.636484
0.25597 1 0.636728
0.420554 1 0.637369
0.677943 1 0.639002
1 1 0.642618
0 0 1
0 0 1
0 0 1
0.39443 0 1
0.798535 0 1
1 0 1
1 0 0.86685
1 0 0.719387
1 0.463783 0.731044
0 0.0205997 1
0 0.012665 1
0 0 1
0.381979 0 1
0.790753 0 1
1 0 1
1 0 0.864897
1 0 0.719036
1 0.465263 0.730938
0 0.17615 1
0 0.171115 1
0 0.157244 1
0.347692 0.110475 1
0.770153 0 1
1 0 1
1 0 0.8598
1 0 0.718105
1 0.469139 0.730632
0 0.38349 1
0 0.380667 1
0 0.373129 1
0.229831 0.350286 1
0.706157 0.28893 1
1 0.154498 0.999359
1 0 0.845258
1 0.0956741 0.715465
1 0.480491 0.729732
0 0.639872 1
0 0.638056 1
0 0.633249 1
0 0.619303 1
0.54905 0.583124 0.9991
1 0.5019 0.927718
1 0.366857 0.809903
1 0.322301 0.709117
1 0.51014 0.727275
0 0.899489 0.860502
0 0.898329 0.859785
0 0.895262 0.857908
0 0.886229 0.852384
0.19884 0.861967 0.837736
0.803815 0.8038 0.8038
1 0.691722 0.744305
1 0.573983 0.698604
1 0.577752 0.72105
0 1 0.693263
0 1 0.693172
0 1 0.692943
0 1 0.692256
0 1 0.690501
0.479576 1 0.686809
0.970733 0.957549 0.683268
1 0.838285 0.700587
1 0.702144 0.707271
0.0704509 1 0.710399
0.0791028 1 0.710369
0.101076 1 0.710292
0.153231 1 0.710094
0.254749 1 0.709545
0.425147 1 0.708049
0.683726 1 0.704372
1 1 0.696437
1 0.868788 0.683635
0.0766613 1 0.656092
0.0796674 1 0.656092
0.0877852 1 0.656092
0.10927 1 0.656107
0.158648 1 0.656107
0.254749 1 0.656138
0.419486 1 0.656214
0.676875 1 0.656382
1 1 0.656779
0 0 1
0 0 1
0 0 1
0 0 1
0.647639 0 1
1 0 1
1 0 1
1 0 1
1 0.46714 0.840879
0 0 1
0 0 1
0 0 1
0 0 1
0.640055 0 1
1 0 1
1 0 1
1 0 1
1 0.468574 0.840665
0 0.10399 1
0 0.097673 1
0 0.0794537 1
0 0.0244144 1
0.620432 0 1
1 0 1
1 0 1
1 0.00875868 1
1 0.472358 0.840101
0 0.342626 1
0 0.340566 1
0 0.335103 1
0 0.318868 1
0.565011 0.274937 1
1 0.166125 1
1 0 1
1 0.152224 1
1 0.483391 0.838422
0 0.603601 1
0 0.602121 1
0 0.598215 1
0 0.586786 1
0.424277 0.55671 1
0.963485 0.487984 1
1 0.373251 1
1 0.341253 0.994125
1 0.512337 0.833799
0 0.869429 1
0 0.868406 1
0 0.86569 1
0 0.857694 1
0.00503548 0.836149 1
0.747066 0.784222 1
1 0.683436 1
1 0.577905 0.94902
1 0.578576 0.822049
0 1 1
0 1 1
0 1 1
0 1 1
0 1 1
0.453788 1 0.994095
0.947585 0.94757 0.947585
1 0.835599 0.878676
1 0.701228 0.795682
0.0540627 1 0.835966
0.062562 1 0.835889
0.085359 1 0.835691
0.140749 1 0.835065
0.24506 1 0.833326
0.416831 1 0.828702
0.675456 1 0.817182
1 1 0.791775
1 0.866896 0.749126
0.0708476 1 0.707073
0.0738384 1 0.707057
0.0820478 1 0.707042
0.104128 1 0.706966
0.154421 1 0.706783
0.251377 1 0.706294
0.416571 1 0.704967
0.673991 1 0.701595
1 1 0.69398
0 0 1
0 0 1
0 0 1
0 0 1
0.242069 0 1
0.891142 0 1
1 0 1
1 0.140291 1
1 0.475883 1
0 0.00463874 1
0 0.00230411 1
0 0 1
0 0 1
0.234455 0 1
0.887144 0 1
1 0 1
1 0.152911 1
1 0.477211 1
0 0.12784 1
0 0.125856 1
0 0.120577 1
0 0.104494 1
0.213703 0.0579995 1
0.876631 0 1
1 0 1
1 0.183062 1
1 0.480735 1
0 0.310048 1
0 0.308843 1
0 0.305684 1
0 0.296391 1
0.145281 0.271763 1
0.84625 0.215579 1
1 0.140826 1
1 0.254353 1
1 0.49102 1
0 0.542947 1
0 0.542 1
0 0.539528 1
0 0.53225 1
0 0.512947 1
0.769162 0.468345 1
1 0.395026 1
1 0.387625 1
1 0.51812 1
0 0.805127 1
0 0.804379 1
0 0.802396 1
0 0.796536 1
0 0.780728 1
0.607294 0.742275 1
1 0.666697 1
1 0.58941 1
1 0.580758 1
0 1 1
0 1 1
0 1 1
0 1 1
0 1 1
0.389883 0.982147 1
0.889082 0.923247 1
1 0.82945 1
1 0.698756 0.991974
0.0110933 1 1
0.0191653 1 1
0.04065 1 1
0.103456 1 1
0.217914 1 1
0.39408 1 1
0.65304 1 1
1 0.999969 0.999985
1 0.861708 0.902052
0.0548867 1 0.830152
0.0578164 1 0.830121
0.0656443 1 0.83006
0.0891127 1 0.829847
0.142321 1 0.829252
0.241901 1 0.827649
0.408438 1 0.823392
0.665949 1 0.812436
1 1 0.787259
0 0.259022 1
0 0.258839 1
0 0.25835 1
0 0.257008 1
0 0.25391 1
0.429816 0.250126 1
1 0.265217 1
1 0.371176 1
1 0.496849 1
0 0.270604 1
0 0.270405 1
0 0.269917 1
0 0.268513 1
0 0.265232 1
0.428061 0.260822 1
1 0.273732 1
1 0.375341 1
1 0.497963 1
0 0.299138 1
0 0.298939 1
0 0.298405 1
0 0.296864 1
0 0.293156 1
0.423423 0.287282 1
1 0.29514 1
1 0.38616 1
1 0.500877 1
0 0.370123 1
0 0.369879 1
0 0.369238 1
0 0.367407 1
0 0.362737 1
0.409964 0.353704 1
1 0.350637 1
1 0.416419 1
1 0.509438 1
0 0.508324 1
0 0.508019 1
0 0.50724 1
0 0.504936 1
0 0.498863 1
0.375647 0.485206 1
0.987335 0.46595 1
1 0.48809 1
1 0.532219 1
0 0.714534 1
0 0.714199 1
0 0.713314 1
0 0.710704 1
0 0.703624 1
0.307012 0.686336 1
0.90338 0.652583 1
1 0.624979 1
1 0.586206 1
0 0.936828 1
0 0.936538 1
0 0.93579 1
0 0.933562 1
0 0.927413 1
0.270893 0.911665 1
0.763226 0.876219 1
1 0.820111 1
1 0.692332 1
0 1 1
0 1 1
0 1 1
0 1 1
0.135409 1 1
0.332082 1 1
0.593561 1 1
0.939223 0.969375 1
1 0.847639 1
0.0110933 1 1
0.0138705 1 1
0.0213016 1 1
0.043534 1 1
0.104555 1 1
0.214054 1 1
0.385183 1 1
0.643137 1 1
1 0.999969 0.999985
