400nits_HDR-to-SDR.cube
TITLE "Generated by Resolve"
LUT_3D_SIZE 33
0 0 0
0.0272526 0 0
0.0518196 0 0
0.0784772 0 0
0.109957 0 0
0.144808 0 0
0.183673 0 0
0.226978 0 0
0.275196 0 0
0.328786 0 0
0.388266 0 0
0.454185 0 0
0.527108 0 0
0.607614 0 0
0.696315 0 0
0.793729 0 0
0.900389 0 0
1 0 0
1 0 0
1 0 0
1 0 0
1 0 0.0126497
1 0 0.0778973
1 0 0.151934
1 0 0.223529
1 0 0.297169
1 0 0.374243
1 0 0.382742
1 0 0.382742
1 0 0.382742
1 0 0.382742
1 0 0.382742
1 0 0.382742
0 0.0185855 0
0.0175937 0.0165408 0
0.0421302 0.0146944 0
0.0687724 0.0126802 0
0.10161 0.010132 0
0.137911 0.00666819 0
0.177905 0.00202945 0
0.222126 0 0
0.271046 0 0
0.325231 0 0
0.385183 0 0
0.451484 0 0
0.524727 0 0
0.605493 0 0
0.694408 0 0
0.792004 0 0
0.898787 0 0
1 0 0
1 0 0
1 0 0
1 0 0
1 0 0.0130617
1 0 0.0784466
1 0 0.152392
1 0 0.223941
1 0 0.297536
1 0 0.374548
1 0 0.38265
1 0 0.382666
1 0 0.382681
1 0 0.382696
1 0 0.382712
1 0 0.382712
0 0.0353094 0
0.00889601 0.0332494 0
0.033402 0.0314031 0
0.060029 0.0293889 0
0.0937057 0.0268254 0
0.131487 0.0233616 0
0.172595 0.0187076 0
0.21767 0.0125124 0
0.267277 0.00433356 0
0.321996 0 0
0.382376 0 0
0.449042 0 0
0.522576 0 0
0.603586 0 0
0.692683 0 0
0.790433 0 0
0.897353 0 0
1 0 0
1 0 0
1 0 0
1 0 0
1 0 0.0134432
1 0 0.0789349
1 0 0.152819
1 0 0.224308
1 0 0.297856
1 0 0.374823
1 0 0.382574
1 0 0.382605
1 0 0.382635
1 0 0.382666
1 0 0.382681
1 0 0.382696
0 0.0534371 0
0 0.0513771 0
0.0239567 0.0495308 0
0.0505531 0.0475013 0
0.0846723 0.0449378 0
0.124254 0.0414588 0
0.166674 0.0367895 0
0.212741 0.0305943 0
0.263127 0.022385 0
0.318456 0.0116426 0
0.379324 0 0
0.446387 0 0
0.520226 0 0
0.601495 0 0
0.690806 0 0
0.788739 0 0
0.895796 0 0
1 0 0
1 0 0
1 0 0
1 0 0
1 0 0.0138705
1 0 0.0794842
1 0 0.153262
1 0 0.224704
1 0 0.298207
1 0 0.375128
1 0 0.382483
1 0 0.382544
1 0 0.382589
1 0 0.38262
1 0 0.38265
1 0 0.382666
0 0.0765393 0
0 0.074464 0
0.0119173 0.0726024 0
0.038468 0.070573 0
0.072343 0.0679942 0
0.114626 0.0644999 0
0.158907 0.0598306 0
0.206332 0.0536049 0
0.257755 0.0453803 0
0.313878 0.0345769 0
0.375402 0.0205081 0
0.442969 0.00225834 0
0.517235 0 0
0.59884 0 0
0.688426 0 0
0.786557 0 0
0.893797 0 0
1 0 0
1 0 0
1 0 0
1 0 0
1 0 0.0144045
1 0 0.0801709
1 0 0.153857
1 0 0.225223
1 0 0.29865
1 0 0.375509
1 0 0.382361
1 0 0.382452
1 0 0.382513
1 0 0.382574
1 0 0.382605
1 0 0.382635
0 0.105898 0
0 0.104112 0
0 0.10248 0
0.0221866 0.100694 0
0.0560006 0.0983902 0
0.10071 0.0952163 0
0.147951 0.0908522 0
0.197421 0.0848707 0
0.25034 0.0763867 0
0.307622 0.0655528 0
0.370047 0.0514076 0
0.438331 0.0330816 0
0.513161 0.00943008 0
0.595224 0 0
0.685176 0 0
0.783612 0 0
0.891096 0 0
1 0 0
1 0 0
1 0 0
1 0 0
1 0 0.0151369
1 0 0.0813764
1 0 0.154635
1 0 0.22591
1 0 0.299245
1 0 0.376028
1 0 0.382208
1 0 0.38233
1 0 0.382422
1 0 0.382498
1 0 0.382559
1 0 0.382605
0 0.138399 0
0 0.136904 0
0 0.135531 0
0.000396735 0.134051 0
0.0341344 0.132128 0
0.0797589 0.129503 0
0.132296 0.125933 0
0.184955 0.12105 0
0.240131 0.114412 0
0.299062 0.105287 0
0.362753 0.0925765 0
0.432029 0.0742962 0
0.507652 0.0505074 0
0.590356 0.0200198 0
0.680812 0 0
0.77966 0 0
0.887465 0 0
1 0 0
1 0 0
1 0 0
1 0 0
1 0 0.0161288
1 0 0.0826581
1 0 0.155703
1 0 0.226841
1 0 0.300069
1 0 0.37673
1 0 0.38201
1 0 0.382177
1 0 0.3823
1 0 0.382406
1 0 0.382483
1 0 0.382544
0 0.174517 0
0 0.173251 0
0 0.172107 0
0 0.17084 0
0.00514229 0.169223 0
0.0506447 0.167025 0
0.10927 0.164034 0
0.16733 0.160006 0
0.225971 0.154543 0
0.287358 0.147158 0
0.352865 0.137087 0
0.423545 0.123201 0
0.500267 0.103563 0
0.583825 0.0742351 0
0.674983 0.0350195 0
0.77438 0 0
0.882628 0 0
1 0 0
1 0 0
1 0 0
1 0 0
1 0 0.0174716
1 0 0.0843671
1 0 0.157122
1 0 0.228077
1 0 0.301152
1 0 0.377661
1 0 0.381735
1 0 0.381964
1 0 0.382147
1 0 0.382284
1 0 0.382391
1 0 0.382467
0 0.214588 0
0 0.213504 0
0 0.212528 0
0 0.21146 0
0 0.210086 0
0.0123598 0.208209 0
0.0731518 0.205692 0
0.141711 0.202289 0
0.206119 0.197711 0
0.271275 0.191592 0
0.339452 0.183352 0
0.412131 0.172213 0
0.490379 0.15697 0
0.575128 0.135622 0
0.667231 0.104356 0
0.767376 0.0556802 0
0.876204 0 0
0.994217 0 0
1 0 0
1 0 0
1 0 0
1 0 0.0193027
1 0 0.086656
1 0 0.159014
1 0 0.229725
1 0 0.302586
1 0 0.378897
1 0 0.381384
1 0 0.381689
1 0 0.381933
1 0 0.382116
1 0 0.382269
1 0 0.382376
0 0.25893 0
0 0.258 0
0 0.257145 0
0 0.256229 0
0 0.255055 0
0 0.253452 0
0.0229343 0.251286 0
0.102205 0.248386 0
0.177569 0.244511 0
0.248905 0.239338 0
0.321172 0.232441 0
0.396735 0.223224 0
0.477165 0.210849 0
0.563577 0.194034 0
0.656962 0.170703 0
0.758129 0.137011 0
0.867765 0.0835889 0
0.986404 0.00325017 0
1 0 0
1 0 0
1 0 0
1 0 0.0217899
1 0 0.0896773
1 0 0.161517
1 0 0.231907
1 0 0.304479
1 0 0.380392
1 0 0.380926
1 0 0.381338
1 0 0.381659
1 0 0.381903
1 0 0.382101
1 0 0.382254
0 0.307851 0
0 0.307042 0
0 0.30631 0
0 0.305516 0
0 0.304494 0
0 0.303105 0
0 0.301228 0
0.0379339 0.298726 0
0.134203 0.295399 0
0.217075 0.290959 0
0.295964 0.2851 0
0.375937 0.277302 0
0.459495 0.266972 0
0.548257 0.253162 0
0.643427 0.234531 0
0.745983 0.208896 0
0.856703 0.172351 0
0.976196 0.11574 0
1 0.0185245 0
1 0 0
1 0 0
1 0 0.0251774
1 0 0.0936751
1 0 0.164813
1 0 0.23476
1 0 0.30695
1 0 0.379629
1 0 0.380316
1 0 0.380865
1 0 0.381292
1 0 0.381628
1 0 0.381888
1 0 0.382086
0 0.361669 0
0 0.360952 0
0 0.360311 0
0 0.359609 0
0 0.358724 0
0 0.357504 0
0 0.355871 0
0 0.353689 0
0.0586557 0.35079 0
0.169345 0.346944 0
0.260395 0.341878 0
0.347463 0.33518 0
0.435767 0.32636 0
0.527901 0.314717 0
0.625605 0.299245 0
0.730068 0.278508 0
0.842268 0.250202 0
0.962905 0.2103 0
1 0.149752 0
1 0.0984665 0
1 0.009308 0
1 0 0.0298314
1 0 0.0989242
1 0 0.169131
1 0 0.238483
1 0 0.31017
1 0 0.378653
1 0 0.379553
1 0 0.380255
1 0 0.380819
1 0 0.381262
1 0 0.381598
1 0 0.381872
0 0.420615 0
0 0.419989 0
0 0.419425 0
0 0.418799 0
0 0.418006 0
0 0.416938 0
0 0.415503 0
0 0.413581 0
0 0.411032 0
0.0867628 0.40766 0
0.207736 0.40322 0
0.307683 0.397391 0
0.403555 0.389731 0
0.500786 0.379705 0
0.60209 0.366506 0
0.709239 0.349096 0
0.823468 0.325917 0
0.945663 0.294514 0
1 0.261189 0
1 0.222263 0
1 0.168383 0
1 0.0896773 0.0362402
1 0 0.105776
1 0 0.174777
1 0 0.243336
1 0 0.314366
1 0 0.377401
1 0 0.378561
1 0 0.379477
1 0 0.380209
1 0 0.380789
1 0 0.381247
1 0 0.381598
0 0.484901 0
0 0.484337 0
0 0.483833 0
0 0.483284 0
0 0.482582 0
0 0.481621 0
0 0.480339 0
0 0.47863 0
0 0.476371 0
0 0.473381 0
0.118959 0.469444 0
0.24947 0.464286 0
0.358968 0.457557 0
0.464271 0.448768 0
0.570993 0.437308 0
0.681987 0.422309 0
0.799054 0.402625 0
0.919951 0.378653 0
1 0.353811 0
1 0.321553 0
1 0.28159 0
1 0.232136 0.045182
1 0.170291 0.114687
1 0.0892195 0.182116
1 0 0.249638
1 0 0.319799
1 0 0.37583
1 0 0.37731
1 0 0.3785
1 0 0.379446
1 0 0.380194
1 0 0.380774
1 0 0.381231
0 0.554604 0
0 0.554086 0
0 0.553643 0
0 0.55314 0
0 0.552514 0
0 0.551659 0
0 0.5505 0
0 0.548974 0
0 0.546944 0
0 0.544259 0
0 0.540734 0
0.153506 0.536141 0
0.294469 0.530144 0
0.414176 0.522332 0
0.529488 0.5122 0
0.646235 0.499031 0
0.763561 0.48304 0
0.883909 0.464271 0
1 0.441459 0
1 0.41387 0
1 0.380819 0.00209049
1 0.341695 0.0577401
1 0.29633 0.126223
1 0.245533 0.191623
1 0.192782 0.257755
1 0.148211 0.326772
1 0.075639 0.373877
1 0 0.375738
1 0 0.377249
1 0 0.378454
1 0 0.379416
1 0 0.380179
1 0 0.380774
0 0.629664 0
0 0.629191 0
0 0.628779 0
0 0.628336 0
0 0.627756 0
0 0.626993 0
0 0.62594 0
0 0.624552 0
0 0.622721 0
0 0.620295 0
0 0.617105 0
0 0.612955 0
0.190326 0.607553 0
0.343587 0.600244 0
0.474907 0.590295 0
0.597498 0.578973 0
0.719768 0.56527 0
0.844831 0.548653 0
0.974212 0.528527 0
1 0.504356 0
1 0.475639 0.0176089
1 0.44213 0.0755016
1 0.404028 0.141009
1 0.362539 0.203861
1 0.320714 0.268208
1 0.285023 0.335744
1 0.218723 0.371481
1 0.0823224 0.3738
1 0 0.375692
1 0 0.377218
1 0 0.378454
1 0 0.379416
1 0 0.380194
0 0.706096 0
0 0.705608 0
0 0.70518 0
0 0.704723 0
0 0.704128 0
0 0.703334 0
0 0.702281 0
0 0.700877 0
0 0.699062 0
0 0.696712 0
0 0.693675 0
0 0.689799 0
0.0260014 0.684886 0
0.257969 0.678691 0
0.407401 0.670924 0
0.540276 0.66125 0
0.669093 0.649271 0
0.798703 0.634562 0
0.931411 0.616648 0
1 0.595056 0
1 0.569421 0.040238
1 0.539544 0.099794
1 0.505653 0.159762
1 0.468742 0.219501
1 0.431205 0.281544
1 0.397543 0.347173
1 0.323445 0.368582
1 0.221317 0.37142
1 0.0853132 0.37377
1 0 0.375677
1 0 0.377234
1 0 0.378454
1 0 0.379446
0 0.784512 0
0 0.784131 0
0 0.783795 0
0 0.783429 0
0 0.782956 0
0 0.782315 0
0 0.78146 0
0 0.780331 0
0 0.778851 0
0 0.776898 0
0 0.774365 0
0 0.771084 0
0 0.766888 0
0.106676 0.761532 0
0.31722 0.754757 0
0.46923 0.746227 0
0.60795 0.735592 0
0.743603 0.722438 0
0.880354 0.70631 0
1 0.686793 0.0252384
1 0.663508 0.0732738
1 0.63624 0.128908
1 0.605158 0.183246
1 0.570993 0.239261
1 0.535576 0.298451
1 0.501808 0.361135
1 0.416114 0.365133
1 0.324712 0.368536
1 0.222049 0.371405
1 0.0851148 0.37377
1 0 0.375692
1 0 0.377249
1 0 0.3785
0 0.867201 0
0 0.86688 0
0 0.866575 0
0 0.866255 0
0 0.865843 0
0 0.865293 0
0 0.864546 0
0 0.863569 0
0 0.862257 0
0 0.860563 0
0 0.858335 0
0 0.855451 0
0 0.851743 0
0 0.847013 0
0.180072 0.840986 0
0.377676 0.833371 0
0.533211 0.823819 0
0.677729 0.811948 0.00207523
0.819821 0.79733 0.0318456
0.963058 0.779522 0.0706035
1 0.75816 0.117006
1 0.732967 0.163607
1 0.704005 0.212192
1 0.671748 0.263951
1 0.637583 0.319677
1 0.584756 0.356512
1 0.502678 0.361089
1 0.416541 0.365103
1 0.324544 0.368536
1 0.221012 0.37142
1 0.081651 0.373816
1 0 0.375753
1 0 0.37731
0 0.951904 0
0 0.951614 0
0 0.951354 0
0 0.951064 0
0 0.950713 0
0 0.95021 0
0 0.949554 0
0 0.948684 0
0 0.947524 0
0 0.946014 0
0 0.94403 0
0 0.941466 0
0 0.93817 0
0 0.933928 0
0 0.928527 0.00683604
0.249989 0.921675 0.0213779
0.440391 0.913069 0.0401923
0.599084 0.902312 0.0645457
0.748684 0.888991 0.0956283
0.896361 0.872694 0.129198
1 0.852995 0.165255
1 0.829587 0.204425
1 0.802411 0.247257
1 0.771725 0.294316
1 0.738323 0.345724
1 0.663752 0.351339
1 0.585061 0.356481
1 0.502541 0.361105
1 0.415824 0.365133
1 0.323033 0.368597
1 0.218143 0.371496
1 0.0746929 0.373892
1 0 0.37583
0 1 0.045655
0 1 0.0462654
0 1 0.0467994
0 1 0.0473793
0 1 0.048127
0 1 0.0491493
0 1 0.0505074
0 1 0.0523232
0 1 0.0547189
0 1 0.0578927
0 1 0.0620432
0 1 0.0674754
0 1 0.0745403
0 1 0.0839399
0 1 0.0951858
0.000213626 1 0.108629
0.320455 1 0.124559
0.505302 0.992248 0.143236
0.666163 0.980133 0.164981
0.819715 0.965209 0.190066
0.971756 0.947066 0.218875
1 0.925353 0.251728
1 0.89984 0.288991
1 0.870665 0.331029
1 0.808438 0.339773
1 0.738506 0.345708
1 0.663661 0.351339
1 0.584527 0.356512
1 0.501427 0.361166
1 0.413977 0.365225
1 0.320104 0.368688
1 0.213443 0.371603
1 0.0648508 0.373999
0 1 0.154147
0 1 0.154559
0 1 0.154925
0 1 0.155322
0 1 0.15584
0 1 0.156527
0 1 0.157458
0 1 0.158679
0 1 0.160281
0 1 0.162387
0 1 0.165118
0 1 0.168627
0 1 0.173098
0 1 0.178775
0 1 0.185901
0 1 0.194797
0.139498 1 0.205768
0.392676 1 0.219226
0.571954 1 0.235523
0.733562 1 0.2551
0.88954 1 0.278386
1 1 0.305791
1 0.98262 0.321828
1 0.93106 0.327642
1 0.872862 0.333684
1 0.808392 0.339788
1 0.738186 0.345739
1 0.662913 0.3514
1 0.583215 0.356603
1 0.499397 0.361257
1 0.410986 0.365347
1 0.315816 0.368826
1 0.206867 0.37174
0 1 0.249439
0 1 0.249714
0 1 0.249973
0 1 0.250248
0 1 0.250599
0 1 0.251072
0 1 0.251713
0 1 0.252552
0 1 0.253666
0 1 0.255131
0 1 0.257038
0 1 0.25951
0 1 0.262684
0 1 0.266743
0 1 0.271916
0 1 0.278447
0 1 0.286656
0.252705 1 0.296895
0.459358 1 0.300099
0.623621 1 0.303319
0.773144 1 0.307103
0.915465 1 0.311467
1 1 0.316396
1 0.982635 0.321828
1 0.931014 0.327657
1 0.872679 0.333715
1 0.807935 0.339818
1 0.737316 0.345815
1 0.661479 0.351492
1 0.581094 0.356725
1 0.496376 0.361425
1 0.406821 0.365515
1 0.310048 0.369009
0 1 0.286885
0 1 0.286931
0 1 0.286976
0 1 0.287022
0 1 0.287083
0 1 0.287175
0 1 0.287282
0 1 0.287434
0 1 0.287633
0 1 0.287892
0 1 0.288228
0 1 0.28867
0 1 0.289235
0 1 0.289952
0 1 0.290867
0 1 0.292012
0 1 0.293462
0 1 0.295247
0.257572 1 0.297459
0.461219 1 0.30013
0.624491 1 0.303334
0.773495 1 0.307103
0.915496 1 0.311467
1 1 0.316396
1 0.982589 0.321828
1 0.930846 0.327672
1 0.872267 0.333745
1 0.807111 0.339895
1 0.735943 0.345922
1 0.659434 0.351629
1 0.578149 0.356909
1 0.492378 0.361624
1 0.401495 0.365728
0 1 0.286885
0 1 0.286915
0 1 0.286961
0 1 0.286992
0 1 0.287037
0 1 0.287114
0 1 0.28719
0 1 0.287312
0 1 0.287465
0 1 0.287663
0 1 0.287922
0 1 0.288273
0 1 0.288716
0 1 0.289281
0 1 0.289998
0 1 0.290913
0 1 0.292058
0 1 0.293492
0 1 0.295293
0.259968 1 0.297475
0.462028 1 0.300145
0.624704 1 0.303349
0.773388 1 0.307103
0.915358 1 0.311467
1 1 0.316396
1 0.982483 0.321843
1 0.93051 0.327703
1 0.871565 0.333822
1 0.805905 0.340002
1 0.734081 0.346075
1 0.656703 0.351827
1 0.574411 0.357122
1 0.487388 0.361868
0 1 0.286885
0 1 0.286915
0 1 0.286946
0 1 0.286976
0 1 0.287007
0 1 0.287053
0 1 0.287129
0 1 0.287221
0 1 0.287327
0 1 0.287495
0 1 0.287694
0 1 0.287953
0 1 0.288304
0 1 0.288746
0 1 0.289311
0 1 0.290028
0 1 0.290944
0 1 0.292088
0 1 0.293523
0 1 0.295293
0.260563 1 0.29749
0.461891 1 0.300145
0.624247 1 0.303334
0.772931 1 0.307088
0.915053 1 0.311452
1 1 0.316396
1 0.9823 0.321874
1 0.930022 0.327764
1 0.870604 0.333913
1 0.804318 0.340154
1 0.731655 0.346258
1 0.653284 0.352056
1 0.569787 0.357397
0 1 0.286885
0 1 0.2869
0 1 0.286931
0 1 0.286946
0 1 0.286976
0 1 0.287022
0 1 0.287068
0 1 0.287144
0 1 0.287236
0 1 0.287358
0 1 0.28751
0 1 0.287724
0 1 0.287984
0 1 0.288334
0 1 0.288777
0 1 0.289342
0 1 0.290044
0 1 0.290959
0 1 0.292103
0 1 0.293523
0 1 0.295293
0.259464 1 0.297475
0.460731 1 0.30013
0.623194 1 0.303304
0.772061 1 0.307073
0.914534 1 0.311437
1 1 0.316396
1 0.98204 0.321904
1 0.929351 0.327825
1 0.869383 0.334035
1 0.802304 0.340322
1 0.728679 0.346502
1 0.649149 0.352346
0 1 0.286885
0 1 0.2869
0 1 0.286915
0 1 0.286931
0 1 0.286961
0 1 0.286992
0 1 0.287022
0 1 0.287083
0 1 0.28716
