400nits_HDR-to-SDR.cube
TITLE "Generated by Resolve"
LUT_3D_SIZE 5
0 0 0
0.275196 0 0
0.900389 0 0
1 0 0.223529
1 0 0.382742
0 0.214588 0
0.206119 0.197711 0
0.876204 0 0
1 0 0.229725
1 0 0.382376
0 0.706096 0
0 0.699062 0
0.669093 0.649271 0
1 0.431205 0.281544
1 0 0.379446
0 1 0.286885
0 1 0.287465
0 1 0.292058
1 1 0.316396
1 0.487388 0.361868
0 1 0.286885
0 1 0.286961
0 1 0.287556
0 1 0.291875
1 1 0.316396
0 0 0.214984
0.267475 0 0.211765
0.897658 0 0.184833
1 0 0.293629
1 0 0.390295
0 0.213352 0.19968
0.196414 0.196414 0.196414
0.873472 0 0.168948
1 0 0.297581
1 0 0.389914
0 0.705119 0.0746471
0 0.698192 0.0822156
0.666438 0.648722 0.122454
1 0.431418 0.333745
1 0 0.38677
0 1 0.317082
0 1 0.317464
0 1 0.320455
1 1 0.336629
1 0.487343 0.367941
0 1 0.290761
0 1 0.290822
0 1 0.291386
0 1 0.295506
1 1 0.318944
0 0 0.755169
0.194156 0 0.75201
0.874693 0 0.72668
1 0 0.627192
1 0 0.448402
0 0.202823 0.745129
0.0935836 0.185412 0.742046
0.850446 0 0.717266
1 0 0.62536
1 0 0.447837
0 0.697856 0.663951
0 0.691493 0.661326
0.644251 0.644251 0.644251
1 0.433249 0.616144
1 0 0.443214
0 1 0.503258
0 1 0.502708
0 1 0.498283
1 1 0.472969
1 0.486976 0.415213
0 1 0.321386
0 1 0.321431
0 1 0.321798
0 1 0.324407
1 1 0.339559
0 0 1
0 0 1
0.687907 0 1
1 0 1
1 0 0.748699
0 0.1122 1
0 0.0872816 1
0.662684 0 1
1 0 1
1 0 0.747372
0 0.659419 1
0 0.654688 1
0.473106 0.617899 1
1 0.448386 1
1 0 0.736645
0 1 1
0 1 1
0 1 1
0.999985 0.999969 0.999985
1 0.484215 0.669932
0 1 0.49688
0 1 0.496818
0 1 0.496269
0 1 0.492317
1 1 0.46804
0 0.297246 1
0 0.293904 1
0 0.266499 1
1 0.0508583 1
1 0 1
0 0.340429 1
0 0.33724 1
0 0.311299 1
1 0.127459 1
1 0 1
0 0.559319 1
0 0.556542 1
0 0.534081 1
1 0.394919 1
1 0 1
0 0.967376 1
0 0.965652 1
0 0.951476 1
0.690379 0.85687 1
1 0.464393 1
0 1 1
0 1 1
0 1 1
0 1 1
0.999985 0.999969 0.999985
