400nits_HDR-to-SDR.cube
TITLE "Generated by Resolve"
LUT_3D_SIZE 9
0 0 0
0.109957 0 0
0.275196 0 0
0.527108 0 0
0.900389 0 0
1 0 0
1 0 0.223529
1 0 0.382742
1 0 0.382742
0 0.0765393 0
0.072343 0.0679942 0
0.257755 0.0453803 0
0.517235 0 0
0.893797 0 0
1 0 0
1 0 0.225223
1 0 0.382452
1 0 0.382635
0 0.214588 0
0 0.210086 0
0.206119 0.197711 0
0.490379 0.15697 0
0.876204 0 0
1 0 0
1 0 0.229725
1 0 0.381689
1 0 0.382376
0 0.420615 0
0 0.418006 0
0 0.411032 0
0.403555 0.389731 0
0.823468 0.325917 0
1 0.168383 0
1 0 0.243336
1 0 0.379477
1 0 0.381598
0 0.706096 0
0 0.704128 0
0 0.699062 0
0.0260014 0.684886 0
0.669093 0.649271 0
1 0.569421 0.040238
1 0.431205 0.281544
1 0.0853132 0.37377
1 0 0.379446
0 1 0.045655
0 1 0.048127
0 1 0.0547189
0 1 0.0745403
0.320455 1 0.124559
0.971756 0.947066 0.218875
1 0.808438 0.339773
1 0.501427 0.361166
1 0.0648508 0.373999
0 1 0.286885
0 1 0.287037
0 1 0.287465
0 1 0.288716
0 1 0.292058
0.462028 1 0.300145
1 1 0.316396
1 0.805905 0.340002
1 0.487388 0.361868
0 1 0.286885
0 1 0.286946
0 1 0.287098
0 1 0.287541
0 1 0.288792
0 1 0.292088
0.455451 1 0.300038
1 1 0.316396
1 0.79707 0.340795
0 1 0.286885
0 1 0.2869
0 1 0.286961
0 1 0.287114
0 1 0.287556
0 1 0.288746
0 1 0.291875
0.432258 1 0.299672
1 1 0.316396
0 0 0.0758984
0.105745 0 0.0745251
0.273106 0 0.0709087
0.525933 0 0.0602579
0.899641 0 0.0316777
1 0 0.0247501
1 0 0.244419
1 0 0.388724
1 0 0.384817
0 0.0759442 0.0687572
0.0673991 0.0673991 0.0673991
0.255558 0.0448005 0.0638437
0.516045 0 0.0533303
0.89305 0 0.0251469
1 0 0.0263676
1 0 0.245884
1 0 0.388418
1 0 0.38471
0 0.214252 0.0500191
0 0.209735 0.0487221
0.20351 0.19736 0.0452888
0.489143 0.156573 0.0351568
0.875456 0 0.00798047
1 0 0.0302129
1 0 0.249866
1 0 0.387625
1 0 0.384451
0 0.420371 0
0 0.417777 0
0 0.410788 0
0.402167 0.389502 0
0.822721 0.325658 0
1 0.168429 0.0417945
1 0 0.261952
1 0 0.38529
1 0 0.383642
0 0.705821 0
0 0.703868 0
0 0.698833 0
0.0226291 0.684688 0
0.668376 0.649119 0
1 0.569345 0.0914168
1 0.43125 0.296635
1 0.08542 0.379248
1 0 0.38146
0 1 0.0912642
0 1 0.093492
0 1 0.0992905
0 1 0.115572
0.319677 1 0.155169
0.971405 0.946975 0.237781
1 0.808286 0.349508
1 0.501396 0.365927
1 0.0648814 0.375906
0 1 0.295399
0 1 0.295552
0 1 0.295933
0 1 0.297047
0 1 0.300053
0.461723 1 0.307332
1 1 0.322042
1 0.805859 0.343511
1 0.487373 0.363531
0 1 0.289952
0 1 0.289998
0 1 0.29015
0 1 0.290578
0 1 0.291783
0 1 0.294957
0.455329 1 0.302617
1 1 0.318425
1 0.797055 0.342016
0 1 0.287938
0 1 0.287968
0 1 0.288014
0 1 0.288167
0 1 0.288609
0 1 0.289784
0 1 0.292866
0.432212 1 0.300557
1 1 0.317098
0 0 0.214984
0.0939651 0 0.214115
0.267475 0 0.211765
0.522805 0 0.20473
0.897658 0 0.184833
1 0 0.166552
1 0 0.293629
1 0 0.404273
1 0 0.390295
0 0.0743572 0.210849
0.0542458 0.0658274 0.209979
0.249622 0.0432593 0.20763
0.512886 0 0.200565
0.891051 0 0.18056
1 0 0.166751
1 0 0.294697
1 0 0.403922
1 0 0.390188
0 0.213352 0.19968
0 0.20882 0.198795
0.196414 0.196414 0.196414
0.485863 0.155489 0.189273
0.873472 0 0.168948
1 0 0.167147
1 0 0.297581
1 0 0.403021
1 0 0.389914
0 0.419745 0.164462
0 0.417136 0.163531
0 0.410163 0.161028
0.398398 0.388861 0.15346
0.820706 0.325002 0.131624
1 0.168566 0.169299
1 0 0.306554
1 0 0.400366
1 0 0.389075
0 0.705119 0.0746471
0 0.703197 0.0767987
0 0.698192 0.0822156
0.0136263 0.684153 0.0947127
0.666438 0.648722 0.122454
1 0.569162 0.18819
1 0.431418 0.333745
1 0.0856794 0.393515
1 0 0.38677
0 1 0.179522
0 1 0.180804
0 1 0.184192
0 1 0.19411
0.317571 1 0.220386
0.970443 0.9467 0.282719
1 0.807889 0.374228
1 0.501305 0.378363
1 0.0649882 0.380941
0 1 0.317082
0 1 0.317189
0 1 0.317464
0 1 0.318273
0 1 0.320455
0.460883 1 0.32578
1 1 0.336629
1 0.805707 0.352712
1 0.487343 0.367941
0 1 0.297978
0 1 0.298024
0 1 0.298161
0 1 0.298558
0 1 0.299641
0 1 0.302495
0.455024 1 0.309422
1 1 0.323751
1 0.797009 0.345281
0 1 0.290761
0 1 0.290776
0 1 0.290822
0 1 0.290974
0 1 0.291386
0 1 0.292531
0 1 0.295506
0.432105 1 0.302953
1 1 0.318944
0 0 0.428962
0.054612 0 0.428199
0.249958 0 0.4262
0.513313 0 0.420233
0.891661 0 0.40383
1 0 0.373312
1 0 0.408637
1 0 0.447593
1 0 0.406302
0 0.0696117 0.426032
0.0149081 0.0611276 0.425284
0.231098 0.0386511 0.423285
0.503273 0 0.41735
0.885069 0 0.401007
1 0 0.372244
1 0 0.409003
1 0 0.44715
1 0 0.40618
0 0.21062 0.41828
0 0.206058 0.417533
0.173877 0.193561 0.415564
0.475914 0.152255 0.409705
0.86746 0 0.393545
1 0 0.369574
1 0 0.41001
1 0 0.44596
1 0 0.405859
0 0.417838 0.395239
0 0.415244 0.394522
0 0.408255 0.392615
0.386954 0.386954 0.386954
0.814649 0.323018 0.371283
1 0.168994 0.363195
1 0 0.413535
1 0 0.442496
1 0 0.404913
0 0.703105 0.340322
0 0.701228 0.340383
0 0.696361 0.34049
0 0.682551 0.340734
0.660624 0.647517 0.342504
1 0.568597 0.356664
1 0.431891 0.426642
1 0.0864729 0.433478
1 0 0.402304
0 1 0.337057
0 1 0.337591
0 1 0.33901
0 1 0.343297
0.311238 1 0.355489
0.967575 0.945891 0.38909
1 0.806699 0.440101
1 0.500999 0.413413
1 0.0652781 0.395682
0 1 0.374929
0 1 0.374929
0 1 0.37496
0 1 0.375051
0 1 0.375296
0.458366 1 0.375891
1 1 0.377111
1 0.80528 0.379004
1 0.487251 0.380865
0 1 0.320958
0 1 0.320989
0 1 0.32108
0 1 0.321355
0 1 0.322118
0 1 0.324117
0.454124 1 0.32903
1 1 0.339269
1 0.796857 0.35491
0 1 0.299046
0 1 0.299062
0 1 0.299107
0 1 0.299245
0 1 0.299611
0 1 0.300633
0 1 0.303319
0.431785 1 0.310002
1 1 0.324453
0 0 0.755169
0 0 0.754299
0.194156 0 0.75201
0.485817 0 0.745235
0.874693 0 0.72668
1 0 0.675456
1 0 0.627192
1 0 0.551034
1 0 0.448402
0 0.0563973 0.752407
0 0.0480049 0.751553
0.170947 0.0257877 0.749279
0.47541 0 0.742535
0.868086 0 0.724102
1 0 0.673259
1 0 0.626673
1 0 0.550347
1 0 0.448249
0 0.202823 0.745129
0 0.198169 0.744274
0.0935836 0.185412 0.742046
0.446952 0.142916 0.735409
0.850446 0 0.717266
1 0 0.66775
1 0 0.62536
1 0 0.548562
1 0 0.447837
0 0.412497 0.723827
0 0.409888 0.723033
0 0.402899 0.720897
0.353033 0.381552 0.714565
0.797452 0.317403 0.697246
1 0.170275 0.653284
1 0 0.621942
1 0 0.543343
1 0 0.446601
0 0.697856 0.663951
0 0.696101 0.663218
0 0.691493 0.661326
0 0.678264 0.656153
0.644251 0.644251 0.644251
1 0.567041 0.624048
1 0.433249 0.616144
1 0.0886702 0.529686
1 0 0.443214
0 1 0.589853
0 1 0.589822
0 1 0.589761
0 1 0.589639
0.292897 0.997421 0.589822
0.959518 0.943633 0.59382
1 0.803357 0.585779
1 0.500175 0.498955
1 0.0661173 0.434592
0 1 0.503258
0 1 0.503105
0 1 0.502708
0 1 0.501518
0 1 0.498283
0.451255 1 0.490242
1 1 0.472969
1 0.804074 0.444907
1 0.486976 0.415213
0 1 0.378637
0 1 0.378637
0 1 0.378637
0 1 0.378653
0 1 0.378698
0 1 0.37882
0.451575 1 0.379126
1 1 0.379782
1 0.796445 0.380804
0 1 0.321386
0 1 0.321401
0 1 0.321431
0 1 0.321523
0 1 0.321798
0 1 0.322515
0 1 0.324407
0.430869 1 0.329168
1 1 0.339559
0 0 1
0 0 1
0 0 1
0.403357 0 1
0.827527 0 1
1 0 1
1 0 0.990921
1 0 0.760235
1 0 0.547021
0 0.021149 1
0 0.0130312 1
0 0 1
0.391485 0 1
0.820859 0 1
1 0 1
1 0 0.98941
1 0 0.759167
1 0 0.546792
0 0.180728 1
0 0.175784 1
0 0.162127 1
0.358511 0.115541 1
0.803067 0 1
1 0 1
1 0 0.985473
1 0 0.756344
1 0 0.546181
0 0.397864 1
0 0.395239 1
0 0.388235 1
0.241901 0.366781 1
0.745907 0.30808 1
1 0.174578 1
1 0 0.974258
1 0 0.748104
1 0 0.54435
0 0.68545 1
0 0.683864 1
0 0.679713 1
0 0.667613 1
0.599268 0.635981 1
1 0.56321 1
1 0.437095 0.946914
1 0.0944228 0.726482
1 0 0.53933
0 1 0.978454
0 1 0.977951
0 1 0.976577
0 1 0.97258
0.238346 0.989441 0.96199
0.937652 0.937636 0.937652
1 0.794415 0.856352
1 0.497948 0.677104
1 0.0684215 0.526497
0 1 0.743252
0 1 0.742885
0 1 0.741878
0 1 0.738918
0 1 0.7308
0.431525 1 0.710384
1 1 0.665293
1 0.800809 0.587671
1 0.486229 0.497322
0 1 0.504021
0 1 0.503975
0 1 0.503822
0 1 0.503395
0 1 0.50219
0 1 0.499001
0.444511 1 0.491035
1 1 0.473548
1 0.7953 0.444327
0 1 0.376333
0 1 0.376333
0 1 0.376333
0 1 0.376349
0 1 0.376379
0 1 0.37644
0 1 0.376623
0.428351 1 0.377096
1 1 0.378134
0 0 1
0 0 1
0 0 1
0 0 1
0.687907 0 1
1 0 1
1 0 1
1 0 1
1 0 0.748699
0 0 1
0 0 1
0 0 1
0 0 1
0.680888 0 1
1 0 1
1 0 1
1 0 1
1 0 0.748333
0 0.1122 1
0 0.105745 1
0 0.0872816 1
0 0.027039 1
0.662684 0 1
1 0 1
1 0 1
1 0 1
1 0 0.747372
0 0.365469 1
0 0.363546 1
0 0.358404 1
0 0.342992 1
0.61062 0.300633 1
1 0.191257 1
1 0 1
1 0 1
1 0 0.744518
0 0.659419 1
0 0.658122 1
0 0.654688 1
0 0.644617 1
0.473106 0.617899 1
1 0.55555 1
1 0.448386 1
1 0.108476 1
1 0 0.736645
0 0.999069 1
0 0.998169 1
0 0.995773 1
0 0.988693 1
0.00677501 0.969543 1
0.879744 0.922744 1
1 0.771527 1
1 0.492058 0.99675
1 0.0746014 0.716442
0 1 1
0 1 1
0 1 1
0 1 1
0 1 1
0.375814 1 1
0.999985 0.999969 0.999985
1 0.792004 0.854734
1 0.484215 0.669932
0 1 0.740353
0 1 0.740215
0 1 0.739864
0 1 0.738796
0 1 0.735836
0 1 0.727932
0.424918 1 0.707973
1 1 0.662898
1 0.792172 0.582971
0 1 0.49688
0 1 0.496864
0 1 0.496818
0 1 0.496666
0 1 0.496269
0 1 0.495186
0 1 0.492317
0.421393 1 0.484947
1 1 0.46804
0 0 1
0 0 1
0 0 1
0 0 1
0.276555 0 1
1 0 1
1 0 1
1 0 1
1 0 1
0 0.00561532 1
0 0.00277714 1
0 0 1
0 0 1
0.268482 0 1
1 0 1
1 0 1
1 0 1
1 0 1
0 0.148669 1
0 0.146593 1
0 0.141039 1
0 0.124086 1
0.246372 0.0723278 1
0.997986 0 1
1 0 1
1 0 1
1 0 1
0 0.350774 1
0 0.349615 1
0 0.346517 1
0 0.337423 1
0.172519 0.3131 1
0.96939 0.25655 1
1 0.173297 1
1 0 1
1 0 1
0 0.61941 1
0 0.618555 1
0 0.616297 1
0 0.609674 1
0 0.591989 1
0.895277 0.550759 1
1 0.444602 1
1 0.138262 1
1 0 1
0 0.949325 1
0 0.948638 1
0 0.946838 1
0 0.941497 1
0 0.927001 1
0.70341 0.862196 1
1 0.718044 1
1 0.477211 1
1 0.0910048 1
0 1 1
0 1 1
0 1 1
0 1 1
0 1 1
0.19057 1 1
0.911971 0.956024 1
1 0.768978 1
1 0.478752 0.987976
0 1 1
0 1 1
0 1 1
0 1 1
0 1 1
0 1 1
0.368185 1 1
0.999985 0.999969 0.999985
1 0.783597 0.849134
0 1 0.730404
0 1 0.730358
0 1 0.730251
0 1 0.729885
0 1 0.728878
0 1 0.726116
0 1 0.718746
0.401587 1 0.699687
1 1 0.654704
0 0.297246 1
0 0.29633 1
0 0.293904 1
0 0.286656 1
0 0.266499 1
0.458106 0.212512 1
1 0.0508583 1
1 0 1
1 0 1
0 0.309743 1
0 0.308843 1
0 0.306447 1
0 0.299321 1
0 0.279515 1
0.454704 0.226856 1
1 0.0738689 1
1 0 1
1 0 1
0 0.340429 1
0 0.339559 1
0 0.33724 1
0 0.330358 1
0 0.311299 1
0.445624 0.261234 1
1 0.127459 1
1 0 1
1 0 1
0 0.415961 1
0 0.415152 1
0 0.41297 1
0 0.4065 1
0 0.388678 1
0.418509 0.342733 1
1 0.230838 1
1 0 1
1 0 1
0 0.559319 1
0 0.558556 1
0 0.556542 1
0 0.550546 1
0 0.534081 1
0.34168 0.492088 1
1 0.394919 1
1 0.186999 1
1 0 1
0 0.762219 1
0 0.761563 1
0 0.759793 1
0 0.754559 1
0 0.740108 1
0.0746624 0.702983 1
0.946151 0.616419 1
1 0.444434 1
1 0.125933 1
0 0.967376 1
0 0.966903 1
0 0.965652 1
0 0.961898 1
0 0.951476 1
0 0.924041 1
0.690379 0.85687 1
1 0.7131 1
1 0.464393 1
0 1 1
0 1 1
0 1 1
0 1 1
0 1 1
0 1 1
0.164645 1 1
0.907561 0.953902 1
1 0.760128 1
0 1 1
0 1 1
0 1 1
0 1 1
0 1 1
0 1 1
0 1 1
0.340993 1 1
0.999985 0.999969 0.999985
