600nits_HDR-to-SDR.cube
TITLE "Generated by Resolve"
LUT_3D_SIZE 5
0 0 0
0.275624 0 0
0.893004 0 0
1 0 0.20798
1 0 0.449744
0 0.21442 0
0.205615 0.197238 0
0.866636 0 0
1 0 0.213535
1 0 0.449454
0 0.689952 0
0 0.682445 0
0.648508 0.629221 0
1 0.400778 0.259709
1 0 0.44712
0 1 0.376471
0 1 0.376883
0 1 0.380224
1 1 0.39826
1 0.536141 0.433219
0 1 0.376471
0 1 0.376516
0 1 0.376944
0 1 0.380102
1 1 0.39826
0 0 0.21561
0.267796 0 0.212039
0.890059 0 0.182666
1 0 0.274678
1 0 0.455802
0 0.213092 0.199435
0.195865 0.195865 0.195865
0.863722 0 0.166262
1 0 0.278004
1 0 0.455482
0 0.688853 0.0713359
0 0.681468 0.0781872
0.645792 0.628565 0.116487
1 0.400946 0.308888
1 0 0.452964
0 1 0.398779
0 1 0.399069
0 1 0.401328
1 1 0.413626
1 0.53611 0.437995
0 1 0.379278
0 1 0.379324
0 1 0.379751
0 1 0.382757
1 1 0.400183
0 0 0.755093
0.193835 0 0.751049
0.865568 0 0.718944
1 0 0.591546
1 0 0.503365
0 0.201984 0.742779
0.0928511 0.184329 0.738842
0.839323 0 0.707698
1 0 0.589029
1 0 0.502876
0 0.680598 0.647425
0 0.673777 0.644297
0.623285 0.62327 0.62327
1 0.402335 0.574609
1 0 0.499031
0 1 0.549661
0 1 0.549187
0 1 0.545419
1 1 0.523934
1 0.53579 0.475975
0 1 0.402029
0 1 0.40206
0 1 0.402335
0 1 0.404318
1 1 0.415885
0 0 1
0 0 1
0.671077 0 1
1 0 1
1 0 0.767483
0 0.108812 1
0 0.0841382 1
0.644938 0 1
1 0 1
1 0 0.766278
0 0.635569 1
0 0.630518 1
0.451987 0.59144 1
1 0.414145 1
1 0 0.756497
0 1 1
0 1 1
0 1 1
1 0.999969 0.999985
1 0.53344 0.696178
0 1 0.544213
0 1 0.544167
0 1 0.543709
0 1 0.540337
1 1 0.519799
0 0.2925 1
0 0.29189 1
0 0.287907 1
1 0.242542 1
1 0 1
0 0.336706 1
0 0.336004 1
0 0.331197 1
1 0.276371 1
1 0 1
0 0.569223 1
0 0.568185 1
0 0.560174 1
1 0.45951 1
1 0.0446479 1
0 0.969497 1
0 0.96788 1
0 0.95465 1
0.71458 0.866804 1
1 0.516716 1
0 1 1
0 1 1
0 1 1
0 1 1
0.999985 0.999969 0.999985
