600nits_HDR-to-SDR.cube
TITLE "Generated by Resolve"
LUT_3D_SIZE 33
0 0 0
0.0273899 0 0
0.0520485 0 0
0.0788434 0 0
0.110353 0 0
0.145235 0 0
0.184131 0 0
0.227451 0 0
0.275624 0 0
0.329107 0 0
0.388388 0 0
0.453971 0 0
0.526345 0 0
0.606012 0 0
0.693446 0 0
0.789014 0 0
0.893004 0 0
1 0 0
1 0 0
1 0 0
1 0 0
1 0 0.011902
1 0 0.0722362
1 0 0.141772
1 0 0.20798
1 0 0.274815
1 0 0.343511
1 0 0.414405
1 0 0.449744
1 0 0.449744
1 0 0.449744
1 0 0.449744
1 0 0.449744
0 0.018677 0
0.0176699 0.0166018 0
0.042298 0.0147555 0
0.0690471 0.0127413 0
0.101946 0.0101625 0
0.138293 0.00668345 0
0.178302 0.00202945 0
0.222507 0 0
0.271397 0 0
0.32546 0 0
0.385214 0 0
0.451164 0 0
0.523857 0 0
0.603784 0 0
0.691417 0 0
0.787137 0 0
0.891249 0 0
1 0 0
1 0 0
1 0 0
1 0 0
1 0 0.0122835
1 0 0.0727245
1 0 0.142199
1 0 0.208347
1 0 0.275135
1 0 0.343771
1 0 0.414618
1 0 0.449699
1 0 0.449699
1 0 0.449714
1 0 0.449729
1 0 0.449729
0 0.0354467 0
0.00892653 0.0333867 0
0.0335393 0.0315251 0
0.0602426 0.0294957 0
0.0940108 0.0269169 0
0.131807 0.0234226 0
0.172946 0.0187533 0
0.218006 0.0125429 0
0.267567 0.00434882 0
0.322164 0 0
0.38233 0 0
0.448646 0 0
0.521614 0 0
0.601755 0 0
0.68957 0 0
0.785443 0 0
0.889677 0 0
1 0 0
1 0 0
1 0 0
1 0 0
1 0 0.0126345
1 0 0.073167
1 0 0.14258
1 0 0.208682
1 0 0.27541
1 0 0.344015
1 0 0.414816
1 0 0.449638
1 0 0.449668
1 0 0.449683
1 0 0.449699
1 0 0.449714
0 0.0536355 0
0 0.0515602 0
0.024033 0.0496986 0
0.0507057 0.0476692 0
0.0849317 0.0450752 0
0.124544 0.0415808 0
0.166979 0.0368811 0
0.213016 0.0306554 0
0.26334 0.0224155 0
0.318547 0.0116426 0
0.379202 0 0
0.445884 0 0
0.519158 0 0
0.599557 0 0
0.687572 0 0
0.783612 0 0
0.887968 0 0
1 0 0
1 0 0
1 0 0
1 0 0
1 0 0.0130312
1 0 0.0736553
1 0 0.142992
1 0 0.209033
1 0 0.275731
1 0 0.344274
1 0 0.415045
1 0 0.449592
1 0 0.449622
1 0 0.449653
1 0 0.449683
1 0 0.449699
0 0.0767834 0
0 0.0746929 0
0.0119478 0.0728161 0
0.0385748 0.0707713 0
0.0725261 0.0681773 0
0.114839 0.0646525 0
0.159136 0.0599374 0
0.206531 0.0536812 0
0.257877 0.0454108 0
0.313878 0.0345769 0
0.375158 0.0204929 0
0.442359 0.00225834 0
0.51603 0 0
0.59675 0 0
0.685023 0 0
0.781262 0 0
0.885786 0 0
0.998703 0 0
1 0 0
1 0 0
1 0 0
1 0 0.0135348
1 0 0.0742657
1 0 0.143526
1 0 0.209491
1 0 0.276112
1 0 0.34461
1 0 0.41532
1 0 0.449516
1 0 0.449577
1 0 0.449607
1 0 0.449638
1 0 0.449668
0 0.106126 0
0 0.104326 0
0 0.102678 0
0.0222324 0.100877 0
0.0561074 0.098558 0
0.100862 0.0953536 0
0.148089 0.090959 0
0.197528 0.0849317 0
0.25037 0.0764019 0
0.3075 0.065507 0
0.369665 0.0513161 0
0.437552 0.0329747 0
0.511788 0.0093843 0
0.59295 0 0
0.681575 0 0
0.778088 0 0
0.882841 0 0
0.995941 0 0
1 0 0
1 0 0
1 0 0
1 0 0.0142061
1 0 0.0751202
1 0 0.144244
1 0 0.210117
1 0 0.276646
1 0 0.345052
1 0 0.415686
1 0 0.449424
1 0 0.4495
1 0 0.449561
1 0 0.449607
1 0 0.449638
0 0.138567 0
0 0.137057 0
0 0.135668 0
0.000396735 0.134157 0
0.034165 0.132219 0
0.0798199 0.12958 0
0.132326 0.125963 0
0.184939 0.121035 0
0.240009 0.114336 0
0.298772 0.105135 0
0.362188 0.0923476 0
0.431052 0.073991 0
0.50605 0.0502174 0
0.587823 0.019852 0
0.676921 0 0
0.773831 0 0
0.878874 0 0
0.992218 0 0
1 0 0
1 0 0
1 0 0
1 0 0.0151369
1 0 0.0762646
1 0 0.14522
1 0 0.210941
1 0 0.277363
1 0 0.345663
1 0 0.41619
1 0 0.449302
1 0 0.449409
1 0 0.449485
1 0 0.449546
1 0 0.449592
0 0.174563 0
0 0.173281 0
0 0.172107 0
0 0.170825 0
0.00514229 0.169192 0
0.0506142 0.166964 0
0.109178 0.163928 0
0.167163 0.159838 0
0.225666 0.154314 0
0.28687 0.146838 0
0.352071 0.136675 0
0.422309 0.122683 0
0.49836 0.102907 0
0.580957 0.0735332 0
0.670726 0.0345922 0
0.768154 0 0
0.87361 0 0
0.987274 0 0
1 0 0
1 0 0
1 0 0
1 0 0.0163882
1 0 0.0778363
1 0 0.146517
1 0 0.212055
1 0 0.278309
1 0 0.346456
1 0 0.416861
1 0 0.449134
1 0 0.449271
1 0 0.449378
1 0 0.44947
1 0 0.449531
0 0.21442 0
0 0.213306 0
0 0.212299 0
0 0.211215 0
0 0.209812 0
0.0123445 0.207919 0
0.0729686 0.205341 0
0.14139 0.201877 0
0.205615 0.197238 0
0.270527 0.191012 0
0.338369 0.18265 0
0.410544 0.171374 0
0.48809 0.155978 0
0.571847 0.134478 0
0.662501 0.103105 0
0.760632 0.0547189 0
0.866636 0 0
0.980743 0 0
1 0 0
1 0 0
1 0 0
1 0 0.0180819
1 0 0.0799268
1 0 0.148241
1 0 0.213535
1 0 0.279576
1 0 0.347524
1 0 0.417762
1 0 0.448905
1 0 0.449104
1 0 0.449256
1 0 0.449363
1 0 0.449454
0 0.258381 0
0 0.257435 0
0 0.256565 0
0 0.255619 0
0 0.254414 0
0 0.252766 0
0.0228275 0.250568 0
0.101732 0.247593 0
0.176867 0.243626 0
0.247898 0.238346 0
0.319738 0.231312 0
0.394766 0.221942 0
0.474403 0.209369 0
0.559762 0.19234 0
0.651652 0.168811 0
0.750729 0.134981 0
0.857496 0.081651 0
0.972183 0.00315862 0
1 0 0
1 0 0
1 0 0
1 0 0.0203861
1 0 0.0829938
1 0 0.15053
1 0 0.215473
1 0 0.281224
1 0 0.348928
1 0 0.418921
1 0 0.448631
1 0 0.448875
1 0 0.449088
1 0 0.449241
1 0 0.449363
0 0.306737 0
0 0.305898 0
0 0.305135 0
0 0.304326 0
0 0.303273 0
0 0.301839 0
0 0.299916 0
0.037644 0.297337 0
0.133318 0.293904 0
0.215778 0.289357 0
0.294148 0.28333 0
0.37348 0.275364 0
0.456168 0.26479 0
0.54377 0.250721 0
0.637369 0.2318 0
0.737758 0.205905 0
0.845533 0.169177 0
0.961013 0.112703 0
1 0.0178225 0
1 0 0
1 0 0
1 0 0.0235142
1 0 0.086717
1 0 0.153521
1 0 0.218021
1 0 0.283406
1 0 0.350759
1 0 0.420462
1 0 0.448249
1 0 0.448585
1 0 0.448859
1 0 0.449058
1 0 0.449226
0 0.35967 0
0 0.358938 0
0 0.358267 0
0 0.357549 0
0 0.356619 0
0 0.355367 0
0 0.353674 0
0 0.351415 0
0.0579538 0.348409 0
0.167819 0.344427 0
0.258213 0.339178 0
0.344488 0.33228 0
0.431785 0.323201 0
0.522652 0.311238 0
0.618647 0.295415 0
0.720836 0.274296 0
0.829984 0.245655 0
0.946517 0.205524 0
1 0.145174 0
1 0.0941482 0
1 0.0087892 0
1 0 0.0278019
1 0 0.0915999
1 0 0.157458
1 0 0.221347
1 0 0.286229
1 0 0.353155
1 0 0.422446
1 0 0.447776
1 0 0.448218
1 0 0.448569
1 0 0.448844
1 0 0.449058
0 0.417334 0
0 0.416678 0
0 0.416083 0
0 0.415442 0
0 0.414618 0
0 0.413504 0
0 0.411994 0
0 0.409995 0
0 0.407324 0
0.085359 0.403815 0
0.20528 0.399191 0
0.304189 0.393118 0
0.398886 0.385183 0
0.494636 0.374792 0
0.594095 0.361196 0
0.698817 0.343313 0
0.809842 0.319631 0
0.92781 0.2878 0
1 0.254017 0
1 0.214755 0
1 0.161028 0
1 0.0835737 0.0336767
1 0 0.0979782
1 0 0.1626
1 0 0.225681
1 0 0.289906
1 0 0.356252
1 0 0.425025
1 0 0.44715
1 0 0.44773
1 0 0.448188
1 0 0.448554
1 0 0.448829
0 0.479774 0
0 0.479179 0
0 0.478645 0
0 0.478065 0
0 0.477317 0
0 0.476326 0
0 0.474968 0
0 0.473167 0
0 0.470787 0
0 0.467643 0
0.116686 0.463508 0
0.24564 0.458106 0
0.353613 0.451057 0
0.457191 0.441886 0
0.561822 0.429953 0
0.670176 0.41442 0
0.783856 0.394141 0
0.900435 0.369512 0
1 0.343893 0
1 0.310933 0
1 0.270451 0
1 0.22089 0.0418402
1 0.159655 0.106264
1 0.0803693 0.169268
1 0 0.231312
1 0 0.294667
1 0 0.36025
1 0.0197604 0.428367
1 0 0.446372
1 0 0.44712
1 0 0.447715
1 0 0.448173
1 0 0.448539
0 0.546853 0
0 0.546319 0
0 0.54583 0
0 0.545312 0
0 0.54464 0
0 0.543725 0
0 0.542504 0
0 0.540871 0
0 0.53872 0
0 0.535882 0
0 0.532143 0
0.149981 0.527291 0
0.288716 0.520958 0
0.406241 0.512734 0
0.519112 0.502098 0
0.632898 0.488334 0
0.746654 0.471641 0
0.862562 0.452049 0
0.983078 0.428305 0
1 0.399756 0
1 0.365774 0.00195315
1 0.325872 0.0532387
1 0.280049 0.116945
1 0.229267 0.177905
1 0.177066 0.23856
1 0.13312 0.300786
1 0.117922 0.365408
1 0.149905 0.432654
1 0.0792554 0.44538
1 0 0.446342
1 0 0.447105
1 0 0.4477
1 0 0.448173
0 0.618311 0
0 0.617823 0
0 0.61738 0
0 0.616892 0
0 0.616281 0
0 0.615442 0
0 0.614328 0
0 0.612848 0
0 0.61088 0
0 0.608286 0
0 0.604898 0
0 0.600473 0
0.185077 0.59472 0
0.335195 0.586999 0
0.463447 0.576532 0
0.582696 0.564553 0
0.701045 0.550088 0
0.821363 0.53254 0
0.944869 0.511376 0
1 0.48603 0
1 0.456107 0.0162966
1 0.421393 0.0692149
1 0.382239 0.130617
1 0.339895 0.189014
1 0.297459 0.247852
1 0.261097 0.308644
1 0.241001 0.371984
1 0.248737 0.438132
1 0.176654 0.444144
1 0.0818189 0.44535
1 0 0.446326
1 0 0.447105
1 0 0.447715
0 0.689952 0
0 0.689433 0
0 0.688975 0
0 0.688472 0
0 0.687846 0
0 0.687007 0
0 0.685878 0
0 0.684382 0
0 0.682445 0
0 0.679927 0
0 0.676692 0
0 0.672541 0
0.0247349 0.667292 0
0.249683 0.660655 0
0.395178 0.652354 0
0.524086 0.642008 0
0.648508 0.629221 0
0.772961 0.613535 0
0.899504 0.594476 0
1 0.571618 0
1 0.544579 0.0369879
1 0.513222 0.0915999
1 0.477882 0.147875
1 0.439597 0.203143
1 0.400778 0.259709
1 0.365789 0.318639
1 0.341543 0.380392
1 0.331167 0.440757
1 0.25687 0.442603
1 0.177401 0.444129
1 0.0817121 0.44535
1 0 0.446342
1 0 0.44712
0 0.762127 0
0 0.761715 0
0 0.761349 0
0 0.760937 0
0 0.760433 0
0 0.759747 0
0 0.758831 0
0 0.75761 0
0 0.755993 0
0 0.753887 0
0 0.751141 0
0 0.7476 0
0 0.743069 0
0.100877 0.737285 0
0.305135 0.729961 0
0.452125 0.720775 0
0.585702 0.709316 0
0.715648 0.695171 0
0.845792 0.677897 0
0.977737 0.657038 0.0231632
1 0.632258 0.0667582
1 0.603372 0.11873
1 0.570611 0.16939
1 0.534768 0.220966
1 0.497673 0.274723
1 0.462638 0.331304
1 0.434806 0.391028
1 0.404532 0.438468
1 0.33164 0.440742
1 0.256794 0.442603
1 0.176501 0.444144
1 0.0790417 0.44538
1 0 0.446372
0 0.83682 0
0 0.836454 0
0 0.836133 0
0 0.835782 0
0 0.83534 0
0 0.834745 0
0 0.833936 0
0 0.832868 0
0 0.831449 0
0 0.829587 0
0 0.827176 0
0 0.824048 0
0 0.82002 0
0 0.814878 0
0.170382 0.808331 0
0.360662 0.800092 0
0.50988 0.789761 0
0.647883 0.776944 0.00190738
0.782773 0.761196 0.0290532
0.917784 0.742077 0.0640879
1 0.719203 0.107195
1 0.692348 0.15079
1 0.661616 0.195758
1 0.627543 0.243122
1 0.591516 0.293492
1 0.556069 0.347204
1 0.525277 0.404425
1 0.477058 0.435767
1 0.40441 0.438483
1 0.330953 0.440757
1 0.25536 0.442649
1 0.173999 0.44419
1 0.0743267 0.445426
0 0.91162 0
0 0.911315 0
0 0.911025 0
0 0.910719 0
0 0.910323 0
0 0.909789 0
0 0.909072 0
0 0.90811 0
0 0.906859 0
0 0.905211 0
0 0.903059 0
0 0.900267 0
0 0.896666 0
0 0.892073 0
0 0.886198 0.00622568
0.235325 0.878782 0.0194247
0.417151 0.869459 0.0364538
0.568093 0.857832 0.0583505
0.709636 0.843473 0.086656
0.848493 0.825956 0.118227
0.987228 0.804837 0.151888
1 0.779858 0.188159
1 0.750942 0.227497
1 0.718441 0.270237
1 0.68336 0.31667
1 0.647639 0.366949
1 0.614527 0.421149
1 0.54905 0.432624
1 0.476463 0.435798
1 0.403265 0.438514
1 0.329091 0.440803
1 0.252598 0.44271
1 0.169863 0.444251
0 0.984726 0.0411383
0 0.984451 0.0416724
0 0.984192 0.0421454
0 0.983917 0.0426795
0 0.983566 0.0433509
0 0.983093 0.0442512
0 0.982467 0.0454719
0 0.981613 0.0470893
0 0.980499 0.0492409
0 0.979034 0.052079
0 0.977111 0.055787
0 0.97464 0.0606394
0 0.971435 0.0669261
0 0.967315 0.0750896
0 0.962081 0.0858015
0.000183108 0.955428 0.0984512
0.299519 0.947036 0.113405
0.474449 0.936538 0.130877
0.626017 0.923506 0.151125
0.769909 0.907515 0.174395
0.911421 0.888136 0.200961
1 0.864988 0.231067
1 0.837919 0.264942
1 0.807065 0.302831
1 0.773114 0.344884
1 0.737514 0.391196
1 0.690547 0.424994
1 0.620203 0.429038
1 0.548104 0.43267
1 0.474968 0.435859
1 0.401053 0.43859
1 0.326055 0.440894
1 0.248478 0.442786
0 1 0.140475
0 1 0.140856
0 1 0.141207
0 1 0.141573
0 1 0.142046
0 1 0.142687
0 1 0.143557
0 1 0.144686
0 1 0.146181
0 1 0.14815
0 1 0.150683
0 1 0.153933
0 1 0.158083
0 1 0.163348
0 1 0.169955
0 1 0.178164
0.125841 1 0.188312
0.364034 1 0.200687
0.532097 0.999817 0.215641
0.682872 0.985367 0.233539
0.827604 0.967742 0.254734
0.970306 0.946517 0.279545
1 0.921431 0.308293
1 0.89247 0.341238
1 0.859998 0.378607
1 0.82211 0.416052
1 0.7579 0.420645
1 0.689876 0.42504
1 0.619043 0.429099
1 0.546365 0.432746
1 0.472526 0.43595
1 0.397818 0.438697
1 0.321859 0.441001
0 1 0.227695
0 1 0.227939
0 1 0.228183
0 1 0.228428
0 1 0.228748
0 1 0.229175
0 1 0.229755
0 1 0.230533
0 1 0.231556
0 1 0.232883
0 1 0.234623
0 1 0.236881
0 1 0.23978
0 1 0.243473
0 1 0.248188
0 1 0.254124
0 1 0.26157
0.229557 1 0.270832
0.429206 1 0.282261
0.589685 1 0.296254
0.738018 1 0.313176
0.88191 1 0.333455
1 1 0.357488
1 0.973266 0.385626
1 0.935592 0.406775
1 0.881422 0.411383
1 0.821698 0.416083
1 0.757107 0.420706
1 0.688579 0.425116
1 0.617182 0.429191
1 0.543786 0.432868
1 0.469139 0.436088
1 0.393515 0.438849
0 1 0.310582
0 1 0.310765
0 1 0.310933
0 1 0.311116
0 1 0.31136
0 1 0.311666
0 1 0.312093
0 1 0.312657
0 1 0.31339
0 1 0.314366
0 1 0.315648
0 1 0.317296
0 1 0.319432
0 1 0.322164
0 1 0.325673
0 1 0.330129
0 1 0.33576
0.0337072 1 0.34284
0.321035 1 0.351675
0.494987 1 0.362631
0.646799 1 0.376104
0.790112 1 0.391318
0.921157 1 0.394568
1 1 0.39826
1 0.983703 0.402365
1 0.935424 0.40679
1 0.881041 0.411429
1 0.820935 0.416144
1 0.755856 0.420783
1 0.686748 0.425223
1 0.614603 0.429328
1 0.540383 0.433021
1 0.46482 0.436255
0 1 0.376471
0 1 0.376486
0 1 0.376516
0 1 0.376547
0 1 0.376577
0 1 0.376623
0 1 0.376684
0 1 0.376776
0 1 0.376883
0 1 0.377035
0 1 0.377218
0 1 0.377478
0 1 0.377798
0 1 0.378195
0 1 0.378729
0 1 0.379385
0 1 0.380224
0 1 0.381277
0.140215 1 0.382589
0.357305 1 0.384207
0.514748 1 0.38616
0.655756 1 0.388525
0.790021 1 0.391318
0.921035 1 0.394568
1 1 0.39826
1 0.983612 0.402365
1 0.935134 0.406806
1 0.8804 0.411475
1 0.819821 0.41622
1 0.754162 0.420905
1 0.684306 0.425376
1 0.611307 0.429511
1 0.536141 0.433219
0 1 0.376471
0 1 0.376486
0 1 0.376501
0 1 0.376532
0 1 0.376562
0 1 0.376593
0 1 0.376638
0 1 0.376699
0 1 0.376791
0 1 0.376913
0 1 0.37705
0 1 0.377249
0 1 0.377493
0 1 0.377813
0 1 0.378225
0 1 0.378744
0 1 0.379416
0 1 0.380255
0 1 0.381292
0.142473 1 0.382605
0.357733 1 0.384207
0.514641 1 0.38616
0.655344 1 0.388525
0.789593 1 0.391318
0.920745 1 0.394568
1 1 0.39826
1 0.983444 0.40238
1 0.934661 0.406851
1 0.879499 0.411551
1 0.818372 0.416327
1 0.751965 0.421057
1 0.681239 0.425559
1 0.607263 0.429725
0 1 0.376471
0 1 0.376486
0 1 0.376501
0 1 0.376516
0 1 0.376532
0 1 0.376562
0 1 0.376608
0 1 0.376654
0 1 0.376715
0 1 0.376806
0 1 0.376928
0 1 0.377066
0 1 0.377264
0 1 0.377508
0 1 0.377829
0 1 0.378241
0 1 0.378775
0 1 0.379431
0 1 0.380255
0 1 0.381308
0.142107 1 0.382605
0.356954 1 0.384207
0.513664 1 0.386145
0.654398 1 0.388495
0.788815 1 0.391287
0.920256 1 0.394553
1 1 0.39826
1 0.9832 0.402411
1 0.934051 0.406912
1 0.87837 0.411643
1 0.816526 0.416464
1 0.749264 0.421241
1 0.677531 0.425772
0 1 0.376471
0 1 0.376486
0 1 0.376486
0 1 0.376501
0 1 0.376516
0 1 0.376547
0 1 0.376577
0 1 0.376608
0 1 0.376654
