600nits_HDR-to-SDR.cube
TITLE "Generated by Resolve"
LUT_3D_SIZE 9
0 0 0
0.110353 0 0
0.275624 0 0
0.526345 0 0
0.893004 0 0
1 0 0
1 0 0.20798
1 0 0.449744
1 0 0.449744
0 0.0767834 0
0.0725261 0.0681773 0
0.257877 0.0454108 0
0.51603 0 0
0.885786 0 0
1 0 0
1 0 0.209491
1 0 0.449516
1 0 0.449668
0 0.21442 0
0 0.209812 0
0.205615 0.197238 0
0.48809 0.155978 0
0.866636 0 0
1 0 0
1 0 0.213535
1 0 0.448905
1 0 0.449454
0 0.417334 0
0 0.414618 0
0 0.407324 0
0.398886 0.385183 0
0.809842 0.319631 0
1 0.161028 0
1 0 0.225681
1 0 0.44715
1 0 0.448829
0 0.689952 0
0 0.687846 0
0 0.682445 0
0.0247349 0.667292 0
0.648508 0.629221 0
1 0.544579 0.0369879
1 0.400778 0.259709
1 0.25687 0.442603
1 0 0.44712
0 0.984726 0.0411383
0 0.983566 0.0433509
0 0.980499 0.0492409
0 0.971435 0.0669261
0.299519 0.947036 0.113405
0.911421 0.888136 0.200961
1 0.773114 0.344884
1 0.548104 0.43267
1 0.248478 0.442786
0 1 0.376471
0 1 0.376577
0 1 0.376883
0 1 0.377798
0 1 0.380224
0.514748 1 0.38616
1 1 0.39826
1 0.819821 0.41622
1 0.536141 0.433219
0 1 0.376471
0 1 0.376501
0 1 0.376623
0 1 0.376944
0 1 0.377859
0 1 0.380255
0.509239 1 0.386084
1 1 0.39826
1 0.811719 0.416831
0 1 0.376471
0 1 0.376486
0 1 0.376516
0 1 0.376638
0 1 0.376944
0 1 0.377813
0 1 0.380102
0.489967 1 0.385809
1 1 0.39826
0 0 0.0762646
0.106126 0 0.0748302
0.273503 0 0.0710765
0.525139 0 0.06009
0.892195 0 0.0311589
1 0 0.0235599
1 0 0.227848
1 0 0.454536
1 0 0.451408
0 0.076173 0.0689708
0.0675669 0.0675669 0.0675669
0.255665 0.044831 0.0638743
0.514809 0 0.0530861
0.884993 0 0.0246891
1 0 0.0250858
1 0 0.22916
1 0 0.454292
1 0 0.451331
0 0.214054 0.0499428
0 0.209445 0.0486152
0.202991 0.196857 0.0451209
0.486839 0.155566 0.0348516
0.865843 0 0.00779736
1 0 0.0286564
1 0 0.232654
1 0 0.453651
1 0 0.451118
0 0.417075 0
0 0.414359 0
0 0.407065 0
0.397467 0.384924 0
0.809049 0.319371 0
1 0.161059 0.0392767
1 0 0.24332
1 0 0.451789
1 0 0.450477
0 0.689647 0
0 0.687556 0
0 0.68217 0
0.0215152 0.667048 0
0.647761 0.629038 0
1 0.544488 0.0843366
1 0.400824 0.27393
1 0.256916 0.446967
1 0 0.448722
0 0.984543 0.0825208
0 0.983398 0.0846265
0 0.980316 0.0900893
0 0.971252 0.105425
0.298756 0.946883 0.142473
0.91107 0.888014 0.218799
1 0.773053 0.353536
1 0.548074 0.436423
1 0.248493 0.444297
0 1 0.382681
0 1 0.382788
0 1 0.383062
0 1 0.383886
0 1 0.386099
0.514488 1 0.391485
1 1 0.402518
1 0.819776 0.418936
1 0.536126 0.434531
0 1 0.378698
0 1 0.378729
0 1 0.378836
0 1 0.379156
0 1 0.380041
0 1 0.382345
0.509148 1 0.387991
1 1 0.399786
1 0.811704 0.417777
0 1 0.377234
0 1 0.377249
0 1 0.377279
0 1 0.377401
0 1 0.377707
0 1 0.378576
0 1 0.380819
0.489937 1 0.386481
1 1 0.398795
0 0 0.21561
0.0942855 0 0.214633
0.267796 0 0.212039
0.521889 0 0.204303
0.890059 0 0.182666
1 0 0.160739
1 0 0.274678
1 0 0.467063
1 0 0.455802
0 0.0745556 0.211231
0.0543526 0.0659648 0.210254
0.249668 0.0432746 0.20766
0.511543 0 0.199908
0.882856 0 0.178241
1 0 0.160784
1 0 0.275563
1 0 0.466789
1 0 0.455711
0 0.213092 0.199435
0 0.208484 0.198459
0.195865 0.195865 0.195865
0.483467 0.154452 0.188098
0.863722 0 0.166262
1 0 0.160815
1 0 0.278004
1 0 0.466056
1 0 0.455482
0 0.416358 0.162753
0 0.413642 0.161746
0 0.406348 0.159091
0.393668 0.384207 0.151064
0.806943 0.318654 0.128176
1 0.161166 0.161868
1 0 0.285618
1 0 0.46392
1 0 0.45481
0 0.688853 0.0713359
0 0.686793 0.0733501
0 0.681468 0.0781872
0.0129549 0.666438 0.0903334
0.645792 0.628565 0.116487
1 0.544244 0.177478
1 0.400946 0.308888
1 0.257023 0.458396
1 0 0.452964
0 0.98407 0.166705
0 0.98291 0.167895
0 0.979843 0.171038
0 0.970794 0.180209
0.296742 0.946456 0.20441
0.910109 0.887694 0.261173
1 0.772931 0.375662
1 0.547982 0.446265
1 0.248539 0.44831
0 1 0.398779
0 1 0.398856
0 1 0.399069
0 1 0.39968
0 1 0.401328
0.513787 1 0.405356
1 1 0.413626
1 0.819654 0.426062
1 0.53611 0.437995
0 1 0.384573
0 1 0.384604
0 1 0.38471
0 1 0.384985
0 1 0.385794
0 1 0.3879
0.508888 1 0.393042
1 1 0.403815
1 0.811658 0.420294
0 1 0.379278
0 1 0.379294
0 1 0.379324
0 1 0.379431
0 1 0.379751
0 1 0.380575
0 1 0.382757
0.489845 1 0.388235
1 1 0.400183
0 0 0.429709
0.0547494 0 0.428794
0.25008 0 0.426383
0.512108 0 0.419211
0.883665 0 0.399756
1 0 0.362799
1 0 0.384024
1 0 0.502678
1 0 0.468727
0 0.0697185 0.426383
0.0149233 0.0611887 0.425483
0.230961 0.0386206 0.423072
0.501656 0 0.415961
0.876463 0 0.396643
1 0 0.361517
1 0 0.384207
1 0 0.502312
1 0 0.468635
0 0.210193 0.417578
0 0.20557 0.416693
0.17322 0.192874 0.414343
0.473274 0.151095 0.40737
0.857359 0 0.388388
1 0 0.358267
1 0 0.384771
1 0 0.50132
1 0 0.46836
0 0.414237 0.391775
0 0.411505 0.390936
0 0.404227 0.388708
0.382101 0.382101 0.382101
0.80061 0.316533 0.364065
1 0.161486 0.35024
1 0 0.386969
1 0 0.498436
1 0 0.467597
0 0.68658 0.331273
0 0.684581 0.331228
0 0.679377 0.33109
0 0.664591 0.330632
0.639902 0.627146 0.330449
1 0.543511 0.339544
1 0.401297 0.396353
1 0.257359 0.49099
1 0 0.465476
0 0.98262 0.316899
0 0.98146 0.317357
0 0.978424 0.318563
0 0.969421 0.322225
0.290639 0.94522 0.332662
0.907225 0.886763 0.361471
1 0.772534 0.43537
1 0.547738 0.47451
1 0.248661 0.460136
0 1 0.443534
0 1 0.443534
0 1 0.443565
0 1 0.443626
0 1 0.443824
0.511681 1 0.444297
1 1 0.445274
1 0.819257 0.446769
1 0.536019 0.448249
0 1 0.401694
0 1 0.401724
0 1 0.401785
0 1 0.401999
0 1 0.402579
0 1 0.404089
0.508141 1 0.407813
1 1 0.415656
1 0.811521 0.427771
0 1 0.385351
0 1 0.385367
0 1 0.385397
0 1 0.385504
0 1 0.385779
0 1 0.386526
0 1 0.38851
0.489586 1 0.393484
1 1 0.404349
0 0 0.755093
0 0 0.753994
0.193835 0 0.751049
0.483833 0 0.742367
0.865568 0 0.718944
1 0 0.65742
1 0 0.591546
1 0 0.59089
1 0 0.503365
0 0.0562905 0.751705
0 0.0478828 0.750607
0.170443 0.0256809 0.747692
0.473045 0 0.739071
0.858381 0 0.715846
1 0 0.654887
1 0 0.590845
1 0 0.590295
1 0 0.503227
0 0.201984 0.742779
0 0.197269 0.741695
0.0928511 0.184329 0.738842
0.443687 0.141466 0.730434
0.839323 0 0.707698
1 0 0.648478
1 0 0.589029
1 0 0.588739
1 0 0.502876
0 0.40824 0.716991
0 0.405524 0.715984
0 0.39826 0.713314
0.347951 0.37615 0.705425
0.78265 0.310521 0.684092
1 0.162478 0.631525
1 0 0.584176
1 0 0.584207
1 0 0.501854
0 0.680598 0.647425
0 0.678706 0.646555
0 0.673777 0.644297
0 0.659617 0.638041
0.623285 0.62327 0.62327
1 0.541527 0.596338
1 0.402335 0.574609
1 0.258289 0.572381
1 0 0.499031
0 0.978576 0.55758
0 0.977447 0.557473
0 0.974441 0.557198
0 0.965591 0.55642
0.272999 0.941741 0.554849
0.899107 0.884123 0.554269
1 0.771466 0.570123
1 0.547036 0.545983
1 0.249012 0.491905
0 1 0.549661
0 1 0.549538
0 1 0.549187
0 1 0.54818
0 1 0.545419
0.50573 1 0.538567
1 1 0.523934
1 0.818158 0.50045
1 0.53579 0.475975
0 1 0.446479
0 1 0.446479
0 1 0.446479
0 1 0.446494
0 1 0.446525
0 1 0.446632
0.506004 1 0.446876
1 1 0.447395
1 0.811139 0.448203
0 1 0.402029
0 1 0.402029
0 1 0.40206
0 1 0.402136
0 1 0.402335
0 1 0.402869
0 1 0.404318
0.488838 1 0.407935
1 1 0.415885
0 0 1
0 0 1
0 0 1
0.399741 0 1
0.815641 0 1
1 0 1
1 0 0.935714
1 0 0.777996
1 0 0.587411
0 0.0209201 1
0 0.0128786 1
0 0 1
0.387625 0 1
0.808499 0 1
1 0 1
1 0 0.933974
1 0 0.77702
1 0 0.587213
0 0.178882 1
0 0.173892 1
0 0.160143 1
0.354116 0.113481 1
0.789517 0 1
1 0 1
1 0 0.929427
1 0 0.774456
1 0 0.586679
0 0.391989 1
0 0.389288 1
0 0.38204 1
0.236927 0.359991 1
0.729351 0.300114 1
1 0.165988 1
1 0 0.916472
1 0 0.766934
1 0 0.585092
0 0.66627 1
0 0.664576 1
0 0.660121 1
0 0.647181 1
0.577844 0.613428 1
1 0.536507 0.986847
1 0.40528 0.884871
1 0.260777 0.747265
1 0 0.580728
0 0.967849 0.926192
0 0.966766 0.925582
0 0.963897 0.923949
0 0.955398 0.919173
0.220706 0.932525 0.906508
0.87715 0.87715 0.87715
1 0.768612 0.826322
1 0.545129 0.702632
1 0.249973 0.569635
0 1 0.762524
0 1 0.762173
0 1 0.761273
0 1 0.758572
0 1 0.751202
0.489372 1 0.732662
1 1 0.692012
1 0.815137 0.622965
1 0.535164 0.54461
0 1 0.550317
0 1 0.550271
0 1 0.550149
0 1 0.549783
0 1 0.54876
0 1 0.546029
0.500114 1 0.539254
1 1 0.524437
1 0.810086 0.499962
0 1 0.444648
0 1 0.444648
0 1 0.444648
0 1 0.444663
0 1 0.444678
0 1 0.444739
0 1 0.444877
0.486763 1 0.445243
1 1 0.446067
0 0 1
0 0 1
0 0 1
0 0 1
0.671077 0 1
1 0 1
1 0 1
1 0 1
1 0 0.767483
0 0 1
0 0 1
0 0 1
0 0 1
0.663813 0 1
1 0 1
1 0 1
1 0 1
1 0 0.767147
0 0.108812 1
0 0.102419 1
0 0.0841382 1
0 0.0259251 1
0.644938 0 1
1 0 1
1 0 1
1 0 1
1 0 0.766278
0 0.355947 1
0 0.353964 1
0 0.348669 1
0 0.332876 1
0.591302 0.289754 1
1 0.180377 1
1 0 1
1 0 1
1 0 0.763668
0 0.635569 1
0 0.63418 1
0 0.630518 1
0 0.619806 1
0.451987 0.59144 1
1 0.525795 1
1 0.414145 1
1 0.267155 1
1 0 0.756497
0 0.941131 1
0 0.940169 1
0 0.937591 1
0 0.930007 1
0.00596628 0.909514 1
0.819379 0.859724 1
1 0.761715 1
1 0.540108 0.996963
1 0.252552 0.738155
0 1 1
0 1 1
0 1 1
0 1 1
0 1 1
0.444236 1 1
1 0.999969 0.999985
1 0.807065 0.864836
1 0.53344 0.696178
0 1 0.759869
0 1 0.759762
0 1 0.759426
0 1 0.758465
0 1 0.755764
0 1 0.748577
0.483925 1 0.73048
1 1 0.68986
1 0.807233 0.61883
0 1 0.544213
0 1 0.544198
0 1 0.544167
0 1 0.544045
0 1 0.543709
0 1 0.542779
0 1 0.540337
0.481041 1 0.534066
1 1 0.519799
0 0 1
0 0 1
0 0 1
0 0 1
0.26154 0 1
0.958251 0 1
1 0 1
1 0 1
1 0 1
0 0.00518807 1
0 0.00256352 1
0 0 1
0 0 1
0.253651 0 1
0.95436 0 1
1 0 1
1 0 1
1 0 1
0 0.139666 1
0 0.137636 1
0 0.132189 1
0 0.115602 1
0.232105 0.0658579 1
0.944152 0 1
1 0 1
1 0 1
1 0 1
0 0.333074 1
0 0.331884 1
0 0.328756 1
0 0.319524 1
0.160555 0.294957 1
0.914519 0.2383 1
1 0.162753 1
1 0.0417945 1
1 0 1
0 0.585626 1
0 0.584726 1
0 0.582361 1
0 0.575372 1
0 0.556786 1
0.838407 0.513588 1
1 0.442588 1
1 0.281941 1
1 0 1
0 0.883589 1
0 0.882872 1
0 0.880949 1
0 0.875288 1
0 0.859968 1
0.674693 0.822553 1
1 0.739605 1
1 0.52752 1
1 0.259297 1
0 1 1
0 1 1
0 1 1
0 1 1
0 1 1
0.311727 1 1
0.917876 0.958907 1
1 0.785992 1
1 0.528817 0.988754
0 1 1
0 1 1
0 1 1
0 1 1
0 1 1
0 1 1
0.438193 1 1
1 0.999969 0.999985
1 0.799359 0.859663
0 1 0.750835
0 1 0.75079
0 1 0.750683
0 1 0.750362
0 1 0.749432
0 1 0.746929
0 1 0.740246
0.464897 1 0.722988
1 1 0.682521
0 0.2925 1
0 0.292332 1
0 0.29189 1
0 0.290654 1
0 0.287907 1
0.483146 0.285328 1
1 0.242542 1
1 0.0573739 1
1 0 1
0 0.305257 1
0 0.305074 1
0 0.304616 1
0 0.303319 1
0 0.300389 1
0.4813 0.297169 1
1 0.252247 1
1 0.0711223 1
1 0 1
0 0.336706 1
0 0.336507 1
0 0.336004 1
0 0.334585 1
0 0.331197 1
0.476432 0.326467 1
1 0.276371 1
1 0.105776 1
1 0 1
0 0.415152 1
0 0.414923 1
0 0.414313 1
0 0.412589 1
0 0.408255 1
0.462303 0.400259 1
1 0.337438 1
1 0.180392 1
1 0 1
0 0.569223 1
0 0.568933 1
0 0.568185 1
0 0.565972 1
0 0.560174 1
0.417517 0.540139 1
1 0.45951 1
1 0.309545 1
1 0.0446479 1
0 0.779812 1
0 0.779202 1
0 0.7776 1
0 0.772808 1
0 0.759655 1
0.252598 0.725963 1
0.949691 0.648386 1
1 0.500053 1
1 0.275608 1
0 0.969497 1
0 0.969055 1
0 0.96788 1
0 0.964385 1
0 0.95465 1
0 0.929091 1
0.71458 0.866804 1
1 0.735134 1
1 0.516716 1
0 1 1
0 1 1
0 1 1
0 1 1
0 1 1
0 1 1
0.296422 1 1
0.913787 0.956909 1
1 0.777905 1
0 1 1
0 1 1
0 1 1
0 1 1
0 1 1
0 1 1
0 1 1
0.416999 1 1
0.999985 0.999969 0.999985
