800nits_HDR-to-SDR.cube
TITLE "Generated by Resolve"
LUT_3D_SIZE 9
0 0 0
0.110567 0 0
0.275837 0 0
0.525948 0 0
0.88922 0 0
1 0 0
1 0 0.200793
1 0 0.465217
1 0 0.497627
0 0.0769055 0
0.0726329 0.0682689 0
0.257954 0.0454261 0
0.515404 0 0
0.881697 0 0
1 0 0
1 0 0.202228
1 0 0.465919
1 0 0.497551
0 0.214313 0
0 0.209674 0
0.205356 0.196979 0
0.486915 0.155459 0
0.861784 0 0
1 0 0
1 0 0.206058
1 0 0.467781
1 0 0.497368
0 0.415671 0
0 0.412879 0
0 0.405432 0
0.396506 0.382864 0
0.803006 0.316487 0
1 0.157443 0
1 0 0.217578
1 0.0621195 0.473335
1 0 0.496849
0 0.681941 0
0 0.679789 0
0 0.67422 0
0.0241093 0.65861 0
0.638468 0.61944 0
1 0.532753 0.0354925
1 0.387015 0.249836
1 0.339803 0.488731
1 0.140734 0.495384
0 0.960464 0.0391089
0 0.959274 0.0412146
0 0.9561 0.0468147
0 0.946777 0.0635538
0.28986 0.921691 0.108248
0.884047 0.861387 0.192844
1 0.744396 0.330266
1 0.5832 0.483116
1 0.337682 0.491707
0 1 0.374456
0 1 0.37499
0 1 0.37644
0 1 0.380728
0 1 0.392462
0.535866 1 0.422248
1 1 0.454307
1 0.830961 0.469276
1 0.572641 0.483589
0 1 0.436362
0 1 0.436408
0 1 0.436484
0 1 0.436759
0 1 0.437507
0 1 0.43946
0.54902 1 0.444251
1 1 0.454307
1 0.823423 0.46978
0 1 0.436362
0 1 0.436377
0 1 0.436408
0 1 0.4365
0 1 0.436759
0 1 0.437476
0 1 0.439338
0.532235 1 0.444022
1 1 0.454307
0 0 0.0764477
0.106325 0 0.0749981
0.273701 0 0.0711681
0.524712 0 0.0599985
0.888395 0 0.0308843
1 0 0.0229953
1 0 0.220188
1 0 0.469627
1 0 0.499031
0 0.0762951 0.0690776
0.0676585 0.0676585 0.0676585
0.255711 0.0448463 0.0639048
0.514168 0 0.0529641
0.880873 0 0.0244602
1 0 0.0244602
1 0 0.221424
1 0 0.470314
1 0 0.49897
0 0.213947 0.0499123
0 0.209308 0.0485695
0.202731 0.196597 0.0450294
0.485634 0.155047 0.034699
0.86096 0 0.00772107
1 0 0.0278935
1 0 0.22472
1 0 0.472129
1 0 0.498787
0 0.415381 0
0 0.412604 0
0 0.405158 0
0.395071 0.382589 0
0.802197 0.316213 0
1 0.157473 0.0380865
1 0 0.234775
1 0.0626383 0.477531
1 0 0.498238
0 0.68162 0
0 0.679484 0
0 0.673945 0
0.0209659 0.658366 0
0.63772 0.619242 0
1 0.532662 0.0807202
1 0.387045 0.263645
1 0.339925 0.492531
1 0.14078 0.496742
0 0.960266 0.078233
0 0.959075 0.0802625
0 0.955917 0.0858167
0 0.946593 0.10071
0.289128 0.921538 0.136629
0.883696 0.861265 0.210178
1 0.744335 0.338628
1 0.583185 0.48629
1 0.337682 0.492988
0 1 0.380346
0 1 0.38088
0 1 0.382284
0 1 0.38645
0 1 0.397864
0.535698 1 0.426932
1 1 0.457832
1 0.830915 0.47155
1 0.572625 0.484688
0 1 0.438193
0 1 0.438224
0 1 0.438315
0 1 0.438575
0 1 0.439292
0 1 0.441184
0.548928 1 0.445823
1 1 0.455573
1 0.823392 0.470573
0 1 0.437003
0 1 0.437003
0 1 0.437034
0 1 0.437125
0 1 0.437385
0 1 0.438087
0 1 0.439933
0.532204 1 0.444572
1 1 0.454749
0 0 0.21593
0.0944533 0 0.214908
0.267964 0 0.212177
0.521431 0 0.204074
0.886183 0 0.181567
1 0 0.15787
1 0 0.265904
1 0 0.481209
1 0 0.502785
0 0.0746624 0.211429
0.0544137 0.066041 0.210407
0.249683 0.0432746 0.207675
0.510857 0 0.199573
0.878676 0 0.177066
1 0 0.157855
1 0 0.266728
1 0 0.481834
1 0 0.502724
0 0.212955 0.199313
0 0.208301 0.198291
0.195575 0.195575 0.195575
0.482231 0.153918 0.187488
0.858778 0 0.164904
1 0 0.157702
1 0 0.268956
1 0 0.483513
1 0 0.502525
0 0.414633 0.161868
0 0.411856 0.160845
0 0.40441 0.158083
0.391257 0.381842 0.149844
0.800046 0.31548 0.126436
1 0.157565 0.158251
1 0 0.276005
1 0.0640116 0.488533
1 0 0.501945
0 0.680797 0.0697185
0 0.678676 0.0716869
0 0.673182 0.0763561
0.0126192 0.65771 0.0881666
0.635737 0.618738 0.113588
1 0.532387 0.172396
1 0.387152 0.297642
1 0.340276 0.502525
1 0.140932 0.500374
0 0.959762 0.160739
0 0.958572 0.161883
0 0.955413 0.16492
0 0.946105 0.17377
0.287144 0.921096 0.19704
0.882719 0.860929 0.251408
1 0.744198 0.360021
1 0.583108 0.494652
1 0.337713 0.496406
0 1 0.395636
0 1 0.396124
0 1 0.397436
0 1 0.401297
0 1 0.411933
0.535256 1 0.439155
1 1 0.467109
1 0.830793 0.477546
1 0.57261 0.487633
0 1 0.443015
0 1 0.443046
0 1 0.443122
0 1 0.443351
0 1 0.444007
0 1 0.445747
0.548714 1 0.449989
1 1 0.458915
1 0.823362 0.472694
0 1 0.438666
0 1 0.438682
0 1 0.438712
0 1 0.438804
0 1 0.439048
0 1 0.439734
0 1 0.44152
0.532128 1 0.446021
1 1 0.455909
0 0 0.430106
0.0548104 0 0.429114
0.250141 0 0.426474
0.511482 0 0.418692
0.879576 0 0.397681
1 0 0.35761
1 0 0.372625
1 0 0.514275
1 0 0.513878
0 0.0697795 0.426566
0.0149386 0.0612192 0.425574
0.230884 0.0386053 0.422965
0.500816 0 0.415244
0.872084 0 0.394415
1 0 0.356222
1 0 0.372747
1 0 0.514763
1 0 0.513787
0 0.209979 0.417227
0 0.20531 0.416266
0.172885 0.192508 0.413703
0.471916 0.1505 0.406165
0.852216 0 0.385763
1 0 0.352712
1 0 0.373129
1 0 0.516075
1 0 0.513573
0 0.412375 0.390005
0 0.409598 0.389105
0 0.402167 0.386709
0.379629 0.379629 0.379629
0.793561 0.313283 0.360433
1 0.157839 0.343954
1 0 0.374777
1 0.0681468 0.520027
1 0 0.512901
0 0.678386 0.326787
0 0.676326 0.326711
0 0.67097 0.326452
0 0.655756 0.325658
0.629801 0.617227 0.32459
1 0.531594 0.331411
1 0.387472 0.382666
1 0.341329 0.531289
1 0.14136 0.511086
0 0.958236 0.307515
0 0.957046 0.307942
0 0.953918 0.309071
0 0.944656 0.312459
0.281147 0.919783 0.322148
0.879835 0.859937 0.348943
1 0.743786 0.417746
1 0.582879 0.518868
1 0.337804 0.506493
0 1 0.438285
0 1 0.438682
0 1 0.439719
0 1 0.442832
0 1 0.451438
0.533913 1 0.473854
1 1 0.493812
1 0.830427 0.495094
1 0.572534 0.496345
0 1 0.45716
0 1 0.457176
0 1 0.457237
0 1 0.457404
0 1 0.457893
0 1 0.459144
0.548058 1 0.462257
1 1 0.468803
1 0.823224 0.478981
0 1 0.443656
0 1 0.443656
0 1 0.443687
0 1 0.443763
0 1 0.443992
0 1 0.444617
0 1 0.44625
0.531899 1 0.450355
1 1 0.459358
0 0 0.755062
0 0 0.753826
0.193652 0 0.750546
0.482795 0 0.740887
0.860914 0 0.714992
1 0 0.648554
1 0 0.575097
1 0 0.597086
1 0 0.543877
0 0.0562295 0.751339
0 0.0478218 0.750118
0.170184 0.0256199 0.746868
0.471839 0 0.737301
0.853468 0 0.71165
1 0 0.645869
1 0 0.574304
1 0 0.597269
1 0 0.54377
0 0.201541 0.741558
0 0.196796 0.740368
0.0924697 0.183764 0.737194
0.442023 0.140734 0.727871
0.833692 0 0.702861
1 0 0.639048
1 0 0.572305
1 0 0.597787
1 0 0.543465
0 0.406073 0.713497
0 0.403296 0.712383
0 0.395895 0.709453
0.345373 0.373419 0.700801
0.77525 0.307088 0.677516
1 0.158709 0.620966
1 0 0.566873
1 0.0797894 0.599405
1 0 0.542565
0 0.672068 0.639261
0 0.67013 0.638331
0 0.665049 0.635904
0 0.650462 0.629145
0.613092 0.613077 0.613092
1 0.529427 0.5832
1 0.388373 0.55584
1 0.344274 0.604517
1 0.142596 0.540124
0 0.953979 0.542596
0 0.952819 0.542458
0 0.949722 0.542092
0 0.940612 0.541054
0.263844 0.916136 0.53875
0.871748 0.857176 0.53637
1 0.742626 0.547951
1 0.582269 0.581338
1 0.338064 0.533913
0 1 0.540139
0 1 0.540337
0 1 0.540887
0 1 0.542504
0 1 0.547112
0.530144 1 0.559686
1 1 0.561898
1 0.829404 0.541344
1 0.57232 0.520134
0 1 0.494835
0 1 0.494835
0 1 0.494835
0 1 0.49485
0 1 0.494881
0 1 0.494972
0.546181 1 0.495171
1 1 0.495613
1 0.822873 0.496315
0 1 0.457435
0 1 0.457435
0 1 0.45745
0 1 0.457511
0 1 0.457679
0 1 0.458137
0 1 0.459327
0.531243 1 0.462348
1 1 0.468986
0 0 1
0 0 1
0 0 1
0.397894 0 1
0.809644 0 1
1 0 1
1 0 0.910307
1 0 0.775631
1 0 0.618219
0 0.0208133 1
0 0.0128023 1
0 0 1
0.385657 0 1
0.802274 0 1
1 0 1
1 0 0.908476
1 0 0.775311
1 0 0.618036
0 0.177935 1
0 0.17293 1
0 0.159136 1
0.351873 0.112428 1
0.782712 0 1
1 0 1
1 0 0.9037
1 0 0.774472
1 0 0.617548
0 0.389013 1
0 0.386267 1
0 0.378927 1
0.23444 0.356588 1
0.721157 0.296147 1
1 0.161852 1
1 0 0.890089
1 0.109209 0.772091
1 0 0.616129
0 0.656855 1
0 0.655116 1
0 0.650538 1
0 0.637217 1
0.567498 0.602533 1
1 0.523903 0.965316
1 0.390951 0.856916
1 0.346548 0.763714
1 0.145907 0.612238
0 0.942702 0.902022
0 0.941588 0.901366
0 0.938628 0.899641
0 0.9299 0.89456
0.212619 0.906432 0.881086
0.849836 0.849821 0.849836
1 0.739544 0.795316
1 0.580575 0.722667
1 0.33875 0.602335
0 1 0.746303
0 1 0.746242
0 1 0.746059
0 1 0.745525
0 1 0.744183
0.51989 1 0.741558
1 1 0.712947
1 0.826596 0.650187
1 0.571771 0.580118
0 1 0.585184
0 1 0.585138
0 1 0.585031
0 1 0.58471
0 1 0.583795
0 1 0.581384
0.541054 1 0.575387
1 1 0.562341
1 0.821897 0.540917
0 1 0.493278
0 1 0.493278
0 1 0.493278
0 1 0.493294
0 1 0.493309
0 1 0.493355
0 1 0.493477
0.529442 1 0.493797
1 1 0.494499
0 0 1
0 0 1
0 0 1
0 0 1
0.66276 0 1
1 0 1
1 0 1
1 0 1
1 0 0.782376
0 0 1
0 0 1
0 0 1
0 0 1
0.655375 0 1
1 0 1
1 0 1
1 0 1
1 0 0.782086
0 0.107118 1
0 0.10074 1
0 0.0825666 1
0 0.025391 1
0.636225 0 1
1 0 1
1 0 1
1 0.0101778 1
1 0 0.781262
0 0.351217 1
0 0.349218 1
0 0.343862 1
0 0.327886 1
0.581903 0.284459 1
1 0.175204 1
1 0 1
1 0.16994 1
1 0.00805676 0.778866
0 0.624063 1
0 0.622644 1
0 0.618891 1
0 0.607889 1
0.441947 0.578851 1
1 0.51194 1
1 0.398825 1
1 0.351202 1
1 0.154574 0.772244
0 0.914611 1
0 0.913619 1
0 0.910979 1
0 0.903212 1
0.00561532 0.882261 1
0.79234 0.831495 1
1 0.732052 1
1 0.576135 0.997131
1 0.340597 0.755322
0 1 1
0 1 1
0 1 1
0 1 1
0 1 1
0.492851 1 1
1 0.999969 0.999985
1 0.819089 0.872938
1 0.57026 0.716762
0 1 0.775357
0 1 0.77525
0 1 0.774945
0 1 0.77406
0 1 0.771557
0 1 0.76492
0.527001 1 0.748241
1 1 0.710979
1 0.819242 0.646448
0 1 0.579782
0 1 0.579767
0 1 0.579736
0 1 0.579629
0 1 0.579324
0 1 0.5785
0 1 0.576349
0.524498 1 0.570825
1 1 0.558267
0 0 1
0 0 1
0 0 1
0 0 1
0.254444 0 1
0.933577 0 1
1 0 1
1 0.0837415 1
1 0 1
0 0.0049897 1
0 0.00247196 1
0 0 1
0 0 1
0.246662 0 1
0.929641 0 1
1 0 1
1 0.100649 1
1 0 1
0 0.135378 1
0 0.133364 1
0 0.127977 1
0 0.111574 1
0.225391 0.0629282 1
0.91928 0 1
1 0 1
1 0.138521 1
1 0 1
0 0.324697 1
0 0.323507 1
0 0.320348 1
0 0.311086 1
0.154971 0.286473 1
0.889311 0.229908 1
1 0.154513 1
1 0.2206 1
1 0.0505379 1
0 0.569955 1
0 0.569039 1
0 0.566613 1
0 0.559503 1
0 0.540597 1
0.81265 0.496757 1
1 0.424628 1
1 0.362158 1
1 0.175952 1
0 0.854215 1
0 0.853483 1
0 0.85153 1
0 0.845777 1
0 0.830213 1
0.649256 0.792264 1
1 0.717311 1
1 0.565042 1
1 0.345464 1
0 1 1
0 1 1
0 1 1
0 1 1
0 1 1
0.384833 1 1
0.922652 0.961227 1
1 0.799527 1
1 0.566186 0.98938
0 1 1
0 1 1
0 1 1
0 1 1
0 1 1
0 1 1
0.4878 1 1
1 0.999969 0.999985
1 0.811933 0.868101
0 1 0.76701
0 1 0.766964
0 1 0.766873
0 1 0.766567
0 1 0.765713
0 1 0.763409
0 1 0.757244
0.510597 1 0.741344
1 1 0.704265
0 0.279896 1
0 0.279713 1
0 0.279255 1
0 0.277974 1
0 0.275059 1
0.462913 0.271977 1
1 0.29012 1
1 0.227817 1
1 0.0837415 1
0 0.292195 1
0 0.292012 1
0 0.291539 1
0 0.290196 1
0 0.287098 1
0.461097 0.283375 1
1 0.299229 1
1 0.234028 1
1 0.0897841 1
0 0.322545 1
0 0.322347 1
0 0.321828 1
0 0.320348 1
0 0.316823 1
0.456306 0.311589 1
1 0.322179 1
1 0.249836 1
1 0.104814 1
0 0.398138 1
0 0.39791 1
0 0.397299 1
0 0.395514 1
0 0.391028 1
0.44242 0.382574 1
1 0.38175 1
1 0.291859 1
1 0.143038 1
0 0.546136 1
0 0.545846 1
0 0.545068 1
0 0.542824 1
0 0.536889 1
0.406882 0.523644 1
1 0.505867 1
1 0.383139 1
1 0.221927 1
0 0.76968 1
0 0.76936 1
0 0.768475 1
0 0.765866 1
0 0.758816 1
0.335592 0.741619 1
0.95256 0.673182 1
1 0.540993 1
1 0.357443 1
0 0.971222 1
0 0.970794 1
0 0.969696 1
0 0.966384 1
0 0.957229 1
0 0.933181 1
0.733639 0.874784 1
1 0.752514 1
1 0.55555 1
0 1 1
0 1 1
0 1 1
0 1 1
0 1 1
0 1 1
0.373083 1 1
0.918807 0.959365 1
1 0.792035 1
0 1 1
0 1 1
0 1 1
0 1 1
0 1 1
0 1 1
0 1 1
0.469932 1 1
1 0.999969 0.999985
