800nits_HDR-to-SDR.cube
TITLE "Generated by Resolve"
LUT_3D_SIZE 33
0 0 0
0.0274662 0 0
0.0521859 0 0
0.0790265 0 0
0.110567 0 0
0.145464 0 0
0.184375 0 0
0.22768 0 0
0.275837 0 0
0.329274 0 0
0.388449 0 0
0.453849 0 0
0.525948 0 0
0.605188 0 0
0.691966 0 0
0.786587 0 0
0.88922 0 0
0.999817 0 0
1 0 0
1 0 0
1 0 0
1 0 0.0115358
1 0 0.0695964
1 0 0.13698
1 0 0.200793
1 0 0.264683
1 0 0.329854
1 0 0.396674
1 0 0.465217
1 0 0.497627
1 0 0.497627
1 0 0.497627
1 0 0.497627
0 0.0187076 0
0.0177157 0.0166476 0
0.0423896 0.014786 0
0.0691997 0.0127565 0
0.102129 0.0101778 0
0.138491 0.00669871 0
0.178515 0.00202945 0
0.222721 0 0
0.27158 0 0
0.325582 0 0
0.385229 0 0
0.451011 0 0
0.5234 0 0
0.602884 0 0
0.68986 0 0
0.784634 0 0
0.887404 0 0
0.998093 0 0
1 0 0
1 0 0
1 0 0
1 0 0.0119173
1 0 0.0700542
1 0 0.137392
1 0 0.201144
1 0 0.264973
1 0 0.330098
1 0 0.396887
1 0 0.465385
1 0 0.497581
1 0 0.497597
1 0 0.497597
1 0 0.497612
0 0.035523 0
0.00895705 0.0334478 0
0.0336004 0.0315862 0
0.0603647 0.0295567 0
0.0941634 0.0269627 0
0.131991 0.0234684 0
0.173129 0.0187839 0
0.218173 0.0125582 0
0.267704 0.00434882 0
0.32224 0 0
0.382315 0 0
0.448432 0 0
0.521111 0 0
0.600809 0 0
0.687968 0 0
0.782879 0 0
0.885756 0 0
0.996536 0 0
1 0 0
1 0 0
1 0 0
1 0 0.012253
1 0 0.0704814
1 0 0.137758
1 0 0.20145
1 0 0.265232
1 0 0.330327
1 0 0.39707
1 0 0.465537
1 0 0.497551
1 0 0.497566
1 0 0.497581
1 0 0.497597
0 0.0537423 0
0 0.051667 0
0.0240787 0.0497902 0
0.0507973 0.0477455 0
0.0850538 0.0451514 0
0.124681 0.0416419 0
0.167132 0.0369268 0
0.213169 0.0306859 0
0.263447 0.0224308 0
0.318593 0.0116426 0
0.379126 0 0
0.445624 0 0
0.518608 0 0
0.59855 0 0
0.685908 0 0
0.780987 0 0
0.88397 0 0
0.994858 0 0
1 0 0
1 0 0
1 0 0
1 0 0.0126345
1 0 0.0709392
1 0 0.138155
1 0 0.201785
1 0 0.265522
1 0 0.330571
1 0 0.397269
1 0 0.465705
1 0 0.49752
1 0 0.497536
1 0 0.497566
1 0 0.497581
0 0.0769055 0
0 0.074815 0
0.0119631 0.0729229 0
0.0386358 0.0708782 0
0.0726329 0.0682689 0
0.114961 0.0647288 0
0.159258 0.0599985 0
0.206638 0.0537118 0
0.257954 0.0454261 0
0.313878 0.0345769 0
0.375036 0.0204776 0
0.442039 0.00224308 0
0.515404 0 0
0.595682 0 0
0.683268 0 0
0.778546 0 0
0.881697 0 0
0.992721 0 0
1 0 0
1 0 0
1 0 0
1 0 0.0131228
1 0 0.0715343
1 0 0.138659
1 0 0.202228
1 0 0.265904
1 0 0.330877
1 0 0.397528
1 0 0.465919
1 0 0.497475
1 0 0.497505
1 0 0.497536
1 0 0.497551
0 0.106249 0
0 0.104433 0
0 0.102785 0
0.0222477 0.100984 0
0.0561532 0.0986343 0
0.100923 0.0954299 0
0.148165 0.0910201 0
0.197574 0.0849622 0
0.25037 0.0764019 0
0.307424 0.0654765 0
0.369467 0.0512703 0
0.437156 0.0329137 0
0.51107 0.00936904 0
0.59176 0 0
0.679713 0 0
0.775265 0 0
0.87863 0 0
0.989822 0 0
1 0 0
1 0 0
1 0 0
1 0 0.0137789
1 0 0.0723278
1 0 0.139345
1 0 0.202808
1 0 0.266392
1 0 0.331304
1 0 0.397879
1 0 0.466194
1 0 0.497414
1 0 0.497459
1 0 0.497505
1 0 0.49752
0 0.138659 0
0 0.137133 0
0 0.135744 0
0.000396735 0.134234 0
0.0341802 0.13228 0
0.0798505 0.12961 0
0.132342 0.125978 0
0.184924 0.121019 0
0.239933 0.11429 0
0.298619 0.105058 0
0.361898 0.0922255 0
0.430549 0.0738384 0
0.505226 0.0500649 0
0.586511 0.0197604 0
0.674922 0 0
0.77084 0 0
0.87451 0 0
0.985931 0 0
1 0 0
1 0 0
1 0 0
1 0 0.0146639
1 0 0.0734264
1 0 0.140276
1 0 0.203601
1 0 0.267063
1 0 0.331868
1 0 0.398352
1 0 0.46659
1 0 0.497322
1 0 0.497398
1 0 0.497444
1 0 0.49749
0 0.174594 0
0 0.173281 0
0 0.172107 0
0 0.170825 0
0.00514229 0.169177 0
0.0505989 0.166918 0
0.109133 0.163882 0
0.167071 0.159747 0
0.225513 0.154192 0
0.28661 0.14667 0
0.351659 0.136461 0
0.421653 0.122408 0
0.497383 0.102586 0
0.579492 0.0731823 0
0.668544 0.0343786 0
0.764965 0 0
0.869017 0 0
0.980758 0 0
1 0 0
1 0 0
1 0 0
1 0 0.0158694
1 0 0.0748913
1 0 0.141527
1 0 0.204654
1 0 0.267964
1 0 0.332616
1 0 0.398978
1 0 0.467094
1 0 0.497215
1 0 0.497307
1 0 0.497383
1 0 0.497444
0 0.214313 0
0 0.213199 0
0 0.212192 0
0 0.211093 0
0 0.209674 0
0.0123293 0.207752 0
0.0728771 0.205158 0
0.141222 0.201663 0
0.205356 0.196979 0
0.270146 0.190707 0
0.337819 0.1823 0
0.409735 0.170947 0
0.486915 0.155459 0
0.570153 0.133883 0
0.660075 0.102449 0
0.757183 0.0542306 0
0.861784 0 0
0.973938 0 0
1 0 0
1 0 0
1 0 0
1 0 0.0175174
1 0 0.0768902
1 0 0.143175
1 0 0.206058
1 0 0.269154
1 0 0.333608
1 0 0.399802
1 0 0.467781
1 0 0.497078
1 0 0.4972
1 0 0.497292
1 0 0.497368
0 0.258106 0
0 0.25713 0
0 0.25626 0
0 0.255299 0
0 0.254078 0
0 0.252415 0
0.0227817 0.250187 0
0.101503 0.247181 0
0.176501 0.243168 0
0.247364 0.237842 0
0.319005 0.230732 0
0.393744 0.221286 0
0.472984 0.208606 0
0.557794 0.191485 0
0.64892 0.167834 0
0.74696 0.133944 0
0.852277 0.080415 0
0.965011 0.00311284 0
1 0 0
1 0 0
1 0 0
1 0 0.0197299
1 0 0.0795605
1 0 0.145357
1 0 0.207889
1 0 0.27071
1 0 0.33492
1 0 0.400885
1 0 0.468666
1 0 0.49688
1 0 0.497047
1 0 0.497185
1 0 0.497292
0 0.306157 0
0 0.305303 0
0 0.30454 0
0 0.3037 0
0 0.302632 0
0 0.301183 0
0 0.299229 0
0.0374914 0.29662 0
0.13286 0.293141 0
0.215106 0.288533 0
0.293217 0.282429 0
0.372213 0.274357 0
0.454475 0.263676 0
0.541482 0.249485 0
0.634287 0.230411 0
0.733577 0.204379 0
0.839872 0.167575 0
0.953368 0.111177 0
1 0.0174868 0
1 0 0
1 0 0
1 0 0.0227359
1 0 0.0833906
1 0 0.148226
1 0 0.210315
1 0 0.272755
1 0 0.336645
1 0 0.402319
1 0 0.469841
1 0.00665293 0.496635
1 0 0.496864
1 0 0.497032
1 0 0.497169
0 0.358648 0
0 0.3579 0
0 0.357214 0
0 0.356481 0
0 0.355535 0
0 0.354253 0
0 0.352529 0
0 0.35024 0
0.0576028 0.347173 0
0.167041 0.34313 0
0.257084 0.337804 0
0.342962 0.3308 0
0.429755 0.321584 0
0.519966 0.309483 0
0.615106 0.293477 0
0.716167 0.272175 0
0.823789 0.243351 0
0.938308 0.203128 0
1 0.142901 0
1 0.0920119 0
1 0.00852979 0
1 0 0.0268406
1 0 0.0881208
1 0 0.151995
1 0 0.213474
1 0 0.275425
1 0 0.338872
1 0 0.404166
1 0 0.471366
1 0.0438697 0.496315
1 0.00907912 0.49662
1 0 0.496849
1 0 0.497032
0 0.415671 0
0 0.414984 0
0 0.414389 0
0 0.413718 0
0 0.412879 0
0 0.411734 0
0 0.410208 0
0 0.408148 0
0 0.405432 0
0.0846418 0.401846 0
0.204013 0.397131 0
0.302403 0.390951 0
0.396506 0.382864 0
0.491524 0.372305 0
0.590036 0.358511 0
0.693553 0.340398 0
0.803006 0.316487 0
0.918914 0.284443 0
1 0.250446 0
1 0.211063 0
1 0.157443 0
1 0.0803845 0.0324865
1 0 0.0942702
1 0 0.156909
1 0 0.217578
1 0 0.278889
1 0 0.341772
1 0 0.406577
1 0.0621195 0.473335
1 0.0915541 0.495903
1 0.0462043 0.4963
1 0.0105592 0.496605
1 0 0.496849
0 0.477165 0
0 0.476555 0
0 0.476005 0
0 0.47541 0
0 0.474647 0
0 0.473625 0
0 0.472236 0
0 0.47039 0
0 0.467948 0
0 0.464729 0
0.115526 0.460502 0
0.243702 0.454978 0
0.350912 0.447776 0
0.45362 0.438422 0
0.557198 0.426261 0
0.664256 0.410468 0
0.776272 0.389899 0
0.890745 0.364965 0
1 0.33901 0
1 0.305745 0
1 0.265064 0
1 0.215488 0.0402991
1 0.154635 0.102281
1 0.0764477 0.163287
1 0 0.222904
1 0 0.283375
1 0 0.345525
1 0.0182345 0.409674
1 0.140093 0.475883
1 0.140703 0.495384
1 0.0935073 0.495888
1 0.0474098 0.496284
1 0.0111086 0.496605
0 0.542947 0
0 0.542397 0
0 0.541894 0
0 0.541344 0
0 0.540658 0
0 0.539727 0
0 0.53846 0
0 0.536797 0
0 0.534569 0
0 0.531655 0
0 0.527825 0
0.148211 0.522835 0
0.285832 0.516335 0
0.402274 0.507927 0
0.513924 0.497047 0
0.626261 0.483009 0
0.738277 0.46598 0
0.852018 0.446006 0
0.969833 0.421851 0
1 0.392889 0
1 0.358511 0.00187686
1 0.318318 0.0511635
1 0.272389 0.112581
1 0.221729 0.171542
1 0.169894 0.229786
1 0.126345 0.289128
1 0.110887 0.350332
1 0.141024 0.413672
1 0.208377 0.479164
1 0.189181 0.494713
1 0.141848 0.495369
1 0.0941634 0.495888
1 0.0474708 0.496284
0 0.612619 0
0 0.612116 0
0 0.611658 0
0 0.611154 0
0 0.610529 0
0 0.609674 0
0 0.608515 0
0 0.606989 0
0 0.604959 0
0 0.602289 0
0 0.598795 0
0 0.594232 0
0.182452 0.588327 0
0.331029 0.580407 0
0.457755 0.569711 0
0.575387 0.557443 0
0.691829 0.542611 0
0.809857 0.524651 0
0.930587 0.503014 0
1 0.47718 0
1 0.446754 0.0157015
1 0.411566 0.0663462
1 0.37203 0.12575
1 0.329442 0.182147
1 0.286885 0.238605
1 0.250385 0.296513
1 0.229831 0.356512
1 0.23621 0.418784
1 0.273991 0.48336
1 0.238651 0.493874
1 0.1897 0.494713
1 0.141863 0.495369
1 0.0935683 0.495888
0 0.681941 0
0 0.681407 0
0 0.680949 0
0 0.68043 0
0 0.679789 0
0 0.67892 0
0 0.67776 0
0 0.676219 0
0 0.67422 0
0 0.671626 0
0 0.668299 0
0 0.664027 0
0.0241093 0.65861 0
0.245624 0.651789 0
0.389197 0.643229 0
0.516167 0.632593 0
0.638468 0.61944 0
0.760479 0.603326 0
0.884092 0.58378 0
1 0.560372 0
1 0.532753 0.0354925
1 0.500832 0.0877394
1 0.464958 0.142351
1 0.426215 0.195636
1 0.387015 0.249836
1 0.351644 0.305928
1 0.326802 0.36437
1 0.320714 0.425299
1 0.339803 0.488731
1 0.289982 0.492836
1 0.238605 0.493889
1 0.189136 0.494713
1 0.140734 0.495384
0 0.751156 0
0 0.750744 0
0 0.750362 0
0 0.74995 0
0 0.749416 0
0 0.748714 0
0 0.747753 0
0 0.746487 0
0 0.744823 0
0 0.742641 0
0 0.739818 0
0 0.736156 0
0 0.731472 0
0.0980697 0.72549 0
0.299275 0.717937 0
0.443839 0.708461 0
0.574975 0.696651 0
0.702235 0.682094 0
0.829297 0.664317 0
0.957626 0.642924 0.0222171
1 0.617533 0.0638132
1 0.588022 0.11397
1 0.55465 0.162997
1 0.518227 0.212619
1 0.480613 0.264027
1 0.44506 0.31783
1 0.416602 0.374319
1 0.401785 0.43357
1 0.400366 0.489952
1 0.343648 0.491554
1 0.289433 0.492851
1 0.237537 0.493904
1 0.187518 0.494743
0 0.822171 0
0 0.821805 0
0 0.821469 0
0 0.821103 0
0 0.820645 0
0 0.82002 0
0 0.819181 0
0 0.818082 0
0 0.816617 0
0 0.814694 0
0 0.812192 0
0 0.808957 0
0 0.804791 0
0 0.799466 0
0.165743 0.792721 0
0.352544 0.784207 0
0.498772 0.773556 0
0.633722 0.760342 0.00181582
0.765301 0.744137 0.0278019
0.896529 0.724498 0.0611429
1 0.701045 0.102617
1 0.673579 0.144869
1 0.642206 0.188251
1 0.607523 0.233707
1 0.570916 0.281773
1 0.53492 0.332784
1 0.503471 0.386847
1 0.481987 0.444007
1 0.459403 0.488045
1 0.399817 0.489967
1 0.342611 0.491569
1 0.287877 0.492882
1 0.235447 0.493935
0 0.892531 0
0 0.892195 0
0 0.891905 0
0 0.891585 0
0 0.891173 0
0 0.890623 0
0 0.889876 0
0 0.888899 0
0 0.887602 0
0 0.885893 0
0 0.883665 0
0 0.880796 0
0 0.877073 0
0 0.872328 0
0 0.866285 0.00595102
0.228428 0.858625 0.018555
0.406256 0.849027 0.0347601
0.553597 0.837064 0.0555734
0.691478 0.822309 0.0824903
0.826322 0.804318 0.113146
0.960586 0.782681 0.145739
1 0.757137 0.180743
1 0.727626 0.21854
1 0.694545 0.259449
1 0.658885 0.30367
1 0.622629 0.351339
1 0.588922 0.402487
1 0.562234 0.457084
1 0.520546 0.485771
1 0.458457 0.488075
1 0.398352 0.490013
1 0.340627 0.49163
1 0.285344 0.492943
0 0.960464 0.0391089
0 0.960174 0.0396277
0 0.959915 0.0400854
0 0.959625 0.0405737
0 0.959274 0.0412146
0 0.958785 0.0420691
0 0.958129 0.0432288
0 0.957259 0.04477
0 0.9561 0.0468147
0 0.954589 0.049485
0 0.952621 0.0530098
0 0.950072 0.0575875
0 0.946777 0.0635538
0 0.94255 0.0712596
0 0.937148 0.0814679
0.000183108 0.930312 0.0937514
0.28986 0.921691 0.108248
0.460258 0.910918 0.125185
0.60763 0.897581 0.144778
0.747189 0.881209 0.167254
0.884047 0.861387 0.192844
1 0.837766 0.221744
1 0.810208 0.254185
1 0.778851 0.290318
1 0.744396 0.330266
1 0.708339 0.37409
1 0.673167 0.421805
1 0.642588 0.473335
1 0.5832 0.483116
1 0.519249 0.485817
1 0.456611 0.488136
1 0.395972 0.490089
1 0.337682 0.491707
0 1 0.134234
0 1 0.1346
0 1 0.134936
0 1 0.135302
0 1 0.13576
0 1 0.136385
0 1 0.137209
0 1 0.138308
0 1 0.139757
0 1 0.141649
0 1 0.144091
0 1 0.14725
0 1 0.151263
0 1 0.156329
0 1 0.162707
0 0.997742 0.170626
0.119646 0.990097 0.180392
0.351095 0.980499 0.192309
0.514138 0.968551 0.206699
0.660136 0.953826 0.223865
0.799924 0.935866 0.244175
0.937362 0.914305 0.267887
1 0.888853 0.295293
1 0.859495 0.326604
1 0.826658 0.362005
1 0.791409 0.401587
1 0.755673 0.44538
1 0.710979 0.476677
1 0.646632 0.480095
1 0.581674 0.483192
1 0.517143 0.485893
1 0.453941 0.488228
1 0.392691 0.490181
0 1 0.21796
0 1 0.218204
0 1 0.218433
0 1 0.218677
0 1 0.218982
0 1 0.219394
0 1 0.219959
0 1 0.220691
0 1 0.221668
0 1 0.22295
0 1 0.224613
0 1 0.22678
0 1 0.229557
0 1 0.233097
0 1 0.237613
0 1 0.24329
0 1 0.250416
0.219287 1 0.259281
0.412482 1 0.270207
0.567544 1 0.283543
0.710582 1 0.299672
0.849012 0.985321 0.318959
0.985351 0.962203 0.341772
1 0.935195 0.368414
1 0.904463 0.399176
1 0.870726 0.434241
1 0.8327 0.469154
1 0.772793 0.47303
1 0.709804 0.476753
1 0.644953 0.480186
1 0.579385 0.483284
1 0.514229 0.486015
1 0.45037 0.48835
0 1 0.296895
0 1 0.297078
0 1 0.29723
0 1 0.297398
0 1 0.297627
0 1 0.297932
0 1 0.298329
0 1 0.298863
0 1 0.299565
0 1 0.300496
0 1 0.301717
0 1 0.303288
0 1 0.305318
0 1 0.307927
0 1 0.311254
0 1 0.315496
0 1 0.320851
0.0311742 1 0.327581
0.306401 1 0.335973
0.474052 1 0.346365
0.620172 1 0.359136
0.758587 1 0.374685
0.893874 1 0.393393
1 1 0.415686
1 0.976455 0.441901
1 0.939147 0.461387
1 0.888106 0.465263
1 0.831998 0.469215
1 0.771649 0.473106
1 0.708125 0.476844
1 0.642634 0.480308
1 0.576379 0.483421
1 0.510506 0.486152
0 1 0.374456
0 1 0.374578
0 1 0.374701
0 1 0.374823
0 1 0.37499
0 1 0.375219
0 1 0.375509
0 1 0.375906
0 1 0.37644
0 1 0.377127
0 1 0.378027
0 1 0.379202
0 1 0.380728
0 1 0.382681
0 1 0.385183
0 1 0.388388
0 1 0.392462
0 1 0.397604
0.206516 1 0.404089
0.388785 1 0.412192
0.535866 1 0.422248
0.671992 1 0.434653
0.803265 1 0.448569
0.925612 1 0.451255
1 1 0.454307
1 0.984527 0.457725
1 0.938857 0.461418
1 0.887495 0.465309
1 0.830961 0.469276
1 0.770077 0.473198
1 0.705898 0.476967
1 0.639658 0.480446
1 0.572641 0.483589
0 1 0.436362
0 1 0.436393
0 1 0.436408
0 1 0.436423
0 1 0.436439
0 1 0.436469
0 1 0.436515
0 1 0.436561
0 1 0.436637
0 1 0.436728
0 1 0.436851
0 1 0.437003
0 1 0.437217
0 1 0.437476
0 1 0.437812
0 1 0.438239
0 1 0.438773
0 1 0.43946
0.0264286 1 0.44033
0.269276 1 0.441398
0.421164 1 0.44271
0.553735 1 0.444312
0.679515 1 0.44625
0.802869 1 0.448554
0.925338 1 0.45124
1 1 0.454307
1 0.984375 0.457725
1 0.938415 0.461448
1 0.886656 0.46537
1 0.829602 0.469368
1 0.768032 0.473335
1 0.70309 0.477119
1 0.636027 0.480629
0 1 0.436362
0 1 0.436377
0 1 0.436393
0 1 0.436408
0 1 0.436423
0 1 0.436454
0 1 0.436484
0 1 0.436515
0 1 0.436576
0 1 0.436652
0 1 0.436744
0 1 0.436866
0 1 0.437018
0 1 0.437232
0 1 0.437491
0 1 0.437827
0 1 0.438254
0 1 0.438788
0 1 0.439475
0.0276493 1 0.44033
0.269062 1 0.441398
0.420539 1 0.44271
0.55288 1 0.444312
0.67866 1 0.44625
0.802152 1 0.448539
0.924895 1 0.45124
1 1 0.454307
1 0.984146 0.457755
1 0.937835 0.461494
1 0.885603 0.465446
1 0.827878 0.46949
1 0.765545 0.473487
1 0.699718 0.477302
0 1 0.436362
0 1 0.436377
0 1 0.436393
0 1 0.436393
0 1 0.436408
0 1 0.436423
0 1 0.436454
0 1 0.436484
0 1 0.43653
