800nits_HDR-to-SDR.cube
TITLE "Generated by Resolve"
LUT_3D_SIZE 5
0 0 0
0.275837 0 0
0.88922 0 0
1 0 0.200793
1 0 0.497627
0 0.214313 0
0.205356 0.196979 0
0.861784 0 0
1 0 0.206058
1 0 0.497368
0 0.681941 0
0 0.67422 0
0.638468 0.61944 0
1 0.387015 0.249836
1 0.140734 0.495384
0 1 0.374456
0 1 0.37644
0 1 0.392462
1 1 0.454307
1 0.572641 0.483589
0 1 0.436362
0 1 0.436408
0 1 0.436759
0 1 0.439338
1 1 0.454307
0 0 0.21593
0.267964 0 0.212177
0.886183 0 0.181567
1 0 0.265904
1 0 0.502785
0 0.212955 0.199313
0.195575 0.195575 0.195575
0.858778 0 0.164904
1 0 0.268956
1 0 0.502525
0 0.680797 0.0697185
0 0.673182 0.0763561
0.635737 0.618738 0.113588
1 0.387152 0.297642
1 0.140932 0.500374
0 1 0.395636
0 1 0.397436
0 1 0.411933
1 1 0.467109
1 0.57261 0.487633
0 1 0.438666
0 1 0.438712
0 1 0.439048
0 1 0.44152
1 1 0.455909
0 0 0.755062
0.193652 0 0.750546
0.860914 0 0.714992
1 0 0.575097
1 0 0.543877
0 0.201541 0.741558
0.0924697 0.183764 0.737194
0.833692 0 0.702861
1 0 0.572305
1 0 0.543465
0 0.672068 0.639261
0 0.665049 0.635904
0.613092 0.613077 0.613092
1 0.388373 0.55584
1 0.142596 0.540124
0 1 0.540139
0 1 0.540887
0 1 0.547112
1 1 0.561898
1 0.57232 0.520134
0 1 0.457435
0 1 0.45745
0 1 0.457679
0 1 0.459327
1 1 0.468986
0 0 1
0 0 1
0.66276 0 1
1 0 1
1 0 0.782376
0 0.107118 1
0 0.0825666 1
0.636225 0 1
1 0 1
1 0 0.781262
0 0.624063 1
0 0.618891 1
0.441947 0.578851 1
1 0.398825 1
1 0.154574 0.772244
0 1 1
0 1 1
0 1 1
1 0.999969 0.999985
1 0.57026 0.716762
0 1 0.579782
0 1 0.579736
0 1 0.579324
0 1 0.576349
1 1 0.558267
0 0.279896 1
0 0.279255 1
0 0.275059 1
1 0.29012 1
1 0.0837415 1
0 0.322545 1
0 0.321828 1
0 0.316823 1
1 0.322179 1
1 0.104814 1
0 0.546136 1
0 0.545068 1
0 0.536889 1
1 0.505867 1
1 0.221927 1
0 0.971222 1
0 0.969696 1
0 0.957229 1
0.733639 0.874784 1
1 0.55555 1
0 1 1
0 1 1
0 1 1
0 1 1
1 0.999969 0.999985
